/* XPM */
static char *result[] = {
/* columns rows colors chars-per-pixel */
"493 507 83 1 ",
"  c #451D33",
". c #4B1D36",
"X c #4F1F39",
"o c #531D39",
"O c #5B1E3D",
"+ c #631C3E",
"@ c #4E2039",
"# c #53213C",
"$ c #58223F",
"% c #5D1F40",
"& c #641E41",
"* c #6B1E44",
"= c #721F46",
"- c #781F47",
"; c #721F48",
": c #791F49",
"> c #5D2342",
", c #632445",
"< c #6B2146",
"1 c #672648",
"2 c #6B2549",
"3 c #6D294D",
"4 c #742047",
"5 c #782047",
"6 c #74224A",
"7 c #7C214A",
"8 c #72294F",
"9 c #762750",
"0 c #7C2651",
"q c #752B52",
"w c #7C2C55",
"e c #7F2C58",
"r c #83224D",
"t c #88224F",
"y c #832453",
"u c #8C2352",
"i c #812B57",
"p c #882A57",
"a c #8C2659",
"s c #842B59",
"d c #8D2A5C",
"f c #932455",
"g c #982557",
"h c #93265A",
"j c #9C265A",
"k c #922A5E",
"l c #99295F",
"z c #A3275D",
"x c #A8275F",
"c c #A6285F",
"v c #A8285F",
"b c #9B2760",
"n c #962A60",
"m c #9C2A62",
"M c #A42761",
"N c #A92762",
"B c #A42A65",
"V c #AB2964",
"C c #A72B68",
"Z c #AC2A69",
"A c #B32A66",
"S c #B42B6C",
"D c #BB2C6D",
"F c #B9306F",
"G c #BD2C70",
"H c #BF3170",
"J c #C32D6E",
"K c #C32D72",
"L c #CC2E75",
"P c #CF2F78",
"I c #D22F76",
"U c #D32F79",
"Y c #D92F7C",
"T c #C43072",
"R c #CD3075",
"E c #D33077",
"W c #D5307A",
"Q c #DC317C",
"! c #E2327E",
"~ c #E63380",
"^ c #EA3382",
"/ c #F13485",
"( c None",
/* pixels */
"(((((((((((((((((((((((((((((((((((((((((((((((((((((((((((((((((((((((((((((((((((((((((((((((((((((((((((((((((((((((((((((((((((((((((((((((((((((((((((((((((((((((((((((((((((((((((((((((((((((((((((((((((((((((((((((((((((((((((((((((((((((((((((((((((((((((((((((((((((((((((((((((((((((((((((((((((((((((((((((((((((((((((((((((((((((((((((((((((((((((((((((((((((((((((((((((((((((((((((((((((((((((((((((((((((((((((((((((((((((((((((((((((((((((((((((((((((((((((((((((((((((((((((((",
"(((((((((((((((((((((((((((((((((((((((((((((((((((((((((((((((((((((((((((((((((((((((((((((((((((((((((((((((((((((((((((((((((((((((((((((((((((((((((((((((((((((((((((((((((((((((((((((((((((((((((((((((((((((((((((((((((((((((((((((((((((((((((((((((((((((((((((((((((((((((((((((((((((((((((((((((((((((((((((((((((((((((((((((((((((((((((((((((((((((((((((((((((((((((((((((((((((((((((((((((((((((((((((((((((((((((((((((((((((((((((((((((((((((((((((((((((((((((((((((((((((((((((((((",
"(((((((((((((((((((((((((((((((((((((((((((((((((((((((((((((((((((((((((((((((((((((((((((((((((((((((((((((((((((((((((((((((((((((((((((((((((((((((((((((((((((((((((((((((((((((((((((((((((((((((((((((((((((((((((((((((((((((((((((((((((((((((((((((((((((((((((((((((((((((((((((((((((((((((((((((((((((((((((((((((((((((((((((((((((((((((((((((((((((((((((((((((((((((((((((((((((((((((((((((((((((((((((((((((((((((((((((((((((((((((((((((((((((((((((((((((((((((((((((((((((((((((((((((",
"(((((((((((((((((((((((((((((((((((((((((((((((((((((((((((((((((((((((((((((((((((((((((((((((((((((((((((((((((((((((((((((((((((((((((((((((((((((((((((((((((((((((((((((((((((((((((((((((((((((((((((((((((((((((((((((((((((((((((((((((((((((((((((((((((((((((((((((((((((((((((((((((((((((((((((((((((((((((((((((((((((((((((((((((((((((((((((((((((((((((((((((((((((((((((((((((((((((((((((((((((((((((((((((((((((((((((((((((((((((((((((((((((((((((((((((((((((((((((((((((((((((((((((((",
"(((((((((((((((((((((((((((((((((((((((((((((((((((((((((((((((((((((((((((((((((((((((((((((((((((((((((((((((((((((((((((((((((((((((((((((((((((((((((((((((((((((((((((((((((((((((((((((((((((((((((((((((((((((((((((((((((((((((((((((((((((((((((((((((((((((((((((((((((((((((((((((((((((((((((((((((((((((((((((((((((((((((((((((((((((((((((((((((((((((((((((((((((((((((((((((((((((((((((((((((((((((((((((((((((((((((((((((((((((((((((((((((((((((((((((((((((((((((((((((((((((((((((((((",
"(((((((((((((((((((((((((((((((((((((((((((((((((((((((((((((((((((((((((((((((((((((((((((((((((((((((((((((((((((((((((((((((((((((((((((((((((((((((((((((((((((((((((((((((((((((((((((((((((((((((((((((((((((((((((((((((((((((((((((((((((((((((((((((((((((((((((((((((((((((((((((((((((((((((((((((((((((((((((((((((((((((((((((((((((((((((((((((((((((((((((((((((((((((((((((((((((((((((((((((((((((((((((((((((((((((((((((((((((((((((((((((((((((((((((((((((((((((((((((((((((((((((((((((",
"(((((((((((((((((((((((((((((((((((((((((((((((((((((((((((((((((((((((((((((((((((((((((((((((((((((((((((((((((((((((((((((((((((((((((((((((((((((((((((((((((((((((((((((((((((((((((((((((((((((((((((((((((((((((((((((((((((((((((((((((((((((((((((((((((((((((((((((((((((((((((((((((((((((((((((((((((((((((((((((((((((((((((((((((((((((((((((((((((((((((((((((((((((((((((((((((((((((((((((((((((((((((((((((((((((((((((((((((((((((((((((((((((((((((((((((((((((((((((((((((((((((((((((((",
"(((((((((((((((((((((((((((((((((((((((((((((((((((((((((((((((((((((((((((((((((((((((((((((((((((((((((((((((((((((((((((((((((((((((((((((((((((((((((((((((((((((((((((((((((((((((((((((((((((((((((((((((((((((((((((((((((((((((((((((((((((((((((((((((((((((((((((((((((((((((((((((((((((((((((((((((((((((((((((((((((((((((((((((((((((((((((((((((((((((((((((((((((((((((((((((((((((((((((((((((((((((((((((((((((((((((((((((((((((((((((((((((((((((((((((((((((((((((((((((((((((((((((((((",
"(((((((((((((((((((((((((((((((((((((((((((((((((((((((((((((((((((((((((((((((((((((((((((((((((((((((((((((((((((((((((((((((((((((((((((((((((((((((((((((((((((((((((((((((((((((((((((((((((((((((((((((((((((((((((((((((((((((((((((((((((((((((((((((((((((((((((((((((((((((((((((((((((((((((((((((((((((((((((((((((((((((((((((((((((((((((((((((((((((((((((((((((((((((((((((((((((((((((((((((((((((((((((((((((((((((((((((((((((((((((((((((((((((((((((((((((((((((((((((((((((((((((((((((",
"(((((((((((((((((((((((((((((((((((((((((((((((((((((((((((((((((((((((((((((((((((((((((((((((((((((((((((((((((((((((((((((((((((((((((((((((((((((((((((((((((((((((((((((((((((((((((((((((((((((((((((((((((((((((((((((((((((((((((((((((((((((((((((((((((((((((((((((((((((((((((((((((((((((((((((((((((((((((((((((((((((((((((((((((((((((((((((((((((((((((((((((((((((((((((((((((((((((((((((((((((((((((((((((((((((((((((((((((((((((((((((((((((((((((((((((((((((((((((((((((((((((((((((((",
"(((((((((((((((((((((((((((((((((((((((((((((((((((((((((((((((((((((((((((((((((((((((((((((((((((((((((((((((((((((((((((((((((((((((((((((((((((((((((((((((((((((((((((((((((((((((((((((((((((((((((((((((((((((((((((((((((((((((((((((((((((((((((((((((((((((((((((((((((((((((((((((((((((((((((((((((((((((((((((((((((((((((((((((((((((((((((((((((((((((((((((((((((((((((((((((((((((((((((((((((((((((((((((((((((((((((((((((((((((((((((((((((((((((((((((((((((((((((((((((((((((((((((((((",
"(((((((((((((((((((((((((((((((((((((((((((((((((((((((((((((((((((((((((((((((((((((((((((((((((((((((((((((((((((((((((((((((((((((((((((((((((((((((((((((((((((((((((((((((((((((((((((((((((((((((((((((((((((((((((((((((((((((((((((((((((((((((((((((((((((((((((((((((((((((((((((((((((((((((((((((((((((((((((((((((((((((((((((((((((((((((((((((((((((((((((((((((((((((((((((((((((((((((((((((((((((((((((((((((((((((((((((((((((((((((((((((((((((((((((((((((((((((((((((((((((((((((((((((",
"(((((((((((((((((((((((((((((((((((((((((((((((((((((((((((((((((((((((((((((((((((((((((((((((((((((((((((((((((((((((((((((((((((((((((((((((((((((((((((((((((((((((((((((((((((((((((((((((((((((((((((((((((((((((((((((((((((((((((((((((((((((((((((((((((((((((((((((((((((((((((((((((((((((((((((((((((((((((((((((((((((((((((((((((((((((((((((((((((((((((((((((((((((((((((((((((((((((((((((((((((((((((((((((((((((((((((((((((((((((((((((((((((((((((((((((((((((((((((((((((((((((((((((((",
"(((((((((((((((((((((((((((((((((((((((((((((((((((((((((((((((((((((((((((((((((((((((((((((((((((((((((((((((((((((((((((((((((((((((((((((((((((((((((((((((((((((((((((((((((((((((((((((((((((((((((((((((((((((((((((((((((((((((((((((((((((((((((((((((((((((((((((((((((((((((((((((((((((((((((((((((((((((((((((((((((((((((((((((((((((((((((((((((((((((((((((((((((((((((((((((((((((((((((((((((((((((((((((((((((((((((((((((((((((((((((((((((((((((((((((((((((((((((((((((((((((((((((((((",
"(((((((((((((((((((((((((((((((((((((((((((((((((((((((((((((((((((((((((((((((((((((((((((((((((((((((((((((((((((((((((((((((((((((((((((((((((((((((((((((((((((((((((((((((((((((((((((((((((((((((((((((((((((((((((((((((((((((((((((((((((((((((((((((((((((((((((((((((((((((((((((((((((((((((((((((((((((((((((((((((((((((((((((((((((((((((((((((((((((((((((((((((((((((((((((((((((((((((((((((((((((((((((((((((((((((((((((((((((((((((((((((((((((((((((((((((((((((((((((((((((((((((((((((",
"(((((((((((((((((((((((((((((((((((((((((((((((((((((((((((((((((((((((((((((((((((((((((((((((((((((((((((((((((((((((((((((((((((((((((((((((((((((((((((((((((((((((((((((((((((((((((((((((((((((((((((((((((((((((((((((((((((((((((((((((((((((((((((((((((((((((((((((((((((((((((((((((((((((((((((((((((((((((((((((((((((((((((((((((((((((((((((((((((((((((((((((((((((((((((((((((((((((((((((((((((((((((((((((((((((((((((((((((((((((((((((((((((((((((((((((((((((((((((((((((((((((((((((((",
"(((((((((((((((((((((((((((((((((((((((((((((((((((((((((((((((((((((((((((((((((((((((((((((((((((((((((((((((((((((((((((((((((((((((((((((((((((((((((((((((((((((((((((((((((((((((((((((((((((((((((((((((((((((((((((((((((((((((((((((((((((((((((((((((((((((((((((((((((((((((((((((((((((((((((((((((((((((((((((((((((((((((((((((((((((((((((((((((((((((((((((((((((((((((((((((((((((((((((((((((((((((((((((((((((((((((((((((((((((((((((((((((((((((((((((((((((((((((((((((((((((((((((((((",
"(((((((((((((((((((((((((((((((((((((((((((((((((((((((((((((((((((((((((((((((((((((((((((((((((((((((((((((((((((((((((((((((((((((((((((((((((((((((((((((((((((((((((((((((((((((((((((((((((((((((((((((((((((((((((((((((((((((((((((((((((((((((((((((((((((((((((((((((((((((((((((((((((((((((((((((((((((((((((((((((((((((((((((((((((((((((((((((((((((((((((((((((((((((((((((((((((((((((((((((((((((((((((((((((((((((((((((((((((((((((((((((((((((((((((((((((((((((((((((((((((((((((((((((",
"(((((((((((((((((((((((((((((((((((((((((((((((((((((((((((((((((((((((((((((((((((((((((((((((((((((((((((((((((((((((((((((((((((((((((((((((((((((((((((((((((((((((((((((((((((((((((((((((((((((((((((((((((((((((((((((((((((((((((((((((((((((((((((((((((((((((((((((((((((((((((((((((((((((((((((((((((((((((((((((((((((((((((((((((((((((((((((((((((((((((((((((((((((((((((((((((((((((((((((((((((((((((((((((((((((((((((((((((((((((((((((((((((((((((((((((((((((((((((((((((((((((((((((((",
"(((((((((((((((((((((((((((((((((((((((((((((((((((((((((((((((((((((((((((((((((((((((((((((((((((((((((((((((((((((((((((((((((((((((((((((((((((((((((((((((((((((((((((((((((((((((((((((((((((((((((((((((((((((((((((((((((((((((((((((((((((((((((((((((((((((((((((((((((((((((((((((((((((((((((((((((((((((((((((((((((((((((((((((((((((((((((((((((((((((((((((((((((((((((((((((((((((((((((((((((((((((((((((((((((((((((((((((((((((((((((((((((((((((((((((((((((((((((((((((((((((((((((((((",
"(((((((((((((((((((((((((((((((((((((((((((((((((((((((((((((((((((((((((((((((((((((((((((((((((((((((((((((((((((((((((((((((((((((((((((((((((((((((((((((((((((((((((((((((((((((((((((((((((((((((((((((((((((((((((((((((((((((((((((((((((((((((((((((((((((((((((((((((((((((((((((((((((((((((((((((((((((((((((((((((((((((((((((((((((((((((((((((((((((((((((((((((((((((((((((((((((((((((((((((((((((((((((((((((((((((((((((((((((((((((((((((((((((((((((((((((((((((((((((((((((((((((((((((",
"(((((((((((((((((((((((((((((((((((((((((((((((((((((((((((((((((((((((((((((((((((((((((((((((((((((((((((((((((((((((((((((((((((((((((((((((((((((((((((((((((((((((((((((((((((((((((((((((((((((((((((((((((((((((((((((((((((((((((((((((((((((((((((((((((((((((((((((((((((((((((((((((((((((((((((((((((((((((((((((((((((((((((((((((((((((((((((((((((((((((((((((((((((((((((((((((((((((((((((((((((((((((((((((((((((((((((((((((((((((((((((((((((((((((((((((((((((((((((((((((((((((((((((((",
"(((((((((((((((((((((((((((((((((((((((((((((((((((((((((((((((((((((((((((((((((((((((((((((((((((((((((((((((((((((((((((((((((((((((((((((((((((((((((((((((((((((((((((((((((((((((((((((((((((((((((((((((((((((((((((((((((((((((((((((((((((((((((((((((((((((((((((((((((((((((((((((((((((((((((((((((((((((((((((((((((((((((((((((((((((((((((((((((((((((((((((((((((((((((((((((((((((((((((((((((((((((((((((((((((((((((((((((((((((((((((((((((((((((((((((((((((((((((((((((((((((((((((((((",
"(((((((((((((((((((((((((((((((((((((((((((((((((((((((((((((((((((((((((((((((((((((((((((((((((((((((((((((((((((((((((((((((((((((((((((((((((((((((((((((((((((((((((((((((((((((((((((((((((((((((((((((((((((((((((((((((((((((((((((((((((((((((((((((((((((((((((((((((((((((((((((((((((((((((((((((((((((((((((((((((((((((((((((((((((((((((((((((((((((((((((((((((((((((((((((((((((((((((((((((((((((((((((((((((((((((((((((((((((((((((((((((((((((((((((((((((((((((((((((((((((((((((((((((",
"(((((((((((((((((((((((((((((((((((((((((((((((((((((((((((((((((((((((((((((((((((((((((((((((((((((((((((((((((((((((((((((((((((((((((((((((((((((((((((((((((((((((((((((((((((((((((((((((((((((((((((((((((((((((((((((((((((((((((((((((((((((((((((((((((((((((((((((((((((((((((((((((((((((((((((((((((((((((((((((((((((((((((((((((((((((((((((((((((((((((((((((((((((((((((((((((((((((((((((((((((((((((((((((((((((((((((((((((((((((((((((((((((((((((((((((((((((((((((((((((((((((((((((((",
"(((((((((((((((((((((((((((((((((((((((((((((((((((((((((((((((((((((((((((((((((((((((((((((((((((((((((((((((((((((((((((((((((((((((((((((((((((((((((((((((((((((((((((((((((((((((((((((((((((((((((((((((((((((((((((((((((((((((((((((((((((((((((((((((((((((((((((((((((((((((((((((((((((((((((((((((((((((((((((((((((((((((((((((((((((((((((((((((((((((((((((((((((((((((((((((((((((((((((((((((((((((((((((((((((((((((((((((((((((((((((((((((((((((((((((((((((((((((((((((((((((((((((((((",
"(((((((((((((((((((((((((((((((((((((((((((((((((((((((((((((((((((((((((((((((((((((((((((((((((((((((((((((((((((((((((((((((((((((((((((((((((((((((((((((((((((((((((((((((((((((((((((((((((((((((((((((((((((((((((((((((((((((((((((((((((((((((((((((((((((((((((((((((((((((((((((((((((((((((((((((((((((((((((((((((((((((((((((((((((((((((((((((((((((((((((((((((((((((((((((((((((((((((((((((((((((((((((((((((((((((((((((((((((((((((((((((((((((((((((((((((((((((((((((((((((((((((((((((",
"(((((((((((((((((((((((((((((((((((((((((((((((((((((((((((((((((((((((((((((((((((((((((((((((((((((((((((((((((((((((((((((((((((((((((((((((((((((((((((((((((((((((((((((((((((((((((((((((((((((((((((((((((((((((((((((((((((((((((((((((((((((((((((((((((((((((((((((((((((((((((((((((((((((((((((((((((((((((((((((((((((((((((((((((((((((((((((((((((((((((((((((((((((((((((((((((((((((((((((((((((((((((((((((((((((((((((((((((((((((((((((((((((((((((((((((((((((((((((((((((((((((((((((((",
"(((((((((((((((((((((((((((((((((((((((((((((((((((((((((((((((((((((((((((((((((((((((((((((((((((((((((((((((((((((((((((((((((((((((((((((((((((((((((((((((((((((((((((((((((((((((((((((((((((((((((((((((((((((((((((((((((((((((((((((((((((((((((((((((((((((((((((((((((((((((((((((((((((((((((((((((((((((((((((((((((((((((((((((((((((((((((((((((((((((((((((((((((((((((((((((((((((((((((((((((((((((((((((((((((((((((((((((((((((((((((((((((((((((((((((((((((((((((((((((((((((((((((((((",
"(((((((((((((((((((((((((((((((((((((((((((((((((((((((((((((((((((((((((((((((((((((((((((((((((((((((((((((((((((((((((((((((((((((((((((((((((((((((((((((((((((((((((((((((((((((((((((((((((((((((((((((((((((((((((((((((((((((((((((((((((((((((((((((((((((((((((((((((((((((((((((((((((((((((((((((((((((((((((((((((((((((((((((((((((((((((((((((((((((((((((((((((((((((((((((((((((((((((((((((((((((((((((((((((((((((((((((((((((((((((((((((((((((((((((((((((((((((((((((((((((((((((((((((",
"(((((((((((((((((((((((((((((((((((((((((((((((((((((((((((((((((((((((((((((((((((((((((((((((((((((((((((((((((((((((((((((((((((((((((((((((((((((((((((((((((((((((((((((((((((((((((((((((((((((((((((((((((((((((((((((((((((((((((((((((((((((((((((((((((((((((((((((((((((((((((((((((((((((((((((((((((((((((((((((((((((((((((((((((((((((((((((((((((((((((((((((((((((((((((((((((((((((((((((((((((((((((((((((((((((((((((((((((((((((((((((((((((((((((((((((((((((((((((((((((((((((((((((((",
"(((((((((((((((((((((((((((((((((((((((((((((((((((((((((((((((((((((((((((((((((((((((((((((((((((((((((((((((((((((((((((((((((((((((((((((((((((((((((((((((((((((((((((((((((((((((((((((((((((((((((((((((((((((((((((((((((((((((((((((((((((((((((((((((((((((((((((((((((((((((((((((((((((((((((((((((((((((((((((((((((((((((((((((((((((((((((((((((((((((((((((((((((((((((((((((((((((((((((((((((((((((((((((((((((((((((((((((((((((((((((((((((((((((((((((((((((((((((((((((((((((((((((((((",
"(((((((((((((((((((((((((((((((((((((((((((((((((((((((((((((((((((((((((((((((((((((((((((((((((((((((((((((((((((((((((((((((((((((((((((((((((((((((((((((((((((((((((((((((((((((((((((((((((((((((((((((((((((((((((((((((((((((((((((((((((((((((((((((((((((((((((((((((((((((((((((((((((((((((((((((((((((((((((((((((((((((((((((((((((((((((((((((((((((((((((((((((((((((((((((((((((((((((((((((((((((((((((((((((((((((((((((((((((((((((((((((((((((((((((((((((((((((((((((((((((((((((((((((",
"(((((((((((((((((((((((((((((((((((((((((((((((((((((((((((((((((((((((((((((((((((((((((((((((((((((((((((((((((((((((((((((((((((((((((((((((((((((((((((((((((((((((((((((((((((((((((((((((((((((((((((((((((((((((((((((((((((((((((((((((((((((((((((((((((((((((((((((((((((((((((((((((((((((((((((((((((((((((((((((((((((((((((((((((((((((((((((((((((((((((((((((((((((((((((((((((((((((((((((((((((((((((((((((((((((((((((((((((((((((((((((((((((((((((((((((((((((((((((((((((((((((((((((((",
"(((((((((((((((((((((((((((((((((((((((((((((((((((((((((((((((((((((((((((((((((((((((((((((((((((((((((((((((((((((((((((((((((((((((((((((((((((((((((((((((((((((((((((((((((((((((((((((((((((((((((((((((((((((((((((((((((((((((((((((((((((((((((((((((((((((((((((((((((((((((((((((((((((((((((((((((((((((((((((((((((((((((((((((((((((((((((((((((((((((((((((((((((((((((((((((((((((((((((((((((((((((((((((((((((((((((((((((((((((((((((((((((((((((((((((((((((((((((((((((((((((((((((((((",
"(((((((((((((((((((((((((((((((((((((((((((((((((((((((((((((((((((((((((((((((((((((((((((((((((((((((((((((((((((((((((((((((((((((((((((((((((((((((((((((((((((((((((((((((((((((((((((((((((((((((((((((((((((((((((((((((((((((((((((((((((((((((((((((((((((((((((((((((((((((((((((((((((((((((((((((((((((((((((((((((((((((((((((((((((((((((((((((((((((((((((((((((((((((((((((((((((((((((((((((((((((((((((((((((((((((((((((((((((((((((((((((((((((((((((((((((((((((((((((((((((((((((((((((",
"(((((((((((((((((((((((((((((((((((((((((((((((((((((((((((((((((((((((((((((((((((((((((((((((((((((((((((((((((((((((((((((((((((((((((((((((((((((((((((((((((((((((((((((((((((((((((((((((((((((((((((((((((((((((((((((((((((((((((((((((((((((((((((((((((((((((((((((((((((((((((((((((((((((((((((((((((((((((((((((((((((((((((((((((((((((((((((((((((((((((((((((((((((((((((((((((((((((((((((((((((((((((((((((((((((((((((((((((((((((((((((((((((((((((((((((((((((((((((((((((((((((((((((((",
"(((((((((((((((((((((((((((((((((((((((((((((((((((((((((((((((((((((((((((((((((((((((((((((((((((((((((((((((((((((((((((((((((((((((((((((((((((((((((((((((((((((((((((((((((((((((((((((((((((((((((((((((((((((((((((((((((((((((((((((((((((((((((((((((((((((((((((((((((((((((((((((((((((((((((((((((((((((((((((((((((((((((((((((((((((((((((((((((((((((((((((((((((((((((((((((((((((((((((((((((((((((((((((((((((((((((((((((((((((((((((((((((((((((((((((((((((((((((((((((((((((((((((((((",
"(((((((((((((((((((((((((((((((((((((((((((((((((((((((((((((((((((((((((((((((((((((((((((((((((((((((((((((((((((((((((((((((((((((((((((((((((((((((((((((((((((((((((((((((((((((((((((((((((((((((((((((((((((((((((((((((((((((((((((((((((((((((((((((((((((((((((((((((((((((((((((((((((((((((((((((((((((((((((((((((((((((((((((((((((((((((((((((((((((((((((((((((((((((((((((((((((((((((((((((((((((((((((((((((((((((((((((((((((((((((((((((((((((((((((((((((((((((((((((((((((((((((((((((",
"(((((((((((((((((((((((((((((((((((((((((((((((((((((((((((((((((((((((((((((((((((((((((((((((((((((((((((((((((((((((((((((((((((((((((((((((((((((((((((((((((((((((((((((((((((((((((((((((((((((((((((((((((((((((((((((((((((((((((((((((((((((((((((((((((((((((((((((((((((((((((((((((((((((((((((((((((((((((((((((((((((((((((((((((((((((((((((((((((((((((((((((((((((((((((((((((((((((((((((((((((((((((((((((((((((((((((((((((((((((((((((((((((((((((((((((((((((((((((((((((((((((((((((((",
"(((((((((((((((((((((((((((((((((((((((((((((((((((((((((((((((((((((((((((((((((((((((((((((((((((((((((((((((((((((((((((((((((((((((((((((((((((((((((((((((((((((((((((((((((((((((((((((((((((((((((((((((((((((((((((((((((((((((((((((((((((((((((((((((((((((((((((((((((((((((((((((((((((((((((((((((((((((((((((((((((((((((((((((((((((((((((((((((((((((((((((((((((((((((((((((((((((((((((((((((((((((((((((((((((((((((((((((((((((((((((((((((((((((((((((((((((((((((((((((((((((((((((((((",
"(((((((((((((((((((((((((((((((((((((((((((((((((((((((((((((((((((((((((((((((((((((((((((((((((((((((((((((((((((((((((((((((((((((((((((((((((((((((((((((((((((((((((((((((((((((((((((((((((((((((((((((((((((((((((((((((((((((((((((((((((((((((((((((((((((((((((((((((((((((((((((((((((((((((((((((((((((((((((((((((((((((((((((((((((((((((((((((((((((((((((((((((((((((((((((((((((((((((((((((((((((((((((((((((((((((((((((((((((((((((((((((((((((((((((((((((((((((((((((((((((((((((((((((",
"(((((((((((((((((((((((((((((((((((((((((((((((((((((((((((((((((((((((((((((((((((((((((((((((((((((((((((((((((((((((((((((((((((((((((((((((((((((((((((((((((((((((((((((((((((((((((((((((((((((((((((((((((((((((((((((((((((((((((((((((((((((((((((((((((((((((((((((((((((((((((((((((((((((((((((((((((((((((((((((((((((((((((((((((((((((((((((((((((((((((((((((((((((((((((((((((((((((((((((((((((((((((((((((((((((((((((((((((((((((((((((((((((((((((((((((((((((((((((((((((((((((((((((((",
"(((((((((((((((((((((((((((((((((((((((((((((((((((((((((((((((((((((((((((((((((((((((((((((((((((((((((((((((((((((((((((((((((((((((((((((((((((((((((((((((((((((((((((((((((((((((((((((((((((((((((((((((((((((((((((((((((((((((((((((((((((((((((((((((((((((((((((((((((((((((((((((((((((((((((((((((((((((((((((((((((((((((((((((((((((((((((((((((((((((((((((((((((((((((((((((((((((((((((((((((((((((((((((((((((((((((((((((((((((((((((((((((((((((((((((((((((((((((((((((((((((((((((((((",
"(((((((((((((((((((((((((((((((((((((((((((((((((((((((((((((((((((((((((((((((((((((((((((((((((((((((((((((((((((((((((((((((((((((((((((((((((((((((((((((((((((((((((((((((((((((((((((((((((((((((((((((((((((((((((((((((((((((((((((((((((((((((((((((((((((((((((((((((((((((((((((((((((((((((((((((((((((((((((((((((((((((((((((((((((((((((((((((((((((((((((((((((((((((((((((((((((((((((((((((((((((((((((((((((((((((((((((((((((((((((((((((((((((((((((((((((((((((((((((((((((((((((((((((",
"(((((((((((((((((((((((((((((((((((((((((((((((((((((((((((((((((((((((((((((((((((((((((((((((((((((((((((((((((((((((((((((((((((((((((((((((((((((((((((((((((((((((((((((((((((((((((((((((((((((((((((((((((((((((((((((((((((((((((((((((((((((((((((((((((((((((((((((((((((((((((((((((((((((((((((((((((((((((((((((((((((((((((((((((((((((((((((((((((((((((((((((((((((((((((((((((((((((((((((((((((((((((((((((((((((((((((((((((((((((((((((((((((((((((((((((((((((((((((((((((((((((((((((((",
"(((((((((((((((((((((((((((((((((((((((((((((((((((((((((((((((((((((((((((((((((((((((((((((((((((((((((((((((((((((((((((((((((((((((((((((((((((((((((((((((((((((((((((((((((((((((((((((((((((((((((((((((((((((((((((((((((((((((((((((((((((((((((((((((((((((((((((((((((((((((((((((((((((((((((((((((((((((((((((((((((((((((((((((((((((((((((((((((((((((((((((((((((((((((((((((((((((((((((((((((((((((((((((((((((((((((((((((((((((((((((((((((((((((((((((((((((((((((((((((((((((((((((((((",
"(((((((((((((((((((((((((((((((((((((((((((((((((((((((((((((((((((((((((((((((((((((((((((((((((((((((((((((((((((((((((((((((((((((((((((((((((((((((((((((((((((((((((((((((((((((((((((((((((((((((((((((((((((((((((((((((((((((((((((((((((((((((((((((((((((((((((((((((((((((((((((((((((((((((((((((((((((((((((((((((((((((((((((((((((((((((((((((((((((((((((((((((((((((((((((((((((((((((((((((((((((((((((((((((((((((((((((((((((((((((((((((((((((((((((((((((((((((((((((((((((((((((((((((",
"(((((((((((((((((((((((((((((((((((((((((((((((((((((((((((((((((((((((((((((((((((((((((((((((((((((((((((((((((((((((((((((((((((((((((((((((((((((((((((((((((((((((((((((((((((((((((((((((((((((((((((((((((((((((((((((((((((((((((((((((((((((((((((((((((((((((((((((((((((((((((((((((((((((((((((((((((((((((((((((((((((((((((((((((((((((((((((((((((((((((((((((((((((((((((((((((((((((((((((((((((((((((((((((((((((((((((((((((((((((((((((((((((((((((((((((((((((((((((((((((((((((((((((((",
"(((((((((((((((((((((((((((((((((((((((((((((((((((((((((((((((((((((((((((((((((((((((((((((((((((((((((((((((((((((((((((((((((((((((((((((((((((((((((((((((((((((((((((((((((((((((((((((((((((((((((((((((((((((((((((((((((((((((((((((((((((((((((((((((((((((((((((((((((((((((((((((((((((((((((((((((((((((((((((((((((((((((((((((((((((((((((((((((((((((((((((((((((((((((((((((((((((((((((((((((((((((((((((((((((((((((((((((((((((((((((((((((((((((((((((((((((((((((((((((((((((((((((((((",
"(((((((((((((((((((((((((((((((((((((((((((((((((((((((((((((((((((((((((((((((((((((((((((((((((((((((((((((((((((((((((((((((((((((((((((((((((((((((((((((((((((((((((((((((((((((((((((((((((((((((((((((((((((((((((((((((((((((((((((((((((((((((((((((((((((((((((((((((((((((((((((((((((((((((((((((((((((((((((((((((((((((((((((((((((((((((((((((((((((((((((((((((((((((((((((((((((((((((((((((((((((((((((((((((((((((((((((((((((((((((((((((((((((((((((((((((((((((((((((((((((((((((((((((",
"(((((((((((((((((((((((((((((((((((((((((((((((((((((((((((((((((((((((((((((((((((((((((((((((((((((((((((((((((((((((((((((((((((((((((((((((((((((((((((((((((((((((((((((((((((((((((((((((((((((((((((((((((((((((((((((((((((((((((((((((((((((((((((((((((((((((((((((((((((((((((((((((((((((((((((((((((((((((((((((((((((((((((((((((((((((((((((((((((((((((((((((((((((((((((((((((((((((((((((((((((((((((((((((((((((((((((((((((((((((((((((((((((((((((((((((((((((((((((((((((((((((((((((((",
"(((((((((((((((((((((((((((((((((((((((((((((((((((((((((((((((((((((((((((((((((((((((((((((((((((((((((((((((((((((((((((((((((((((((((((((((((((((((((((((((((((((((((((((((((((((((((((((((((((((((((((((((((((((((((((((((((((((((((((((((((((((((((((((((((((((((((((((((((((((((((((((((((((((((((((((((((((((((((((((((((((((((((((((((((((((((((((((((((((((((((((((((((((((((((((((((((((((((((((((((((((((((((((((((((((((((((((((((((((((((((((((((((((((((((((((((((((((((((((((((((((((((((((((",
"(((((((((((((((((((((((((((((((((((((((((((((((((((((((((((((((((((((((((((((((((((((((((((((((((((((((((((((((((((((((((((((((((((((((((((((((((((((((((((((((((((((((((((((((((((((((((((((((((((((((((((((((((((((((((((((((((((((((((((((((((((((((((((((((((((((((((((((((((((((((((((((((((((((((((((((((((((((((((((((((((((((((((((((((((((((((((((((((((((((((((((((((((((((((((((((((((((((((((((((((((((((((((((((((((((((((((((((((((((((((((((((((((((((((((((((((((((((((((((((((((((((((((((((",
"(((((((((((((((((((((((((((((((((((((((((((((((((((((((((((((((((((((((((((((((((((((((((((((((((((((((((((((((((((((((((((((((((((((((((((((((((((((((((((((((((((((((((((((((((((((((((((((((((((((((((((((((((((((((((((((((((((((((((((((((((((((((((((((((((((((((((((((((((((((((((((((((((((((((((((((((((((((((((((((((((((((((((((((((((((((((((((((((((((((((((((((((((((((((((((((((((((((((((((((((((((((((((((((((((((((((((((((((((((((((((((((((((((((((((((((((((((((((((((((((((((((((((((((",
"(((((((((((((((((((((((((((((((((((((((((((((((((((((((((((((((((((((((((((((((((((((((((((((((((((((((((((((((((((((((((((((((((((((((((((((((((((((((((((((((((((((((((((((((((((((((((((((((((((((((((((((((((((((((((((((((((((((((((((((((((((((((((((((((((((((((((((((((((((((((((((((((((((((((((((((((((((((((((((((((((((((((((((((((((((((((((((((((((((((((((((((((((((((((((((((((((((((((((((((((((((((((((((((((((((((((((((((((((((((((((((((((((((((((((((((((((((((((((((((((((((((((((((((",
"(((((((((((((((((((((((((((((((((((((((((((((((((((((((((((((((((((((((((((((((((((((((((((((((((((((((((((((((((((((((((((((((((((((((((((((((((((((((((((((((((((((((((((((((((((((((((((((((((((((((((((((((((((((((((((((((((((((((((((((((((((((((((((((((((((((((((((((((((((((((((((((((((((((((((((((((((((((((((((((((((((((((((((((((((((((((((((((((((((((((((((((((((((((((((((((((((((((((((((((((((((((((((((((((((((((((((((((((((((((((((((((((((((((((((((((((((((((((((((((((((((((((((((((",
"(((((((((((((((((((((((((((((((((((((((((((((((((((((((((((((((((((((((((((((((((((((((((((((((((((((((((((((((((((((((((((((((((((((((((((((((((((((((((((((((((((((((((((((((((((((((((((((((((((((((((((((((((((((((((((((((((((((((((((((((((((((((((((((((((((((((((((((((((((((((((((((((((((((((((((((((((((((((((((((((((((((((((((((((((((((((((((((((((((((((((((((((((((((((((((((((((((((((((((((((((((((((((((((((((((((((((((((((((((((((((((((((((((((((((((((((((((((((((((((((((((((((((((((",
"(((((((((((((((((((((((((((((((((((((((((((((((((((((((((((((((((((((((((((((((((((((((((((((((((((((((((((((((((((((((((((((((((((((((((((((((((((((((((((((((((((((((((((((((((((((((((((((((((((((((((((((((((((((((((((((((((((((((((((((((((((((((((((((((((((((((((((((((((((((((((((((((((((((((((((((((((((((((((((((((((((((((((((((((((((((((((((((((((((((((((((((((((((((((((((((((((((((((((((((((((((((((((((((((((((((((((((((((((((((((((((((((((((((((((((((((((((((((((((((((((((((((((((((",
"(((((((((((((((((((((((((((((((((((((((((((((((((((((((((((((((((((((((((((((((((((((((((((((((((((((((((((((((((((((((((((((((((((((((((((((((((((((((((((((((((((((((((((((((((((((((((((((((((((((((((((((((((((((((((((((((((((((((((((((((((((((((((((((((((((((((((((((((((((((((((((((((((((((((((((((((((((((((((((((((((((((((((((((((((((((((((((((((((((((((((((((((((((((((((((((((((((((((((((((((((((((((((((((((((((((((((((((((((((((((((((((((((((((((((((((((((((((((((((((((((((((((((((((",
"(((((((((((((((((((((((((((((((((((((((((((((((((((((((((((((((((((((((((((((((((((((((((((((((((((((((((((((((((((((((((((((((((((((((((((((((((((((((((((((((((((((((((((((((((((((((((((((((((((((((((((((((((((((((((((((((((((((((((((((((((((((((((((((((((((((((((((((((((((((((((((((((((((((((((((((((((((((((((((((((((((((((((((((((((((((((((((((((((((((((((((((((((((((((((((((((((((((((((((((((((((((((((((((((((((((((((((((((((((((((((((((((((((((((((((((((((((((((((((((((((((((((((((((",
"(((((((((((((((((((((((((((((((((((((((((((((((((((((((((((((((((((((((((((((((((((((((((((((((((((((((((((((((((((((((((((((((((((((((((((((((((((((((((((((((((((((((((((((((((((((((((((((((((((((((((((((((((((((((((((((((((((((((((((((((((((((((((((((((((((((((((((((((((((((((((((((((((((((((((((((((((((((((((((((((((((((((((((((((((((((((((((((((((((((((((((((((((((((((((((((((((((((((((((((((((((((((((((((((((((((((((((((((((((((((((((((((((((((((((((((((((((((((((((((((((((((((((((((",
"(((((((((((((((((((((((((((((((((((((((((((((((((((((((((((((((((((((((((((((((((((((((((((((((((((((((((((((((((((((((((((((((((((((((((((((((((((((((((((((((((((((((((((((((((((((((((((((((((((((((((((((((((((((((((((((((((((((((((((((((((((((((((((((((((((((((((((((((((((((((((((((((((((((((((((((((((((((((((((((((((((((((((((((((((((((((((((((((((((((((((((((((((((((((((((((((((((((((((((((((((((((((((((((((((((((((((((((((((((((((((((((((((((((((((((((((((((((((((((((((((((((((((((((",
"(((((((((((((((((((((((((((((((((((((((((((((((((((((((((((((((((((((((((((((((((((((((((((((((((((((((((((((((((((((((((((((((((((((((((((((((((((((((((((((((((((((((((((((((((((((((((((((((((((((((((((((((((((((((((((((((((((((((((((((((((((((((((((((((((((((((((((((((((((((((((((((((((((((((((((((((((((((((((((((((((((((((((((((((((((((((((((((((((((((((((((((((((((((((((((((((((((((((((((((((((((((((((((((((((((((((((((((((((((((((((((((((((((((((((((((((((((((((((((((((((((((((((((((",
"(((((((((((((((((((((((((((((((((((((((((((((((((((((((((((((((((((((((((((((((((((((((((((((((((((((((((((((((((((((((((((((((((((((((((((((((((((((((((((((((((((((((((((((((((((((((((((((((((((((((((((((((((((((((((((((((((((((((((((((((((((((((((((((((((((((((((((((((((((((((((((((((((((((((((((((((((((((((((((((((((((((((((((((((((((((((((((((((((((((((((((((((((((((((((((((((((((((((((((((((((((((((((((((((((((((((((((((((((((((((((((((((((((((((((((((((((((((((((((((((((((((((((((((",
"(((((((((((((((((((((((((((((((((((((((((((((((((((((((((((((((((((((((((((((((((((((((((((((((((((((((((((((((((((((((((((((((((((((((((((((((((((((((((((((((((((((((((((((((((((((((((((((((((((((((((((((((((((((((((((((((((((((((((((((((((((((((((((((((((((((((((((((((((((((((((((((((((((((((((((((((((((((((((((((((((((((((((((((((((((((((((((((((((((((((((((((((((((((((((((((((((((((((((((((((((((((((((((((((((((((((((((((((((((((((((((((((((((((((((((((((((((((((((((((((((((((((((((((",
"(((((((((((((((((((((((((((((((((((((((((((((((((((((((((((((((((((((((((((((((((((((((((((((((((((((((((((((((((((((((((((((((((((((((((((((((((((((((((((((((((((((((((((((((((((((((((((((((((((((((((((((((((((((((((((((((((((((((((((((((((((((((((((((((((((((((((((((((((((((((((((((((((((((((((((((((((((((((((((((((((((((((((((((((((((((((((((((((((((((((((((((((((((((((((((((((((((((((((((((((((((((((((((((((((((((((((((((((((((((((((((((((((((((((((((((((((((((((((((((((((((((((((((((",
"(((((((((((((((((((((((((((((((((((((((((((((((((((((((((((((((((((((((((((((((((((((((((((((((((((((((((((((((((((((((((((((((((((((((((((((((((((((((((((((((((((((((((((((((((((((((((((((((((((((((((((((((((((((((((((((((((((((((((((((((((((((((((((((((((((((((((((((((((((((((((((((((((((((((((((((((((((((((((((((((((((((((((((((((((((((((((((((((((((((((((((((((((((((((((((((((((((((((((((((((((((((((((((((((((((((((((((((((((((((((((((((((((((((((((((((((((((((((((((((((((((((((((((((",
"(((((((((((((((((((((((((((((((((((((((((((((((((((((((((((((((((((((((((((((((((((((((((((((((((((((((((((((((((((((((((((((((((((((((((((((((((((((((((((((((((((((((((((((((((((((((((((((((((((((((((((((((((((((((((((((((((((((((((((((((((((((((((((((((((((((((((((((((((((((((((((((((((((((((((((((((((((((((((((((((((((((((((((((((((((((((((((((((((((((((((((((((((((((((((((((((((((((((((((((((((((((((((((((((((((((((((((((((((((((((((((((((((((((((((((((((((((((((((((((((((((((((((((((",
"(((((((((((((((((((((((((((((((((((((((((((((((((((((((((((((((((((((((((((((((((((((((((((((((((((((((((((((((((((((((((((((((((((((((((((((((((((((((((((((((((((((((((((((((((((((((((((((((((((((((((((((((((((((((((((((((((((((((((((((((((((((((((((((((((((((((((((((((((((((((((((((((((((((((((((((((((((((((((((((((((((((((((((((((((((((((((((((((((((((((((((((((((((((((((((((((((((((((((((((((((((((((((((((((((((((((((((((((((((((((((((((((((((((((((((((((((((((((((((((((((((((((((((((",
"(((((((((((((((((((((((((((((((((((((((((((((((((((((((((((((((((((((((((((((((((((((((((((((((((((((((((((((((((((((((((((((((((((((((((((((((((((((((((((((((((((((((((((((((((((((((((((((((((((((((((((((((((((((((((((((((((((((((((((((((((((((((((((((((((((((((((((((((((((((((((((((((((((((((((((((((((((((((((((((((((((((((((((((((((((((((((((((((((((((((((((((((((((((((((((((((((((((((((((((((((((((((((((((((((((((((((((((((((((((((((((((((((((((((((((((((((((((((((((((((((((((((((((((",
"(((((((((((((((((((((((((((((((((((((((((((((((((((((((((((((((((((((((((((((((((((((((((((((((((((((((((((((((((((((((((((((((((((((((((((((((((((((((((((((((((((((((((((((((((((((((((((((((((((((((((((((((((((((((((((((((((((((((((((((((((((((((((((((((((((((((((((((((((((((((((((((((((((((((((((((((((((((((((((((((((((((((((((((((((((((((((((((((((((((((((((((((((((((((((((((((((((((((((((((((((((((((((((((((((((((((((((((((((((((((((((((((((((((((((((((((((((((((((((((((((((((((((((((",
"(((((((((((((((((((((((((((((((((((((((((((((((((((((((((((((((((((((((((((((((((((((((((((((((((((((((((((((((((((((((((((((((((((((((((((((((((((((((((((((((((((((((((((((((((((((((((((((((((((((((((((((((((((((((((((((((((((((((((((((((((((((((((((((((((((((((((((((((((((((((((((((((((((((((((((((((((((((((((((((((((((((((((((((((((((((((((((((((((((((((((((((((((((((((((((((((((((((((((((((((((((((((((((((((((((((((((((((((((((((((((((((((((((((((((((((((((((((((((((((((((((((((((((((",
"(((((((((((((((((((((((((((((((((((((((((((((((((((((((((((((((((((((((((((((((((((((((((((((((((((((((((((((((((((((((((((((((((((((((((((((((((((((((((((((((((((((((((((((((((((((((((((((((((((((((((((((((((((((((((((((((((((((((((((((((((((((((((((((((((((((((((((((((((((((((((((((((((((((((((((((((((((((((((((((((((((((((((((((((((((((((((((((((((((((((((((((((((((((((((((((((((((((((((((((((((((((((((((((((((((((((((((((((((((((((((((((((((((((((((((((((((((((((((((((((((((((((((((((",
"(((((((((((((((((((((((((((((((((((((((((((((((((((((((((((((((((((((((((((((((((((((((((((((((((((((((((((((((((((((((((((((((((((((((((((((((((((((((((((((((((((((((((((((((((((((((((((((((((((((((((((((((((((((((((((((((((((((((((((((((((((((((((((((((((((((((((((((((((((((((((((((((((((((((((((((((((((((((((((((((((((((((((((((((((((((((((((((((((((((((((((((((((((((((((((((((((((((((((((((((((((((((((((((((((((((((((((((((((((((((((((((((((((((((((((((((((((((((((((((((((((((((((((((",
"(((((((((((((((((((((((((((((((((((((((((((((((((((((((((((((((((((((((((((((((((((((((((((((((((((((((((((((((((((((((((((((((((((((((((((((((((((((((((((((((((((((((((((((((((((((((((((((((((((((((((((((((((((((((((((((((((((((((((((((((((((((((((((((((((((((((((((((((((((((((((((((((((((((((((((((((((((((((((((((((((((((((((((((((((((((((((((((((((((((((((((((((((((((((((((((((((((((((((((((((((((((((((((((((((((((((((((((((((((((((((((((((((((((((((((((((((((((((((((((((((((((((((((((",
"(((((((((((((((((((((((((((((((((((((((((((((((((((((((((((((((((((((((((((((((((((((((((((((((((((((((((((((((((((((((((((((((((((((((((((((((((((((((((((((((((((((((((((((((((((((((((((((((((((((((((((((((((((((((((((((((((((((((((((((((((((((((((((((((((((((((((((((((((((((((((((((((((((((((((((((((((((((((((((((((((((((((((((((((((((((((((((((((((((((((((((((((((((((((((((((((((((((((((((((((((((((((((((((((((((((((((((((((((((((((((((((((((((((((((((((((((((((((((((((((((((((((((((((",
"(((((((((((((((((((((((((((((((((((((((((((((((((((((((((((((((((((((((((((((((((((((((((((((((((((((((((((((((((((((((((((((((((((((((((((((((((((((((((((((((((((((((((((((((((((((((((((((((((((((((((((((((((((((((((((((((((((((((((((((((((((((((((((((((((((((((((((((((((((((((((((((((((((((((((((((((((((((((((((((((((((((((((((((((((((((((((((((((((((((((((((((((((((((((((((((((((((((((((((((((((((((((((((((((((((((((((((((((((((((((((((((((((((((((((((((((((((((((((((((((((((((((((((((",
"(((((((((((((((((((((((((((((((((((((((((((((((((((((((((((((((((((((((((((((((((((((((((((((((((((((((((((((((((((((((((((((((((((((((((((((((((((((((((((((((((((((((o(((((((((((((((((((((((((((((((((((((((((((((((((((((((((((((((((((((((((((((((((((((((((((((((((((((((((((((((((((((((((((((((((((((((((((((((((((((((((((((((((((hALQ~~~~QDj-((((((((((((((((((((((((((((((((((((((((((((((((((((((((((((((((((((((((((((((((((((((((((((((((((((((((((((((((((((((((((((((((((((((((((((((((((((((",
"(((((((((((((((((((((((((((((((((((((((((((((((((((((((((((((((((((((((((((((((((((((((((((((((((((((((((((((((((((((((((((((((((((((((((((((((((((((((((((((((((@1qessdssse92o((((((((((((((((((((((((((((((((((((((((((((((((((((((((((((((((((((((((((((((((((((((((((((((((((((((((((((((((((((((((((((((((((((((((((((((((((((((((rSL~~Q~Q~QQQ~~^^WS((((((((((((((((((((((((((((((((((((((((((((((((((((((((((((((((((((((((((((((((((((((((((((((((((((((((((((((((((((((((((((((((((((((((((((((((((((",
"(((((((((((((((((((((((((((((((((((((((((((((((((((((((((((((((((((((((((((((((((((((((((((((((((((((((((((((((((((((((((((((((((((((((((((((((((((((((((((((((1eisseiisissssdssw>(((((((((((((((((((((((((((((((((((((((((((((((((((((((((((((((((((((((((((((((((((((((((((((((((((((((((((((((((((((((((((((((((((((((((((((((((((CUQ~Y~P~U~~!!!!!!~~^~K((((((((((((((((((((((((((((((((((((((((((((((((((((((((((((((((((((((((((((((((((((((((((((((((((((((((((((((((((((((((((((((((((((((((((((((((((",
"(((((((((((((((((((((((((((((((((((((((((((((((((((((((((((((((((((((((((((((((((((((((((((((((((((((((((((((((((((((((((((((((((((((((((((((((((((((((((((((,wieeeesiississsssddds2((((((((((((((((((((((((((((((((((((((((((((((((((((((((((((((((((((((((((((((((((((((((((((((((((((((((((((((((((((((((((((((((((((((((((((((5SU~Y~U~~WU~P~!!!Q!!!!~~^~A((((((((((((((((((((((((((((((((((((((((((((((((((((((((((((((((((((((((((((((((((((((((((((((((((((((((((((((((((((((((((((((((((((((((((((((((",
"((((((((((((((((((((((((((((((((((((((((((((((((((((((((((((((((((((((((((((((((((((((((((((((((((((((((((((((((((((((((((((((((((((((((((((((((((((((((((((qiiiwweeiiiisiissssssdssdwo((((((((((((((((((((((((((((((((((((((((((((((((((((((((((((((((((((((((((((((((((((((((((((((((((((((((((((((((((((((((((((((((((((((((((DQQ~UWW~~W~~U~~!!EQIIYQ!!~~^W(((((((((((((((((((((((((((((((((((((((((((((((((((((((((((((((((((((((((((((((((((((((((((((((((((((((((((((((((((((((((((((((((((((((((((((((",
"((((((((((((((((((((((((((((((((((((((((((((((((((((((((((((((((((((((((((((((((((((((((((((((((((((((((((((((((((((((((((((((((((((((((((((((((((((((((((,ewwwwiiw00isieeisssssssddsdd9.((((((((((((((((((((((((((((((((((((((((((((((((((((((((((((((((((((((((((((((((((((((((((((((((((((((((((((((((((((((((((((((((((((((SQQWYWU~~UW~U~~UGJE!!III!YLU!~^!u(((((((((((((((((((((((((((((((((((((((((((((((((((((((((((((((((((((((((((((((((((((((((((((((((((((((((((((((((((((((((((((((((((((((((((((",
"(((((((((((((((((((((((((((((((((((((((((((((((((((((((((((((((((((((((((((((((((((((((((((((((((((((((((((((((((((((((((((((((((((((((((((((((((((((((((8wwwpkcTW!QQQRVkksssssssdssdsssd9(((((((((((((((((((((((((((((((((((((((((((((((((((((((((((((((((((((((((((((((((((((((((((((((((((((((((((((((((((((((((((((((((((hL~WQW~P~QWYQQULKP~!!////!/!!!LIQ!^g((((((((((((((((((((((((((((((((((((((((((((((((((((((((((((((((((((((((((((((((((((((((((((((((((((((((((((((((((((((((((((((((((((((((((((",
"((((((((((((((((((((((((((((((((((((((((((((((((((((((((((((((((((((((((((((((((((((((((((((((((((((((((((((((((((((((((((((((((((((((((((((((((((((((((qewpBR!/^/!//!//!QJVdspsssdssdddddd,(((((((((((((((((((((((((((((((((((((((((((((((((((((((((((((((((((((((((((((((((((((((((((((((((((((((((((((((((((((((((((((((rK~PPWYWY~WQWQLPLU^^^!//!!!//^^^^!IY!^f(((((((((((((((((((((((((((((((((((((((((((((((((((((((((((((((((((((((((((((((((((((((((((((((((((((((((((((((((((((((((((((((((((((((((((",
"(((((((((((((((((((((((((((((((((((((((((((((((((((((((((((((((((((((((((((((((((((((((((((((((((((((((((((((((((((((((((((((((((((((((((((((((((((((((8qwBE!/!/!/^/!!/!!///QFlssssddssdpdddso((((((((((((((((((((((((((((((((((((((((((((((((((((((((((((((((((((((((((((((((((((((((((((((((((((((((((((((((((((((((((((BUYYW~YWQWP~PWLU~~^^^^/!/!!//!^^^^^^!IQ!(((((((((((((((((((((((((((((((((((((((((((((((((((((((((((((((((((((((((((((((((((((((((((((((((((((((((((((((((((((((((((((((((((((((((((",
"((((((((((((((((((((((((((((((((((((((((((((((((((((((((((((((((((((((((((((((((((((((((((((((((((((((((((((((((((((((((((((((((((((((((((((((((((((((3wdT!//!/!/!^!/^^^!/!/!^!Tmssddddsdddddd9(((((((((((((((((((((((((((((((((((((((((((((((((((((((((((((((((((((((((((((((((((((((((((((((((((((((((((((((((((((((((6LQWWWYWWWW~WLLP~^^^^^^^!/!/!/!/^^^^^^^!EQE((((((((((((((((((((((((((((((((((((((((((((((((((((((((((((((((((((((((((((((((((((((((((((((((((((((((((((((((((((((((((((((((((((((((((",
"((((((((((((((((((((((((((((((((((((((((((((((((((((((((((((((((((((((((((((((((((((((((((((((((((((((((((((((((((((((((((((((((((((((((((((((((((((((em!/!//!/!!//!/!/!/!/!//!/!Kksppddsdsddddso((((((((((((((((((((((((((((((((((((((((((((((((((((((((((((((((((((((((((((((((((((((((((((((((((((((((((((((((((((((zWWWYYWWWWWQILL!^^^^^^^^^!/!/!//!^^^^^^^^^QWz(((((((((((((((((((((((((((((((((((((((((((((((((((((((((((((((((((((((((((((((((((((((((((((((((((((((((((((((((((((((((((((((((((((((((",
"(((((((((((((((((((((((((((((((((((((((((((((((((((((((((((((((((((((((((((((((((((((((((((((((((((((((((((((((((((((((((((((((((((((((((((((((((((((eA!!!/!//!///!/!/!/!/!/!//!/^!Dkspddddddddkd2((((((((((((((((((((((((((((((((((((((((((((((((((((((((((((((((((((((((((((((((((((((((((((((((((((((((((((((((((((DWWUUUWUWWWYLLQ^^^^^^^^^^^/!/!/!!/^^^^^^^^^^!L(((((((((((((((((((((((((((((((((((((((((((((((((((((((((((((((((((((((((((((((((((((((((((((((((((((((((((((((((((((((((((((((((((((((((",
"((((((((((((((((((((((((((((((((((((((((((((((((((((((((((((((((((((((((((((((((((((((((((((((((((((((((((((((((((((((((((((((((((((((((((((((((((((3F!/!/!/!//!!//!/!/!/!/!//!/^^^^WVspdsdddddkkk0(((((((((((((((((((((((((((((((((((((((((((((((((((((((((((((((((((((((((((((((((((((((((((((((((((((((((((((((((yLWPWYUWWYWWILI^^^^^^^^^^^^^!/!/!/!!^^^^!^^^^^^~g((((((((((((((((((((((((((((((((((((((((((((((((((((((((((((((((((((((((((((((((((((((((((((((((((((((((((((((((((((((((((((((((((((((((",
"((((((((((((((((((((((((((((((((((((((((((((((((((((((((((((((((((((((((((((((((((((((((((((((((((((((((((((((((((((((((((((((((((((((((((((((((((((T^/!/!/!/!!//!!/!/!/!/!/!!/!^^^^^^Tlsddddddddkkd%((((((((((((((((((((((((((((((((((((((((((((((((((((((((((((((((((((((((((((((((((((((((((((((((((((((((((((((zUWPWPUUUWWWLL!^^^^^^^^^^^^^^/!///!//^^^^^^^^^^^^E((((((((((((((((((((((((((((((((((((((((((((((((((((((((((((((((((((((((((((((((((((((((((((((((((((((((((((((((((((((((((((((((((((((((",
"(((((((((((((((((((((((((((((((((((((((((((((((((((((((((((((((((((((((((((((((((((((((((((((((((((((((((((((((((((((((((((((((((((((((((((((((((((A/!/!!//!/!/!!/!/!/!/!//!/!/!^^^^^^^QZpdddddddddnn2((((((((((((((((((((((((((((((((((((((((((((((((((((((((((((((((((((((((((((((((((((((((((((((((((((((((((((SIUWWPWUWWULLI^^^^^^^^^^^^^^^^^!/!/!/!^^^^^^^^^^^^^t(((((((((((((((((((((((((((((((((((((((((((((((((((((((((((((((((((((((((((((((((((((((((((((((((((((((((((((((((((((((((((((((((((((((",
"(((((((((((((((((((((((((((((((((((((((((((((((((((((((((((((((((((((((((((((((((((((((((((((((((((((((((((((((((((((((((((((((((((((((((((((((((((Q//!//!!/!/!//!/!/!/!/!//!/!/^^^^^^^^^Kksdddddkkddn0((((((((((((((((((((((((((((((((((((((((((((((((((((((((((((((((((((((((((((((((((((((((((((((((rxJLEIELLDWQWUIPWWUUULLQ^^^^^^^^^^^^^~^^^^^^^^^^^^^^^^^^^^^^^^A(((((((((((((((((((((((((((((((((((((((((((((((((((((((((((((((((((((((((((((((((((((((((((((((((((((((((((((((((((((((((((((((((((((((",
"((((((((((((((((((((((((((((((((((((((((((((((((((((((((((((((((((((((((((((((((((((((((((((((((((((((((((((((((((((((((((((((((((((((((((((((((((t!/!/!/!/!/!//!/!/!/!/!//!/!/!^^^^^^^^^^WMpdddddkkddns((((((((((((((((((((((((((((((((((((((((((((((((((((((((((((((((((((((((((((((((((((((((((((gL^^^/^//^///^^^!QWWPWPLI~^^^^^!^^^^^^^~^^^^!/!^^^/^^/^^^^^^^!^^^Q(((((((((((((((((((((((((((((((((((((((((((((((((((((((((((((((((((((((((((((((((((((((((((((((((((((((((((((((((((((((((((((((((((((((",
"((((((((((((((((((((((((((((((((((((((((((((((((((((((((((((((((((((((((((((((((((((((((((((((((((((((((((((((((((((((((((((((((((((((((((((((((((A/!/!/!/!/!/!!/!/!/!/!/!!/!/!/^^^^^^^^^^^~SpdkdkdkdnnndO((((((((((((((((((((((((((((((((((((((((((((((((((((((((((((((((((((((((((((((((((((((((A!/^^^^^^^^^^^^^^^^^~QWPKW^^^^^^^^~^^^^^^^^^^^^^/^/!!^^!^^^^^^^^^^^^(((((((((((((((((((((((((((((((((((((((((((((((((((((((((((((((((((((((((((((((((((((((((((((((((((((((((((((((((((((((((((((((((((((((",
"((((((((((((((((((((((((((((((((((((((((((((((((((((((((((((((((((((((((((((((((((((((((((((((((((((((((((((((((((((((((((((((((((((((((((((((((((R//!/!/!!/!/!/^^^^^^^^^^^^^^^^~^^^^^^^^^^^^Jkdddddnddknk2(((((((((((((((((((((((((((((((((((((((((((((((((((((((((((((((((((((((((((((((((((((A!//!//!!/!//!/!!/!//!/!!YQ^^^^^^^^^^^^^^^^^^~^^^^~^^^^^^^^^^^^^^^^^^^g((((((((((((((((((((((((((((((((((((((((((((((((((((((((((((((((((((((((((((((((((((((((((((((((((((((((((((((((((((((((((((((((((((((",
"((((((((((((((((((((((((((((((((((((((((((((((((((((((((((((((((((((((((((((((((((((((((((((((((((((((((((((((((((((((((((((((((((((((((((((((((((Q^!/!/!//!/!/!^^^^^^^^^^^^^^^^^^^^^~^^^^^^^/Elddndddnndnn6(((((((((((((((((((((((((((((((((((((((((((((((((((((((((((((((((((((((((((((((((((Y//!!/!///!//!/!//!/!^^^^^!^^^^^^^^^^^^^^^^^^^^^^^^^^^^^^^^^^^^^^^^^^^^A((((((((((((((((((((((((((((((((((((((((((((((((((((((((((((((((((((((((((((((((((((((((((((((((((((((((((((((((((((((((((((((((((((((",
"((((((((((((((((((((((((((((((((((((((((((((((((((((((((((((((((((((((((((((((((((((((((((((((((((((((((((((((((((((((((((((((((((((((((((((((((((!^/!///!//!/!/^^^^^^^^^^^^^^^^^^^^^^^^^^^^^^^!Bddnndndnnkn0((((((((((((((((((((((((((((((((((((((((((((((((((((((((((((((((((((((((((((((((g!/!!!/!//!!//!/!/!!/!/^!^^^^^^^^^^^^^^^^^!^^^^^^^^^^^^^^^^^^^^^^^^^^^^^/R((((((((((((((((((((((((((((((((((((((((((((((((((((((((((((((((((((((((((((((((((((((((((((((((((((((((((((((((((((((((((((((((((((((",
"(((((((((((((((((((((((((((((((((((((((((((((((((((((((((((((((((((((((((((((((((((((((((((((((((((((((((((((((((((((((((((((((((((((((((((((((((i/^!/!!!/!//!//^/^^^^^^^^^^^^^^^^^^^^^^^^^^^^^/~Zdddndndnnnny((((((((((((((((((((((((((((((((((((((((((((((((((((((((((((((((((((((((((((((V^/!!//!/!!//!!/!/!//!/!///!^^^^^^^^^^^^^^^^^^^^^^^^^^^^^^^!QQ!^^^^^^^^^^^E((((((((((((((((((((((((((((((((((((((((((((((((((((((((((((((((((((((((((((((((((((((((((((((((((((((((((((((((((((((((((((((((((((((",
"(((((((((((((((((((((((((((((((((((((((((((((((((((((((((((((((((((((((((((((((((((((((((((((((((((((((((((((((((((((((((((((((((((((((((((((((((g//!/!/^^^^!QJAJLQ^/^^^^~^^^^^^^^^^^^~^^!^^^^^^^^Dkdkkdnnndnns((((((((((((((((((((((((((((((((((((((((((((((((((((((((((((((((((((((((((((g!/^^/!/!/!/!!/!/!//!!/!/^^!^^^^^^^^^^^^^^^^^^^^^^^^^^^^!Jg(((((uI^^^^^^^^/Q((((((((((((((((((((((((((((((((((((((((((((((((((((((((((((((((((((((((((((((((((((((((((((((((((((((((((((((((((((((((((((((((((((((",
"(((((((((((((((((((((((((((((((((((((((((((((((((((((((((((((((((((((((((((((((((((((((((((((((((((((((((((((((((((((((((((((((((((((((((((((((((V/!/!/!^^^Qg(((((((D!/^^^^^^^^^^^~^^^^^^^^^^^^^^^^Rhdnndnnnnkmd((((((((((((((((((((((((((((((((((((((((((((((((((((((((((((((((((((((((((r!//!/!///!/!//!/!/!!//!!//!/^^^^^^^^^^!^^^^^^^^^^^^^^^Ej((((((((((I^^^^^^^^!((((((((((((((((((((((((((((((((((((((((((((((((((((((((((((((((((((((((((((((((((((((((((((((((((((((((((((((((((((((((((((((((((((((",
"(((((((((((((((((((((((((((((((((((((((((((((((((((((((((((((((((((((((((((((((((((((((((((((((((((((((((((((((((((((((((((((((((((((((((((((((((F!/!/!/^^!(((((((((((jW^^^^^^^^^^^^^^^^^^^^^^^^^^^^Ikdndnndnnnnd(((((((((((((((((((((((((((((((((((((((((((((((((((((((((((((((((((((((((Q/!/^!!/!//!/!//!/!/!//!/!^^^^^^^^^!^^^^^^^^^^^^^^^^^Qz(((((((((((((!/^^^^^^^((((((((((((((((((((((((((((((((((((((((((((((((((((((((((((((((((((((((((((((((((((((((((((((((((((((((((((((((((((((((((((((((((((((",
"(((((((((((((((((((((((((((((((((((((((((((((((((((((((((((((((((((((((((((((((((((((((((((((((((((((((((((((((((((((((((((((((((((((((((((((((((T/!/!/!^/x(((((((((((((j!^^^^^^^^^^^^^^^^^^^^^^^^^^^Umdndnnnnnnmko((((((((((((((((((((((((((((((((((((((((((((((((((((((((((((((((((((((L!!/!^//!/!!/!/!!/!/!/!!/!/^/!^^^^^^^^^^^^^^^^^^^^^^!N(((((((((((((((L^^^^^^^!((((((((((((((((((((((((((((((((((((((((((((((((((((((((((((((((((((((((((((((((((((((((((((((((((((((((((((((((((((((((((((((((((((((",
"(((((((((((((((((((((((((((((((((((((((((((((((((((((((((((((((((((((((((((((((((((((((((((((((((((((((((((((((((((((((((((((((((((((((((((((((((I///!/!^!((((((((((((((((V~/^^^^^^^^^!^^^^^^^!^^^^^^^Wmdklklnnnkmko((((((((((((((((((((((((((((((((((((((((((((((((((((((((((((((((((((g^^!!/^!!/!//!/!/!/!/!!//!//!/!/^^^^^^^^^^^^^^^^^^^^L(((((((((((((((((N^^^^^^^^r(((((((((((((((((((((((((((((((((((((((((((((((((((((((((((((((((((((((((((((((((((((((((((((((((((((((((((((((((((((((((((((((((((((",
"(((((((((((((((((((((((((((((((((((((((((((((((((((((((((((((((((((((((((((((((((((((((((((((((((((((((((((((((((((((((((((((((((((((((((((((((((E!!!/!//W((((((((((((((((((L^^^^^^!^^^^^^^^^^^^^^^^^^^QVkkkknnknnmnO(((((((((((((((((((((((((((((((((((((((((((((((((((((((((((((((((((Y^^^^^^^/!/!!/!/!/!////!!/!//!/!^^^^^^^^^^^^^^^^!/!j((((((((((((((((((j^^^^^^^^t(((((((((((((((((((((((((((((((((((((((((((((((((((((((((((((((((((((((((((((((((((((((((((((((((((((((((((((((((((((((((((((((((((((",
"(((((((((((((((((((((((((((((((((((((((((((((((((((((((((((((((((((((((((((((((((((((((((((((((((((((((((((((((((((((((((((((((((((((((((((((((((I!//!/!/I(((((((((((((((((((N^^^^^^^^^^^^^^^^^^^^^^^^^/QZkknnnnnnnnkO(((((((((((((((((((((((((((((((((((((((((((((((((((((((((((((((((z^^^^!//!!/!//!/!/!/!!/!//!/!!/!/^!^^^^^^^^^^^^^/^L((((((((((((((((((((j^^^^^^^/t(((((((((((((((((((((((((((((((((((((((((((((((((((((((((((((((((((((((((((((((((((((((((((((((((((((((((((((((((((((((((((((((((((((",
"(((((((((((((((((((((((((((((((((((((((((((((((((((((((((((((((((((((((((((((((((((((((((((((((((((((((((((((((((((((((((((((((((((((((((((((((((I//!/!/^I(((((((((((((((((((((I/^^^^^^^^^^^^^^^^^^^^^^!^!ZdknnnnmnmmmO((((((((((((((((((((((((((((((((((((((((((((((((((((((((((((((((W/^^^^^^^/!/!!/!/!/!//!/!!/!//!/!^^^^^^^^^^^^^^^!z(((((((((((((((((((((z^^^^^^^/u(((((((((((((((((((((((((((((((((((((((((((((((((((((((((((((((((((((((((((((((((((((((((((((((((((((((((((((((((((((((((((((((((((((",
"(((((((((((((((((((((((((((((((((((((((((((((((((((((((((((((((((((((((((((((((((((((((((((((((((((((((((((((((((((((((((((((((((((((((((((((((((I/^!//!^Y((((((((((((((((((((((A^^^^^^^^^^^^^^^^/^/^^^^^^~ShkkmnnmkmmnO((((((((((((((((((((((((((((((((((((((((((((((((((((((((((((((u!^^^^^^^^!/!//!/!/!/!!/!//!/!!/!/^^^^^^^^^^^^^/!r((((((((((((((((((((((z^^^^^^^^t(((((((((((((((((((((((((((((((((((((((((((((((((((((((((((((((((((((((((((((((((((((((((((((((((((((((((((((((((((((((((((((((((((((",
"(((((((((((((((((((((((((((((((((((((((((((((((((((((((((((((((((((((((((((((((((((((((((((((((((((((((((((((((((((((((((((((((((((((((((((((((((I^^/!!//Q(((((((((((((((((((((((f^^^^^^^^^!^^^^^!^!^^^^^^^~SknknnnmnmmnO(((((((((((((((((((((((((((((((((((((((((((((((((((((((((((((D/^!^^^^^^/!/!!/!//!!//!/!!/!//!/!^^^^^^!^^^^!^I((((((((((((((((((((((((V^^^^^^^^7(((((((((((((((((((((((((((((((((((((((((((((((((((((((((((((((((((((((((((((((((((((((((((((((((((((((((((((((((((((((((((((((((((((",
"(((((((((((((((((((((((((((((((((((((((((((((((((((((((((((((((((((((((((((((((((((((((((((((((((((((((((((((((((((((((((((((((((((((((((((((((((J/!!/!/!!(((((((((((((((((((((((((W^^^^^^^^^^^^!/^^^^^^^^^^~AkkmknnmmmmmO((((((((((((((((((((((((((((((((((((((((((((((((((((((((((((W^^^^^^^^^!/!/!///!/!/!/!//!/!/!/!^^^^^^^^^^!^A(((((((((((((((((((((((((A^^^^^^^^((((((((((((((((((((((((((((((((((((((((((((((((((((((((((((((((((((((((((((((((((((((((((((((((((((((((((((((((((((((((((((((((((((((",
"(((((((((((((((((((((((((((((((((((((((((((((((((((((((((((((((((((((((((((((((((((((((((((((((((((((((((((((((((((((((((((((((((((((((((((((((((J^//!/!/!((((((((((((((((((((((((((L^^^^^^^^^^^^^^^^^^^^^^^^~Skkmmnnnnmmlo(((((((((((((((((((((((((((((((((((((((((((((((((((((((((((^^^^^^^^^^/!/!/!/!/!/!/!//!/!/!/!/^^^^^^^^^^/I((((((((((((((((((((((((((J/^^^^^^!((((((((((((((((((((((((((((((((((((((((((((((((((((((((((((((((((((((((((((((((((((((((((((((((((((((((((((((((((((((((((((((((((((((",
"(((((((((((((((((((((((((((((((((((((((((((((((((((((((((((((((((((((((((((((((((((((((((((((((((((((((((((((((((((((((((((((((((((((((((((((((((A^^^^^^^~(((((((((((((((((((((((((((V^^^^^^^!^^^^^!!/!/!//!//!Jkkmkmmnmmmn((((((((((((((((((((((((((((((((((((((((((((((((((((((((((f^^/!/!!/!/!!/!/!/!/!!/!/!/^^^^^^^^^^^^^^^^^^/J((((((((((((((((((((((((((L^^^^^^^!((((((((((((((((((((((((((((((((((((((((((((((((((((((((((((((((((((((((((((((((((((((((((((((((((((((((((((((((((((((((((((((((((((((",
"(((((((((((((((((((((((((((((((((((((((((((((((((((((((((((((((((((((((((((((((((((((((((((((((((((((((((((((((((((((((((((((((((((((((((((((((((N^^^^^^^^7(((((((((((((((((((((((((((g^^^^^^^^^!/^//!/!!/!/!/!!Snnmlmmmmmmn(((((((((((((((((((((((((((((((((((((((((((((((((((((((((A^/!/!//!/!//!/!/!/!//!/!/!^!^^^^^^^^^^^^^^^^^W((((((((((((((((((((((((((W^^^^^^^Q((((((((((((((((((((((((((((((((((((((((((((((((((((((((((((((((((((((((((((((((((((((((((((((((((((((((((((((((((((((((((((((((((((((",
"(((((((((((((((((((((((((((((((((((((((((((((((((((((((((((((((((((((((((((((((((((((((((((((((((((((((((((((((((((((((((((((((((((((((((((((((((j/^~^^^^/u((((((((((((((((((((((((((((u!^^^^^^^!^^^!/!//!/!/!!/!Akmnmnnmmmmm((((((((((((((((((((((((((((((((((((((((((((((((((((((((T/!/!/!!/!//!/!/!///!//!/!/^^^^^^^^^^!^^^^^^^^^((((((((((((((((((((((((((Q^^^^^^^Q((((((((((((((((((((((((((((((((((((((((((((((((((((((((((((((((((((((((((((((((((((((((((((((((((((((((((((((((((((((((((((((((((((((",
"(((((((((((((((((((((((((((((((((((((((((((((((((((((((((((((((((((((((((((((((((((((((((((((((((((((((((((((((((((((((((((((((((((((((((((((((((g/^^^^^^/z(((((((((((((((((((((((((((((:!/^^^^^/^/!/!/!!/!/!/!/^!Zknmmmmmmmmk(((((((((((((((((((((((((((((((((((((((((((((((((((((((T^^!/!/!//!!/!/!/!!!/!//!/!^^^^^^^^^^^^^^^^^^^^((((((((((((((((((((((((((!^^^^^^^E((((((((((((((((((((((((((((((((((((((((((((((((((((((((((((((((((((((((((((((((((((((((((((((((((((((((((((((((((((((((((((((((((((((",
"(((((((((((((((((((((((((((((((((((((((((((((((((((((((((((((((((((((((((((((((((((((((((((((((((((((((((((((((((((((((((((((((((((((((((((((((((t/^^^^^^/V(((((((((((((((((((((((((((((((Q/^^^^/!/!/!!/!/!//!/!^^!Znnnmmmmmmmd((((((((((((((((((((((((((((((((((((((((((((((((((((((E^^/!/!!/!//!!/!/!//!/!!//!^^^^^^^^^^^^^^^^^^/^((((((((((((((((((((((((((!^^^^^^^L((((((((((((((((((((((((((((((((((((((((((((((((((((((((((((((((((((((((((((((((((((((((((((((((((((((((((((((((((((((((((((((((((((((",
"((((((((((((((((((((((((((((((((((((((((((((((((((((((((((((((((((((((((((((((((((((((((((((((((((((((((((((((((((((((((((((((((((((((((((((((((((^^^^^^^/J((((((((((((((((((((((((((((((((I/!^^!/!/!//!/!/!!/!/^^^QBnmmmmmmmmBd(((((((((((((((((((((((((((((((((((((((((((((((((((((I^^!////!/!!//!/!/!!/!//!!/^^^^^!^^^^^^^^^^^!!^(((((((((((((((((((((((((t^^^^^^^^A((((((((((((((((((((((((((((((((((((((((((((((((((((((((((((((((((((((((((((((((((((((((((((((((((((((((((((((((((((((((((((((((((((((",
"((((((((((((((((((((((((((((((((((((((((((((((((((((((((((((((((((((((((((((((((((((((((((((((((((((((((((((((((((((((((((((((((((((((((((((((((((Q^^^^^^^W(((((((((((((((((((((((((((((((((L/^^/!/!/!//!/!/!//!^^^^YMbmmmnmBmmBy((((((((((((((((((((((((((((((((((((((((((((((((((((I//!/!/!//!/!//!/!////!/!/!^^^^^^^^^^^^^!^^!^/!(((((((((((((((((((((((((z^^^^^^^/j((((((((((((((((((((((((((((((((((((((((((((((((((((((((((((((((((((((((((((((((((((((((((((((((((((((((((((((((((((((((((((((((((((((",
"((((((((((((((((((((((((((((((((((((((((((((((((((((((((((((((((((((((((((((((((((((((((((((((((((((((((((((((((((((((((((((((((((((((((((((((((((E^^^^^^^^((((((((((((((((((((((((((((((((((J/^!/!/!//!/!/!//!/^^^^^WblmmmmmmBmBy(((((((((((((((((((((((((((((((((((((((((((((((((((J!!/!/!//!/!/!//!/!/!!/!/!/^^^^^^^^^^^^^^^^/^/!(((((((((((((((((((((((((A^^^^^^^^r((((((((((((((((((((((((((((((((((((((((((((((((((((((((((((((((((((((((((((((((((((((((((((((((((((((((((((((((((((((((((((((((((((((",
"((((((((((((((((((((((((((((((((((((((((((((((((((((((((((((((((((((((((((((((((((((((((((((((((((((((((((((((((((((((((((((((((((((((((((((((((((L^^^^^^^/(((((((((((((((((((((((((((((((((((L^//!//!/!!//!/!/!^^^^^^UlnmmmmmmmmB6((((((((((((((((((((((((((((((((((((((((((((((((((A^^!//!/!/!!/!//!/!!/!/!/!/^^^^^^^^^^~^^^^^^^/Y(((((((((((((((((((((((((J^^~^^^^^(((((((((((((((((((((((((((((((((((((((((((((((((((((((((((((((((((((((((((((((((((((((((((((((((((((((((((((((((((((((((((((((((((((((",
"((((((((((((((((((((((((((((((((((((((((((((((((((((((((((((((((((((((((((((((((((((((((((((((((((((((((((((((((((((((((((((((((((((((((((((((((((D/^^^^^^!r(((((((((((((((((((((((((((((((((((J/!/!!/!//!!/!/!/^^^^^^^ImnmmmBmmBmB2(((((((((((((((((((((((((((((((((((((((((((((((((T^^/!!/!/!//!/!!/!//!/!/!!/^!^^^^^^^^^^^^^^/!/A(((((((((((((((((((((((((I^^^^^^^^(((((((((((((((((((((((((((((((((((((((((((((((((((((((((((((((((((((((((((((((((((((((((((((((((((((((((((((((((((((((((((((((((((((((",
"((((((((((((((((((((((((((((((((((((((((((((((((((((((((((((((((((((((((((((((((((((((((((((((((((((((((((((((((((((((((((((((((((((((((((((((((((x^^^^^^^^z((((((((((((((((((((((((((((((((((((I!!//!/!!!/!/!/!^^~^^^^^PnmmmmmBmmBB&(((((((((((((((((((((((((((((((((((((((((((((((ZW^^!/!//!/!!/!//!/!!/!//!/!^^^^^^^^^^^^^^^^/!/u(((((((((((((((((((((((((!^^^^^^^!(((((((((((((((((((((((((((((((((((((((((((((((((((((((((((((((((((((((((((((((((((((((((((((((((((((((((((((((((((((((((((((((((((((((",
"((((((((((((((((((((((((((((((((((((((((((((((((((((((((((((((((((((((((((((((((((((((((((((((((((((((((((((((((((((((((((((((((((((((((((((((((((f!^^^^^^/D(((((((((((((((((((((((((((((((((((((L/!//!///!///!/^^^^^^^^^KmmmBmmmBmBm%(((((((((((((((((((((((((((((((((((((((((((((NKL~^/!/!!/!//!//!/!//!/!!/!/^^^^^^^^^^^^^^^^!/!(((((((((((((((((((((((((-^^^^^^^^J(((((((((((((((((((((((((((((((((((((((((((((((((((((((((((((((((((((((((((((((((((((((((((((((((((((((((((((((((((((((((((((((((((((((",
"(((((((((((((((((((((((((((((((((((((((((((((((((((((((((((((((((((((((((((((((((((((((((((((((((((((((((((((((((((((((((((((((((((((((((((((((((((!^^^^^^/I((((((((((((((((((((((((((((((((((((((I//!/!/!!/!/!/^^^^^^^^^^GbmmmBmmmBBm((((((((((((((((((((((((((((((((((((((((((((bKGKQ^!/!//!/!!/!//!/!!/!//!/!^^^^^^^^^^^^^^^^^/L(((((((((((((((((((((((((f^^^^^^^^x(((((((((((((((((((((((((((((((((((((((((((((((((((((((((((((((((((((((((((((((((((((((((((((((((((((((((((((((((((((((((((((((((((((((",
"(((((((((((((((((((((((((((((((((((((((((((((((((((((((((((((((((((((((((((((((((((((((((((((((((((((((((((((((((((((((((((((((((((((((((((((((((((Q^^^^^^^Q(((((((((((((((((((((((((((((((((((((((J/!!/!//!/!/!^^^^^^^^^^!SbmmmBBmBBBn((((((((((((((((((((((((((((((((((((((((((aKGKGU^/!/!!/!//!/!!/!//!/!!/!/^^^^^!^^^^^^^^^^^^g(((((((((((((((((((((((((V^^^^^^^/u(((((((((((((((((((((((((((((((((((((((((((((((((((((((((((((((((((((((((((((((((((((((((((((((((((((((((((((((((((((((((((((((((((((((",
"(((((((((((((((((((((((((((((((((((((((((((((((((((((((((((((((((((((((((((((((((((((((((((((((((((((((((((((((((((((((((((((((((((((((((((((((((((L^^^^^^^^((((((((((((((((((((((((((((((((((((((((L!/!/!!/!/!/^^^^^^^^^^^~VnmBmBBmBmCa((((((((((((((((((((((((((((((((((((((((7GKGKGK~!//!/!/!/!!/!/!/!/!//!/!^^^^^^^^^^~^^^^^^Q((((((((((((((((((((((((((L^^^^^^^~((((((((((((((((((((((((((((((((((((((((((((((((((((((((((((((((((((((((((((((((((((((((((((((((((((((((((((((((((((((((((((((((((((((((",
"(((((((((((((((((((((((((((((((((((((((((((((((((((((((((((((((((((((((((((((((((((((((((((((((((((((((((((((((((((((((((((((((((((((((((((((((((((v^^^^^^^^g((((((((((((((((((((((((((((((((((((((((!//!//!/!/!^^^^^^^^^^^^~CmmmmmmBBBBy((((((((((((((((((((((((((((((((((((((*GKGGGKGU/!//!/!/!/!//!/!/!/!//!/^^^^^^^^^^^^^^^^^j((((((((((((((((((((((((((Q^^^^^^/W((((((((((((((((((((((((((((((((((((((((((((((((((((((((((((((((((((((((((((((((((((((((((((((((((((((((((((((((((((((((((((((((((((((((",
"(((((((((((((((((((((((((((((((((((((((((((((((((((((((((((((((((((((((((((((((((((((((((((((((((((((((((((((((((((((((((((((((((((((((((((((((((((u^^^^^^^/A(((((((((((((((((((((((((((((((((((((((((I^^^^^^^^^^^^^^^^^^^^^^QNmmBmBmmBBC0(((((((((((((((((((((((((((((((((((((SGGGKGKGK!^^^^^^^^^^^^^^^^^^^^^^^^^^^^!^^^^^^!^^/Y(((((((((((((((((((((((((((!^^^^^^^L((((((((((((((((((((((((((((((((((((((((((((((((((((((((((((((((((((((((((((((((((((((((((((((((((((((((((((((((((((((((((((((((((((((((",
"((((((((((((((((((((((((((((((((((((((((((((((((((((((((((((((((((((((((((((((((((((((((((((((((((((((((((((((((((((((((((((((((((((((((((((((((((((^^^^^^^^L((((((((((((((((((((((((((((((((((((((((((Q/^^^^^^^~^^^^^^~^^^^^^EBmmmBBBBBBB*(((((((((((((((((((((((((((((((((((VKGKGKGKKKI^^^^^^^^^^^^^!^^^^^^^^^^^^^^^^^^^^^^^/^g((((((((((((((((((((((((((j^^^^^^^/A((((((((((((((((((((((((((((((((((((((((((((((((((((((((((((((((((((((((((((((((((((((((((((((((((((((((((((((((((((((((((((((((((((((((",
"((((((((((((((((((((((((((((((((((((((((((((((((((((((((((((((((((((((((((((((((((((((((((((((((((((((((((((((((((((((((((((((((((((((((((((((((((((W/^^^^^^^(((((((((((((((((((((((((((((((((((((((((((Q/^^^^^^^^^^^^^^~^^^^^^LmmmBmBmBBBm%(((((((((((((((((((((((((((((((((MGGGKGGKGKGJ!^^^^^^^^^~^^^^^^^^^!^^^^^^^^^^^^^^^^^D(((((((((((((((((((((((((((D^^^^^^^^f((((((((((((((((((((((((((((((((((((((((((((((((((((((((((((((((((((((((((((((((((((((((((((((((((((((((((((((((((((((((((((((((((((((((",
"((((((((((((((((((((((((((((((((((((((((((((((((((((((((((((((((((((((((((((((((((((((((((((((((((((((((((((((((((((((((((((((((((((((((((((((((((((J^^^^^^^/((((((((((((((((((((((((((((((((((((((((((((!^^^^^^^^^^^^^^^^^^^^^^JmBmBBmBBBCn((((((((((((((((((((((((((((((((aGGGGGGKGGGDY^^^^^^^^^^^^^^^^^^^^^^^^^^^^^^^^^^^^/W((((((((((((((((((((((((((((L^^^^^^^^(((((((((((((((((((((((((((((((((((((((((((((((((((((((((((((((((((((((((((((((((((((((((((((((((((((((((((((((((((((((((((((((((((((((((",
"((((((((((((((((((((((((((((((((((((((((((((((((((((((((((((((((((((((((((((((((((((((((((((((((((((((((((((((((((((((((((((((((((((((((((((((((((((V/^^^^^^^z(((((((((((((((((((((((((((((((((((((((((((t^^^^^^^^^^^^^~^^!^^^^^^DmmmmBBBCBCh((((((((((((((((((((((((((((((7GGGGGGGGKGDY^^^^^^^!^^^^^^~^^^^^^^^^^^^^^^^^!^^^/Q(((((((((((((((((((((((((((((!^^^^^^^!(((((((((((((((((((((((((((((((((((((((((((((((((((((((((((((((((((((((((((((((((((((((((((((((((((((((((((((((((((((((((((((((((((((((((",
"((((((((((((((((((((((((((((((((((((((((((((((((((((((((((((((((((((((((((((((((((((((((((((((((((((((((((((((((((((((((((((((((((((((((((((((((((((t^^^^^^^/L((((((((((((((((((((((((((((((((((((((((((((u^^^^^^^^^^^^^^^^^^^^^^~SmBBmBmCBCZa((((((((((((((((((((((((((((*GGGGGKGGKGDY^^^^^^^^^^^^~^^^^^^^^^^^^^^^^^^^^^^^^!(((((((((((((((((((((((((((((t^^^^^^^^D(((((((((((((((((((((((((((((((((((((((((((((((((((((((((((((((((((((((((((((((((((((((((((((((((((((((((((((((((((((((((((((((((((((((((",
"(((((((((((((((((((((((((((((((((((((((((((((((((((((((((((((((((((((((((((((((((((((((((((((((((((((((((((((((((((((((((((((((((((((((((((((((((((((!^^^^^^^Q(((((((((((((((((((((((((((((((((((((((((((((j^^^^^~^^^^^^^^^^^^^^^^~CmCCmmCBBBC:(((((((((((((((((((((((((((ZGGGGGGGGGDL^^^^^^^^^^^^^^^^^^^!^^^^^^^^^!^^^^^^/W((((((((((((((((((((((((((((((x^^^^^^^/g(((((((((((((((((((((((((((((((((((((((((((((((((((((((((((((((((((((((((((((((((((((((((((((((((((((((((((((((((((((((((((((((((((((((((",
"(((((((((((((((((((((((((((((((((((((((((((((((((((((((((((((((((((((((((((((((((((((((((((((((((((((((((((((((((((((((((((((((((((((((((((((((((((((L^^^^^^^~((((((((((((((((((((((((((((((((((((((((((((((v^^^^^^^^^^^^^^^^^^^^^^WmmBCBBBBBCC*(((((((((((((((((((((((((ZGGGGGGGGKDK^^^^^^^^^^^^^^^^^^^^^^^^^^^^^^^^^^^^^J(((((((((((((((((((((((((((((((J/^^^^^^^((((((((((((((((((((((((((((((((((((((((((((((((((((((((((((((((((((((((((((((((((((((((((((((((((((((((((((((((((((((((((((((((((((((((((",
"(((((((((((((((((((((((((((((((((((((((((((((((((((((((((((((((((((((((((((((((((((((((((((((((((((((((((((((((((((((((((((((((((((((((((((((((((((((v/^^^^^^/j((((((((((((((((((((((((((((((((((((((((((((((D/^^^^^^^^^^^^^^~^^^^^^ImMBBBBBBBCM((((((((((((((((((((((((hGGDGGGGGGDK!^^^^^^^^^^^^^!^^^^^^^^^^^^^^^^^^^//!z((((((((((((((((((((((((((((((((!^^^^^^^W((((((((((((((((((((((((((((((((((((((((((((((((((((((((((((((((((((((((((((((((((((((((((((((((((((((((((((((((((((((((((((((((((((((((((",
"(((((((((((((((((((((((((((((((((((((((((((((((((((((((((((((((((((((((((((((((((((((((((((((((((((((((((((((((((((((((((((((((((((((((((((((((((((((r^!^^^^^^J(((((((((((((((((((((((((((((((((((((((((((((((J^^^^^^^^^~^^^^^^^^^^^^LMmBBBBCBCCm((((((((((((((((((((((ySGGGGGGGGGJY^^^^^^^^^^^^^^^^^^^^^^^^^^^^^^^^^^!A(((((((((((((((((((((((((((((((((r!^^^^^^/J((((((((((((((((((((((((((((((((((((((((((((((((((((((((((((((((((((((((((((((((((((((((((((((((((((((((((((((((((((((((((((((((((((((((((",
"((((((((((((((((((((((((((((((((((((((((((((((((((((((((((((((((((((((((((((((((((((((((((((((((((((((((((((((((((((((((((((((((((((((((((((((((((((((!^^^^^^^W((((((((((((((((((((((((((((((((((((((((((((((((I/^^^^^^^^^^^^^^^^^^^^!DbBBBBBCCCZa((((((((((((((((((((*SGGGDGGGGDDY^^^^^^^^^^^^^^^^^^^^^^^^^^^^^/^^^QA(((((((((((((((((((((((((((((((((((A^^^^^^^^z((((((((((((((((((((((((((((((((((((((((((((((((((((((((((((((((((((((((((((((((((((((((((((((((((((((((((((((((((((((((((((((((((((((((((",
"((((((((((((((((((((((((((((((((((((((((((((((((((((((((((((((((((((((((((((((((((((((((((((((((((((((((((((((((((((((((((((((((((((((((((((((((((((((L^^^^^^^/(((((((((((((((((((((((((((((((((((((((((((((((((Q^^^^^^^^^^^^^^^^^^^^^!ZmBBBBCBCCZy(((((((((((((((((((ZGGSDDDGGGSI^^^^^^^^^^^^^^^^^^^^^^!!//^/^^WKA7(((((((((((((((((((((((((((((((((((((L^^^^^^^^(((((((((((((((((((((((((((((((((((((((((((((((((((((((((((((((((((((((((((((((((((((((((((((((((((((((((((((((((((((((((((((((((((((((((((",
"((((((((((((((((((((((((((((((((((((((((((((((((((((((((((((((((((((((((((((((((((((((((((((((((((((((((((((((((((((((((((((((((((((((((((((((((((((((V/^^^^^^/z(((((((((((((((((((((((((((((((((((((((((((((((((!^^^^^^^^^^^^^^^^^^^^^QCmBBBCBCBZC*(((((((((((((((((bSGGGGGGGGSL^^^^^^^^^^^^^^^^^^^/^!j(((7r7(((((((((((((((((((((((((((((((((((((((((((!^^^^^^^!(((((((((((((((((((((((((((((((((((((((((((((((((((((((((((((((((((((((((((((((((((((((((((((((((((((((((((((((((((((((((((((((((((((((((((",
"((((((((((((((((((((((((((((((((((((((((((((((((((((((((((((((((((((((((((((((((((((((((((((((((((((((((((((((((((((((((((((((((((((((((((((((((((((((t^^^^^^^^L(((((((((((((((((((((((((((((((((((((((((((((((((f^^^^^^^^^^^^^^^^^^^^^^WBBBCBCCBZZV((((((((((((((((hGGGGSSGDGSJ!^^^^^^^^^^^^^^^^^^^!^v(((((((((((((((((((((((((((((((((((((((((((((((((f^^^^^^^^J(((((((((((((((((((((((((((((((((((((((((((((((((((((((((((((((((((((((((((((((((((((((((((((((((((((((((((((((((((((((((((((((((((((((((((",
"(((((((((((((((((((((((((((((((((((((((((((((((((((((((((((((((((((((((((((((((((((((((((((((((((((((((((((((((((((((((((((((((((((((((((((((((((((((((Q^^^^^^^!((((((((((((((((((((((((((((((((((((((((((((((((((z^^^^^^~^^~^^^^^^^^^^^^KmBBBCBBCCZm((((((((((((((7SGGSGGGGJDDQ^^^^^^^^^^^^^^^^^^^^^J((((((((((((((((((((((((((((((((((((((((((((((((((A^^^!^^^/f(((((((((((((((((((((((((((((((((((((((((((((((((((((((((((((((((((((((((((((((((((((((((((((((((((((((((((((((((((((((((((((((((((((((((((",
"(((((((((((((((((((((((((((((((((((((((((((((((((((((((((((((((((((((((((((((((((((((((((((((((((((((((((((((((((((((((((((((((((((((((((((((((((((((((L^^^^^^^^r((((((((((((((((((((((((((((((((((((((((((((((((((D^^^^^^^^^^^^^^^~^^^^^^DmBCBCVCCCZh((((((((((((&ZGSSGSSGGDSY^^^^^^^^^~^^^^!^^^/!/L(((((((((((((((((((((((((((((((((((((((((((((((((((I^^^^^^^^((((((((((((((((((((((((((((((((((((((((((((((((((((((((((((((((((((((((((((((((((((((((((((((((((((((((((((((((((((((((((((((((((((((((((((",
"(((((((((((((((((((((((((((((((((((((((((((((((((((((((((((((((((((((((((((((((((((((((((((((((((((((((((((((((((((((((((((((((((((((((((((((((((((((((j^^^^^^^/A(((((((((((((((((((((((((((((((((((((((((((((((((((I/^^^^^^^^^^!//!^/^/^^!SBBCCCCBZCZr(((((((((((ZGSGGSGGGSSU^^^^^^^^^^^^^^^^^^!/^Q((((((((((((((((((((((((((((((((((((((((((((((((((((^^^^^^^^L((((((((((((((((((((((((((((((((((((((((((((((((((((((((((((((((((((((((((((((((((((((((((((((((((((((((((((((((((((((((((((((((((((((((((((",
"((((((((((((((((((((((((((((((((((((((((((((((((((((((((((((((((((((((((((((((((((((((((((((((((((((((((((((((((((((((((((((((((((((((((((((((((((((((((!^^^^^^^I((((((((((((((((((((((((((((((((((((((((((((((((((((W^^^^^^^^^^/!/^^!^!^^^QCBBBCCCCZCZ&(((((((((bGSSFSGSGGSJ~^^^^^^^^^^^^^^^^^^^^!r(((((((((((((((((((((((((((((((((((((((((((((((((((j^^^^^^^/V((((((((((((((((((((((((((((((((((((((((((((((((((((((((((((((((((((((((((((((((((((((((((((((((((((((((((((((((((((((((((((((((((((((((((((",
"((((((((((((((((((((((((((((((((((((((((((((((((((((((((((((((((((((((((((((((((((((((((((((((((((((((((((((((((((((((((((((((((((((((((((((((((((((((((I^^^^^^^^(((((((((((((((((((((((((((((((((((((((((((((((((((((!^^^^^^^^^!//^^!^^^^^^LMMCCCVCCZCC((((((((ySSSFSGGGGSG~^^^^^^^^^^^^^^^^^^^^!g((((((((((((((((((((((((((((((((((((((((((((((((((((L^^^^^^^^r((((((((((((((((((((((((((((((((((((((((((((((((((((((((((((((((((((((((((((((((((((((((((((((((((((((((((((((((((((((((((((((((((((((((((((",
"((((((((((((((((((((((((((((((((((((((((((((((((((((((((((((((((((((((((((((((((((((((((((((((((((((((((((((((((((((((((((((((((((((((((((((((((((((((((N/^^^^^^/j((((((((((((((((((((((((((((((((((((((((((((((((((((g^^^^^^^^^/!!^^//!^^^^^KMCBCCCCVZZb((((((*SSGGSGGSSSS~^^~^^^^!^^^^^^^^^^^^/A(((((((((((((((((((((((((((((((((((((((((((((((((((((Q^^^^^^^!(((((((((((((((((((((((((((((((((((((((((((((((((((((((((((((((((((((((((((((((((((((((((((((((((((((((((((((((((((((((((((((((((((((((((((((",
"((((((((((((((((((((((((((((((((((((((((((((((((((((((((((((((((((((((((((((((((((((((((((((((((((((((((((((((((((((((((((((((((((((((((((((((((((((((((r^^^^^^^/L(((((((((((((((((((((((((((((((((((((((((((((((((((((V^^^^^^^^!/!/^!/^^^^^^^SCZBZBZZCCZy(((((ZGSSSSGGSGSP^^^^^^^^^^^^^^^^^^^^/J(((((((((((((((((((((((((((((((((((((((((((((((((((((f!^^^^^^^L(((((((((((((((((((((((((((((((((((((((((((((((((((((((((((((((((((((((((((((((((((((((((((((((((((((((((((((((((((((((((((((((((((((((((((((",
"(((((((((((((((((((((((((((((((((((((((((((((((((((((((((((((((((((((((((((((((((((((((((((((((((((((((((((((((((((((((((((((((((((((((((((((((((((((((((W^^^^^^^^((((((((((((((((((((((((((((((((((((((((((((((((((((((J^^^^^^^/!/!^/^^^^^^^^QVBZBZBCCZZZ4(((bSSGSGSGSDSK^^^^^^^^^^^^^^~^^^^^^W((((((((((((((((((((((((((((((((((((((((((((((((((((((D/^^^^^^^f(((((((((((((((((((((((((((((((((((((((((((((((((((((((((((((((((((((((((((((((((((((((((((((((((((((((((((((((((((((((((((((((((((((((((((((",
"(((((((((((((((((((((((((((((((((((((((((((((((((((((((((((((((((((((((((((((((((((((((((((((((((((((((((((((((((((((((((((((((((((((((((((((((((((((((((J/^^^^^^^f((((((((((((((((((((((((((((((((((((((((((((((((((((((E^^^^^^//!/^!!^^^^^^^^YMBCBZZZZZZZ((yDSSSSGGSGSK~~^^^^^^^^^^^^^^^^^^^!(((((((((((((((((((((((((((((((((((((((((((((((((((((((E^^^^^^^^((((((((((((((((((((((((((((((((((((((((((((((((((((((((((((((((((((((((((((((((((((((((((((((((((((((((((((((((((((((((((((((((((((((((((((((",
"(((((((((((((((((((((((((((((((((((((((((((((((((((((((((((((((((((((((((((((((((((((((((((((((((((((((((((((((((((((((((((((((((((((((((((((((((((((((((g^!^^^^^^J(((((((((((((((((((((((((((((((((((((((((((((((((((((((!^^^^^!!/!^^/^^^^^^^^^LBBZZCBZZZSbySSSSGSSSGDS~~^^^^^^^^^^^^^!^^^^^^f((((((((((((((((((((((((((((((((((((((((((((((((((((((7^^^^^^^^L((((((((((((((((((((((((((((((((((((((((((((((((((((((((((((((((((((((((((((((((((((((((((((((((((((((((((((((((((((((((((((((((((((((((((((((",
"((((((((((((((((((((((((((((((((((((((((((((((((((((((((((((((((((((((((((((((((((((((((((((((((((((((((((((((((((((((((((((((((((((((((((((((((((((((((((!^^^^^^/Q(((((((((((((((((((((((((((((((((((((((((((((((((((((((u^^^^^/!/!/!/!^^^^^^^^^SBCNZZZZZZZSSSSSFSSGSAU^^^^^^^^!^^^^^^^^^^^/A(((((((((((((((((((((((((((((((((((((((((((((((((((((((V^^^^^^^/v((((((((((((((((((((((((((((((((((((((((((((((((((((((((((((((((((((((((((((((((((((((((((((((((((((((((((((((((((((((((((((((((((((((((((((((",
"((((((((((((((((((((((((((((((((((((((((((((((((((((((((((((((((((((((((((((((((((((((((((((((((((((((((((((((((((((((((((((((((((((((((((((((((((((((((((L^^^^^^^^t(((((((((((((((((((((((((((((((((((((((((((((((((((((((N^^^^!/!/!///^^^^^^^^^~ACCCZVZZZZZZSGDSGSGSL^^^^^^^^^^^^^^^^^^^^^L((((((((((((((((((((((((((((((((((((((((((((((((((((((((E^^^^^^^!(((((((((((((((((((((((((((((((((((((((((((((((((((((((((((((((((((((((((((((((((((((((((((((((((((((((((((((((((((((((((((((((((((((((((((((((",
"((((((((((((((((((((((((((((((((((((((((((((((((((((((((((((((((((((((((((((((((((((((((((((((((((((((((((((((((((((((((((((((((((((((((((((((((((((((((((j^^^^^^^^D((((((((((((((((((((((((((((((((((((((((((((((((((((((((J/^^/!/!!/!/~^^^^^~^^^YCCZCZZZZZZZSSGSGSZD~^^^^^^^^^^^^^^^^^^^^Q(((((((((((((((((((((((((((((((((((((((((((((((((((((((((!^^^^^^/I(((((((((((((((((((((((((((((((((((((((((((((((((((((((((((((((((((((((((((((((((((((((((((((((((((((((((((((((((((((((((((((((((((((((((((((((",
"(((((((((((((((((((((((((((((((((((((((((((((((((((((((((((((((((((((((((((((((((((((((((((((((((((((((((((((((((((((((((((((((((((((((((((((((((((((((((((^^^^^^^^!(((((((((((((((((((((((((((((((((((((((((((((((((((((((((W^^!/!//!/!^^^^^^^^^^^KMCZZZZZZZZZSSSSSS~^^^^^^^^^!^^^^^^^^^^^j((((((((((((((((((((((((((((((((((((((((((((((((((((((((A^^^^^^^/A(((((((((((((((((((((((((((((((((((((((((((((((((((((((((((((((((((((((((((((((((((((((((((((((((((((((((((((((((((((((((((((((((((((((((((((((",
"(((((((((((((((((((((((((((((((((((((((((((((((((((((((((((((((((((((((((((((((((((((((((((((((((((((((((((((((((((((((((((((((((((((((((((((((((((((((((((L/^^^^^^/t(((((((((((((((((((((((((((((((((((((((((((((((((((((((((~^/!/!!/!/^^^^^^^^^^^^GBCCZZZZSZZSSSSSE^^^!^^^^^^^^^^^!^^^^/J(((((((((((((((((((((((((((((((((((((((((((((((((((((((((E^^^^^^^^((((((((((((((((((((((((((((((((((((((((((((((((((((((((((((((((((((((((((((((((((((((((((((((((((((((((((((((((((((((((((((((((((((((((((((((((",
"(((((((((((((((((((((((((((((((((((((((((((((((((((((((((((((((((((((((((((((((((((((((((((((((((((((((((((((((((((((((((((((((((((((((((((((((((((((((((((N^^^^^^^^D(((((((((((((((((((((((((((((((((((((((((((((((((((((((((g^!/!//!/!^^^^^^^^^^^^~CCCZZZZZZZZSDSK!^^^^^^^^^^^^^^^^^^^^I((((((((((((((((((((((((((((((((((((((((((((((((((((((((((!^^^^^^^Q((((((((((((((((((((((((((((((((((((((((((((((((((((((((((((((((((((((((((((((((((((((((((((((((((((((((((((((((((((((((((((((((((((((((((((((((",
"((((((((((((((((((((((((((((((((((((((((((((((((((((((((((((((((((((((((((((((((((((((((((((((((((((((((((((((((((((((((((((((((((((((((((((((((((((((((((((!^^^^^^^Q((((((((((((((((((((((((((((((((((((((((((((((((((((((((((A///!!/!/^^^^^^^^^^^^^~ZCZZZZSZZSSZJ!/^^^^^^^^^^^^^^^^^^^!((((((((((((((((((((((((((((((((((((((((((((((((((((((((((z^^^^^^^/V((((((((((((((((((((((((((((((((((((((((((((((((((((((((((((((((((((((((((((((((((((((((((((((((((((((((((((((((((((((((((((((((((((((((((((((((",
"((((((((((((((((((((((((((((((((((((((((((((((((((((((((((((((((((((((((((((((((((((((((((((((((((((((((((((((((((((((((((((((((((((((((((((((((((((((((((((E^^^^^^^^r((((((((((((((((((((((((((((((((((((((((((((((((((((((((((E/!//!/!^~^^^^^^^^^^^^UZCZZZZZZZZSW^^^^^^^^^^^^^^^^^^^^^j((((((((((((((((((((((((((((((((((((((((((((((((((((((((((L^^^^^^^^r((((((((((((((((((((((((((((((((((((((((((((((((((((((((((((((((((((((((((((((((((((((((((((((((((((((((((((((((((((((((((((((((((((((((((((((((",
"((((((((((((((((((((((((((((((((((((((((((((((((((((((((((((((((((((((((((((((((((((((((((((((((((((((((((((((((((((((((((((((((((((((((((((((((((((((((((((z^^^^^^^/A(((((((((((((((((((((((((((((((((((((((((((((((((((((((((((!^^^^^^^^^^^^^^^^^^^^^EZZZZZZZSZSG~^^^^^^^^^^^^^^^^^~/S(((((((((((((((((((((((((((((((((((((((((((((((((((((((((((!/!/!/!/Q(((((((((((((((((((((((((((((((((((((((((((((((((((((((((((((((((((((((((((((((((((((((((((((((((((((((((((((((((((((((((((((((((((((((((((((((((",
"(((((((((((((((((((((((((((((((((((((((((((((((((((((((((((((((((((((((((((((((((((((((((((((((((((((((((((((((((((((((((((((((((((((((((((((((((((((((((((((!^^^^^^^!(((((((((((((((((((((((((((((((((((((((((((((((((((((((((((f^^^^^^~^^^^^^^^^^^^!^!KZZZZZZZZSSK~^^^^^~^^^^^^~^^^/~(((((((((((((((((((((((((((((((((((((((((((((((((((((((((((A//!!/!//A(((((((((((((((((((((((((((((((((((((((((((((((((((((((((((((((((((((((((((((((((((((((((((((((((((((((((((((((((((((((((((((((((((((((((((((((((",
"(((((((((((((((((((((((((((((((((((((((((((((((((((((((((((((((((((((((((((((((((((((((((((((((((((((((((((((((((((((((((((((((((((((((((((((((((((((((((((((L^^^^^^^/t(((((((((((((((((((((((((((((((((((((((((((((((((((((((((((A/^^^^^^^^^^^^^^^^^^^^!SZZSZZSZSZS~~~~^^^^^^^^^^^^^~((((((((((((((((((((((((((((((((((((((((((((((((((((((((((((E/!!/!!/!r(((((((((((((((((((((((((((((((((((((((((((((((((((((((((((((((((((((((((((((((((((((((((((((((((((((((((((((((((((((((((((((((((((((((((((((((((",
"(((((((((((((((((((((((((((((((((((((((((((((((((((((((((((((((((((((((((((((((((((((((((((((((((((((((((((((((((((((((((((((((((((((((((((((((((((((((((((((z^^^^^^^^J((((((((((((((((((((((((((((((((((((((((((((((((((((((((((((J^^^^^^^^^^!^^^^^^^^^^WSZZZZZSZSZS~~~^^^^^^^~^^^^^n((((((((((((((((((((((((((((((((((((((((((((((((((((((((((((!!//!//!!((((((((((((((((((((((((((((((((((((((((((((((((((((((((((((((((((((((((((((((((((((((((((((((((((((((((((((((((((((((((((((((((((((((((((((((((((",
"((((((((((((((((((((((((((((((((((((((((((((((((((((((((((((((((((((((((((((((((((((((((((((((((((((((((((((((((((((((((((((((((((((((((((((((((((((((((((((((!^^^^^^^!(((((((((((((((((((((((((((((((((((((((((((((((((((((((((((((!^^^^^^^^^^~^^^^^^^^^^LZZZSZSZSSZG~~^^^^^^^^^^^^S((((((((((((((((((((((((((((((((((((((((((((((((((((((((((((A!//!/!!/A((((((((((((((((((((((((((((((((((((((((((((((((((((((((((((((((((((((((((((((((((((((((((((((((((((((((((((((((((((((((((((((((((((((((((((((((((",
"((((((((((((((((((((((((((((((((((((((((((((((((((((((((((((((((((((((((((((((((((((((((((((((((((((((((((((((((((((((((((((((((((((((((((((((((((((((((((((((L^^^^^^^^f((((((((((((((((((((((((((((((((((((((((((((((((((((((((((((t^^^^^^^^^^^^^^^^^^^^^~GZZZZZZSZZm~~^^~^^^^^^^^W(((((((((((((((((((((((((((((((((((((((((((((((((((((((((((((E/!!/!/!/(((((((((((((((((((((((((((((((((((((((((((((((((((((((((((((((((((((((((((((((((((((((((((((((((((((((((((((((((((((((((((((((((((((((((((((((((((",
"((((((((((((((((((((((((((((((((((((((((((((((((((((((((((((((((((((((((((((((((((((((((((((((((((((((((((((((((((((((((((((((((((((((((((((((((((((((((((((((g^^^^^^^^J(((((((((((((((((((((((((((((((((((((((((((((((((((((((((((((V^^^~^^^^^^^^!^^^^^^^^QGZSZZSZSSZG~^^^^^^^^^^~(((((((((((((((((((((((((((((((((((((((((((((((((((((((((((((r!/!/!/!/I(((((((((((((((((((((((((((((((((((((((((((((((((((((((((((((((((((((((((((((((((((((((((((((((((((((((((((((((((((((((((((((((((((((((((((((((((((",
"(((((((((((((((((((((((((((((((((((((((((((((((((((((((((((((((((((((((((((((((((((((((((((((((((((((((((((((((((((((((((((((((((((((((((((((((((((((((((((((((!^^^^^^^^((((((((((((((((((((((((((((((((((((((((((((((((((((((((((((((L/^^^^^^^^^^^^^^^^^^^^WSZZZSZZSSSG~~^^^^^^^^j(((((((((((((((((((((((((((((((((((((((((((((((((((((((((((((J/!/!//!/x(((((((((((((((((((((((((((((((((((((((((((((((((((((((((((((((((((((((((((((((((((((((((((((((((((((((((((((((((((((((((((((((((((((((((((((((((((",
"(((((((((((((((((((((((((((((((((((((((((((((((((((((((((((((((((((((((((((((((((((((((((((((((((((((((((((((((((((((((((((((((((((((((((((((((((((((((((((((((D/!^^^^^/j((((((((((((((((((((((((((((((((((((((((((((((((((((((((((((((!^^^^^^^^^^^^~^^^^^^^^LZZZZSSZSZSL^^^^^^^/J((((((((((((((((((((((((((((((((((((((((((((((((((((((((((((((Q!/!/!!/^((((((((((((((((((((((((((((((((((((((((((((((((((((((((((((((((((((((((((((((((((((((((((((((((((((((((((((((((((((((((((((((((((((((((((((((((((((",
"(((((((((((((((((((((((((((((((((((((((((((((((((((((((((((((((((((((((((((((((((((((((((((((((((((((((((((((((((((((((((((((((((((((((((((((((((((((((((((((((t^^^^^^^^W((((((((((((((((((((((((((((((((((((((((((((((((((((((((((((((u!^^^^^^^^^^^^^^^^^^^^~GZSZZSZSSSSW^^^^^^U((((((((((((((((((((((((((((((((((((((((((((((((((((((((((((((f/!!/!//!L((((((((((((((((((((((((((((((((((((((((((((((((((((((((((((((((((((((((((((((((((((((((((((((((((((((((((((((((((((((((((((((((((((((((((((((((((((",
"((((((((((((((((((((((((((((((((((((((((((((((((((((((((((((((((((((((((((((((((((((((((((((((((((((((((((((((((((((((((((((((((((((((((((((((((((((((((((((((((W^^^^^^^^(((((((((((((((((((((((((((((((((((((((((((((((((((((((((((((((A/^^^^^^~^^^^^^^^^^^^^~SZSZSSSSSSGQ^^^^^7((((((((((((((((((((((((((((((((((((((((((((((((((((((((((((((D/^^^/!//g((((((((((((((((((((((((((((((((((((((((((((((((((((((((((((((((((((((((((((((((((((((((((((((((((((((((((((((((((((((((((((((((((((((((((((((((((((",
"((((((((((((((((((((((((((((((((((((((((((((((((((((((((((((((((((((((((((((((((((((((((((((((((((((((((((((((((((((((((((((((((((((((((((((((((((((((((((((((((A^^^^^^^/A(((((((((((((((((((((((((((((((((((((((((((((((((((((((((((((((I^^^^^^^^^^^^^^~^^^^^^PSZSZSZZSSSK^^^^B(((((((((((((((((((((((((((((((((((((((((((((((((((((((((((((((Q^^^^!//!(((((((((((((((((((((((((((((((((((((((((((((((((((((((((((((((((((((((((((((((((((((((((((((((((((((((((((((((((((((((((((((((((((((((((((((((((((((",
"(((((((((((((((((((((((((((((((((((((((((((((((((((((((((((((((((((((((((((((((((((((((((((((((((((((((((((((((((((((((((((((((((((((((((((((((((((((((((((((((((!/^^^^^^W((((((((((((((((((((((((((((((((((((((((((((((((((((((((((((((((!^^^^^^^^^^^^^^^^~^^^~GCZSSZSSSSSW~~G(((((((((((((((((((((((((((((((((((((((((((((((((((((((((((((((j^^^^^^^/D(((((((((((((((((((((((((((((((((((((((((((((((((((((((((((((((((((((((((((((((((((((((((((((((((((((((((((((((((((((((((((((((((((((((((((((((((((((",
"(((((((((((((((((((((((((((((((((((((((((((((((((((((((((((((((((((((((((((((((((((((((((((((((((((((((((((((((((((((((((((((((((((((((((((((((((((((((((((((((((I^^^^^^^^t(((((((((((((((((((((((((((((((((((((((((((((((((((((((((((((((g^^^^^^^^^^~^^^^^^^^^^~CZSSSSSSZZF~~((((((((((((((((((((((((((((((((((((((((((((((((((((((((((((((((I^^^^^^!^t(((((((((((((((((((((((((((((((((((((((((((((((((((((((((((((((((((((((((((((((((((((((((((((((((((((((((((((((((((((((((((((((((((((((((((((((((((((",
"(((((((((((((((((((((((((((((((((((((((((((((((((((((((((((((((((((((((((((((((((((((((((((((((((((((((((((((((((((((((((((((((((((((((((((((((((((((((((((((((((j/^^^^^^/J((((((((((((((((((((((((((((((((((((((((((((((((((((((((((((((((J^^^^^^^^^^^^^^^^^^^^~~SZZSSSSSSS~0((((((((((((((((((((((((((((((((((((((((((((((((((((((((((((((((!^^^^^^/W((((((((((((((((((((((((((((((((((((((((((((((((((((((((((((((((((((((((((((((((((((((((((((((((((((((((((((((((((((((((((((((((((((((((((((((((((((((",
"((((((((((((((((((((((((((((((((((((((((((((((((((((((((((((((((((((((((((((((((((((((((((((((((((((((((((((((((((((((((((((((((((((((((((((((((((((((((((((((((((!^^^^^^^^((((((((((((((((((((((((((((((((((((((((((((((((((((((((((((((((h~^^^~^^^^^^^^^^^^^^^~~~SZSSZSSFSG((((((((((((((((((((((((((((((((((((((((((((((((((((((((((((((((A^^^^^^!/A((((((((((((((((((((((((((((((((((((((((((((((((((((((((((((((((((((((((((((((((((((((((((((((((((((((((((((((((((((((((((((((((((((((((((((((((((((((",
"((((((((((((((((((((((((((((((((((((((((((((((((((((((((((((((((((((((((((((((((((((((((((((((((((((((((((((((((((((((((((((((((((((((((((((((((((((((((((((((((((J/^^^^^^/j(((((((((((((((((((((((((((((((((((((((((((((((((((((((((((((((BL^^^^^^^^^^^^^^~^^^^^^!KZSSSSSSSSC(((((((((((((((((((((((((((((((((((((((((((((((((((((((((((((((W^^^^^^^^(((((((((((((((((((((((((((((((((((((((((((((((((((((((((((((((((((((((((((((((((((((((((((((((((((((((((((((((((((((((((((((((((((((((((((((((((((((((",
"((((((((((((((((((((((((((((((((((((((((((((((((((((((((((((((((((((((((((((((((((((((((((((((((((((((((((((((((((((((((((((((((((((((((((((((((((((((((((((((((((t!^^^^/!/I((((((((((((((((((((((((((((((((((((((((((((((((((((((((((((((aZSW^^^^^^^^^^^^^^^^^^^^^YSSSZZSSFSGa(((((((((((((((((((((((((((((((((((((((((((((((((((((((((((((t^^^^^^^/L(((((((((((((((((((((((((((((((((((((((((((((((((((((((((((((((((((((((((((((((((((((((((((((((((((((((((((((((((((((((((((((((((((((((((((((((((((((((",
"(((((((((((((((((((((((((((((((((((((((((((((((((((((((((((((((((((((((((((((((((((((((((((((((((((((((((((((((((((((((((((((((((((((((((((((((((((((((((((((((((((W^^^^^^/!7((((((((((((((((((((((((((((((((((((((((((((((((((((((((((((6ZZZF~^^^^^^^^^^^^^^^^^^^^^LSZSSSSSGSG*((((((((((((((((((((((((((((((((((((((((((((((((((((((((((((J^^^^^^^^g(((((((((((((((((((((((((((((((((((((((((((((((((((((((((((((((((((((((((((((((((((((((((((((((((((((((((((((((((((((((((((((((((((((((((((((((((((((((",
"(((((((((((((((((((((((((((((((((((((((((((((((((((((((((((((((((((((((((((((((((((((((((((((((((((((((((((((((((((((((((((((((((((((((((((((((((((((((((((((((((((N/^^^/!^/A((((((((((((((((((((((((((((((((((((((((((((((((((((((((((((CZZZZK~^^^^^^^^^^^^!^^^^^^^~KSSSSSSSSSZ((((((((((((((((((((((((((((((((((((((((((((((((((((((((((((!^^^^^^^!((((((((((((((((((((((((((((((((((((((((((((((((((((((((((((((((((((((((((((((((((((((((((((((((((((((((((((((((((((((((((((((((((((((((((((((((((((((((",
"((((((((((((((((((((((((((((((((((((((((((((((((((((((((((((((((((((((((((((((((((((((((((((((((((((((((((((((((((((((((((((((((((((((((((((((((((((((((((((((((((((!^^^/^^^!(((((((((((((((((((((((((((((((((((((((((((((((((((((((((((hZZZZZSU^^^^^^^^^^^^^^^^^^^^^YSSSSSSSGSGh((((((((((((((((((((((((((((((((((((((((((((((((((((((((((V!^!^^^^/D((((((((((((((((((((((((((((((((((((((((((((((((((((((((((((((((((((((((((((((((((((((((((((((((((((((((((((((((((((((((((((((((((((((((((((((((((((((((",
"((((((((((((((((((((((((((((((((((((((((((((((((((((((((((((((((((((((((((((((((((((((((((((((((((((((((((((((((((((((((((((((((((((((((((((((((((((((((((((((((((((J/^^!^!//j(((((((((((((((((((((((((((((((((((((((((((((((((((((((((6ZZZZZZZDQ^^^^^^^^^^^^^^^^^^^^^USSSSSSSSSG;(((((((((((((((((((((((((((((((((((((((((((((((((((((((((I/^/^^^^/(((((((((((((((((((((((((((((((((((((((((((((((((((((((((((((((((((((((((((((((((((((((((((((((((((((((((((((((((((((((((((((((((((((((((((((((((((((((((",
"((((((((((((((((((((((((((((((((((((((((((((((((((((((((((((((((((((((((((((((((((((((((((((((((((((((((((((((((((((((((((((((((((((((((((((((((((((((((((((((((((((f!^^^^^^/I(((((((((((((((((((((((((((((((((((((((((((((((((((((((((BZZZZZZZZK!^^^^^^^^^^^^^^^^^^^^~KSSSSSGSGGZ((((((((((((((((((((((((((((((((((((((((((((((((((((((((r^/!/^^^^W(((((((((((((((((((((((((((((((((((((((((((((((((((((((((((((((((((((((((((((((((((((((((((((((((((((((((((((((((((((((((((((((((((((((((((((((((((((((((",
"(((((((((((((((((((((((((((((((((((((((((((((((((((((((((((((((((((((((((((((((((((((((((((((((((((((((((((((((((((((((((((((((((((((((((((((((((((((((((((((((((((((Q^^^^^^/!((((((((((((((((((((((((((((((((((((((((((((((((((((((((hZCZCZZZZZZW^^^^^^!^^^^^^^^^^^^^^IZSSSSSSSSGh(((((((((((((((((((((((((((((((((((((((((((((((((((((((D/!/!^^^^j(((((((((((((((((((((((((((((((((((((((((((((((((((((((((((((((((((((((((((((((((((((((((((((((((((((((((((((((((((((((((((((((((((((((((((((((((((((((((",
"(((((((((((((((((((((((((((((((((((((((((((((((((((((((((((((((((((((((((((((((((((((((((((((((((((((((((((((((((((((((((((((((((((((((((((((((((((((((((((((((((((((A^^^^^^//A((((((((((((((((((((((((((((((((((((((((((((((((((((((;ZZCZZZZZZCJ^^^^^^^^^^^^^^^^^^^^^^~GZSSSFSSDSS;((((((((((((((((((((((((((((((((((((((((((((((((((((((!^/^^^^^!((((((((((((((((((((((((((((((((((((((((((((((((((((((((((((((((((((((((((((((((((((((((((((((((((((((((((((((((((((((((((((((((((((((((((((((((((((((((((",
"((((((((((((((((((((((((((((((((((((((((((((((((((((((((((((((((((((((((((((((((((((((((((((((((((((((((((((((((((((((((((((((((((((((((((((((((((((((((((((((((((((((!^^^^^!/!((((((((((((((((((((((((((((((((((((((((((((((((((((((BZCZZZZZZVS!^^^^^^^^^^^^^^^^^^^^^^^~SSSSSSGSGGS(((((((((((((((((((((((((((((((((((((((((((((((((((((x^^!^!/^^D((((((((((((((((((((((((((((((((((((((((((((((((((((((((((((((((((((((((((((((((((((((((((((((((((((((((((((((((((((((((((((((((((((((((((((((((((((((((((",
"((((((((((((((((((((((((((((((((((((((((((((((((((((((((((((((((((((((((((((((((((((((((((((((((((((((((((((((((((((((((((((((((((((((((((((((((((((((((((((((((((((((J/^^^^!//f((((((((((((((((((((((((((((((((((((((((((((((((((((aZZCCZCZZZVU^^^^^^^^^^^^!^^^^^^^^^^^~LZSSGSSSGSGh((((((((((((((((((((((((((((((((((((((((((((((((((((I^^^^^^^^7((((((((((((((((((((((((((((((((((((((((((((((((((((((((((((((((((((((((((((((((((((((((((((((((((((((((((((((((((((((((((((((((((((((((((((((((((((((((((",
"((((((((((((((((((((((((((((((((((((((((((((((((((((((((((((((((((((((((((((((((((((((((((((((((((((((((((((((((((((((((((((((((((((((((((((((((((((((((((((((((((((((t^^^^^/!!Y(((((((((((((((((((((((((((((((((((((((((((((((((((4ZCZCCZZZZBG~^^^^^!^^^^^^^^^^^^~^~^^^^~GSSSSSGSGSG;((((((((((((((((((((((((((((((((((((((((((((((((((t^^^^^^^^W(((((((((((((((((((((((((((((((((((((((((((((((((((((((((((((((((((((((((((((((((((((((((((((((((((((((((((((((((((((((((((((((((((((((((((((((((((((((((((",
"(((((((((((((((((((((((((((((((((((((((((((((((((((((((((((((((((((((((((((((((((((((((((((((((((((((((((((((((((((((((((((((((((((((((((((((((((((((((((((((((((((((((W^^/^^!//7((((((((((((((((((((((((((((((((((((((((((((((((((mZCCZZZZZBS!^^^^^^^^^^^^^^^^^^^^^^^^^^^YZSSSGSSSGGZ((((((((((((((((((((((((((((((((((((((((((((((((((D/^^^^^^/j(((((((((((((((((((((((((((((((((((((((((((((((((((((((((((((((((((((((((((((((((((((((((((((((((((((((((((((((((((((((((((((((((((((((((((((((((((((((((((",
"(((((((((((((((((((((((((((((((((((((((((((((((((((((((((((((((((((((((((((((((((((((((((((((((((((((((((((((((((((((((((((((((((((((((((((((((((((((((((((((((((((((((v^^!///!/D(((((((((((((((((((((((((((((((((((((((((((((((((aZBVZCBZVZNE^^^^^^^^^^^^^^^^^^^^^^^^^^^^^USSSSGSGSDGh(((((((((((((((((((((((((((((((((((((((((((((((((!^^^^^^/!((((((((((((((((((((((((((((((((((((((((((((((((((((((((((((((((((((((((((((((((((((((((((((((((((((((((((((((((((((((((((((((((((((((((((((((((((((((((((((",
"((((((((((((((((((((((((((((((((((((((((((((((((((((((((((((((((((((((((((((((((((((((((((((((((((((((((((((((((((((((((((((((((((((((((((((((((((((((((((((((((((((((((!!/!!/!/!((((((((((((((((((((((((((((((((((((((((((((((((<CBBCCVCZZVJ^^^^^^^^^^^^^^^^^^^^^^~^^^^^^^^GSSGSSSGSDG;(((((((((((((((((((((((((((((((((((((((((((((((V^^^^^^^/A((((((((((((((((((((((((((((((((((((((((((((((((((((((((((((((((((((((((((((((((((((((((((((((((((((((((((((((((((((((((((((((((((((((((((((((((((((((((((((",
"((((((((((((((((((((((((((((((((((((((((((((((((((((((((((((((((((((((((((((((((((((((((((((((((((((((((((((((((((((((((((((((((((((((((((((((((((((((((((((((((((((((((D/!//!/!/z(((((((((((((((((((((((((((((((((((((((((((((((mZBZCZCZZCZQ^^^^^^^^^^^^!^^^^^^^^^^^^^^^^^^YSSSSGGSGDGZ(((((((((((((((((((((((((((((((((((((((((((((((W^^^^^^^!(((((((((((((((((((((((((((((((((((((((((((((((((((((((((((((((((((((((((((((((((((((((((((((((((((((((((((((((((((((((((((((((((((((((((((((((((((((((((((((",
"(((((((((((((((((((((((((((((((((((((((((((((((((((((((((((((((((((((((((((((((((((((((((((((((((((((((((((((((((((((((((((((((((((((((((((((((((((((((((((((((((((((((((!^^^^^^^Q((((((((((((((((((((((((((((((((((((((((((((((aCBCCCZCZZBI^^^^^^^^^^^^~^^^^~^^^^^^^^^!^^^^/LAFSGSGGSGGh(((((((((((((((((((((((((((((((((((((((((((((j!/^^!!^^L(((((((((((((((((((((((((((((((((((((((((((((((((((((((((((((((((((((((((((((((((((((((((((((((((((((((((((((((((((((((((((((((((((((((((((((((((((((((((((((",
"(((((((((((((((((((((((((((((((((((((((((((((((((((((((((((((((((((((((((((((((((((((((((((((((((((((((((((((((((((((((((((((((((((((((((((((((((((((((((((((((((((((((((I^^^^^^^^u((((((((((((((((((((((((((((((((((((((((((((&BBZBVCCCVBD^^^^^^^^^^^^^^^^^^^^^^^^^^^^^^^^^^!DAFSSGSGGGD*((((((((((((((((((((((((((((((((((((((((((((J/!^^^^^/f(((((((((((((((((((((((((((((((((((((((((((((((((((((((((((((((((((((((((((((((((((((((((((((((((((((((((((((((((((((((((((((((((((((((((((((((((((((((((((((",
"(((((((((((((((((((((((((((((((((((((((((((((((((((((((((((((((((((((((((((((((((((((((((((((((((((((((((((((((((((((((((((((((((((((((((((((((((((((((((((((((((((((((((j^^!^^^^/L((((((((((((((((((((((((((((((((((((((((((((hCCCCCVZCZZQ^^^^^^^^~^^^^^^^^^^^^^^^^^^^^^^^^^^QASSGSGSSGGZ((((((((((((((((((((((((((((((((((((((((((((^//!^^^/!((((((((((((((((((((((((((((((((((((((((((((((((((((((((((((((((((((((((((((((((((((((((((((((((((((((((((((((((((((((((((((((((((((((((((((((((((((((((((((((",
"((((((((((((((((((((((((((((((((((((((((((((((((((((((((((((((((((((((((((((((((((((((((((((((((((((((((((((((((((((((((((((((((((((((((((((((((((((((((((((((((((((((((((Q/^^^^^^^(((((((((((((((((((((((((((((((((((((((((((yCBCBZCCCCBL^^^^^^^^^^^^^^^^^^^^^^^^^^^^^^^^^^^^/ISSSGSGSGDKa((((((((((((((((((((((((((((((((((((((((((A!/^/^^^/V((((((((((((((((((((((((((((((((((((((((((((((((((((((((((((((((((((((((((((((((((((((((((((((((((((((((((((((((((((((((((((((((((((((((((((((((((((((((((((((",
"((((((((((((((((((((((((((((((((((((((((((((((((((((((((((((((((((((((((((((((((((((((((((((((((((((((((((((((((((((((((((((((((((((((((((((((((((((((((((((((((((((((((((V/^^^^^^^D(((((((((((((((((((((((((((((((((((((((((%BBCCCCVZCBD~^^^^^^^^^^^^~^^^^^^^^~^^^!^^^^^^!/^^^!GSGSGFSGSGG((((((((((((((((((((((((((((((((((((((((((!/!^/^^^!(((((((((((((((((((((((((((((((((((((((((((((((((((((((((((((((((((((((((((((((((((((((((((((((((((((((((((((((((((((((((((((((((((((((((((((((((((((((((((((((",
"(((((((((((((((((((((((((((((((((((((((((((((((((((((((((((((((((((((((((((((((((((((((((((((((((((((((((((((((((((((((((((((((((((((((((((((((((((((((((((((((((((((((((((!^^^^^^^^(((((((((((((((((((((((((((((((((((((((((hCBCMCCZCCVQ^^^^^^^^^^~^^^^^^^^^^^^^^^^^^^^^^^^!^^^YSSGSGGGGGGM((((((((((((((((((((((((((((((((((((((((v/!/^!/!^J(((((((((((((((((((((((((((((((((((((((((((((((((((((((((((((((((((((((((((((((((((((((((((((((((((((((((((((((((((((((((((((((((((((((((((((((((((((((((((((((",
"(((((((((((((((((((((((((((((((((((((((((((((((((((((((((((((((((((((((((((((((((((((((((((((((((((((((((((((((((((((((((((((((((((((((((((((((((((((((((((((((((((((((((((J/^^^^^^^v(((((((((((((((((((((((((((((((((((((((6CCCCCCCCVCK^^^^^^^^^^^^^^^^^^^^^^^^^^^^^^^^^^^^/!/^^KSSGSSGSGGG*(((((((((((((((((((((((((((((((((((((((I!/!/!^^^7(((((((((((((((((((((((((((((((((((((((((((((((((((((((((((((((((((((((((((((((((((((((((((((((((((((((((((((((((((((((((((((((((((((((((((((((((((((((((((((((",
"(((((((((((((((((((((((((((((((((((((((((((((((((((((((((((((((((((((((((((((((((((((((((((((((((((((((((((((((((((((((((((((((((((((((((((((((((((((((((((((((((((((((((((7!^^^^^^/W(((((((((((((((((((((((((((((((((((((((mCBBCMCCCBD!^^~^^^~^^^^^^^^^^^^!I^^^^^^^^^^^^^^^^^^^^^GSSGSGGDGGS((((((((((((((((((((((((((((((((((((((f//!/!/!/I((((((((((((((((((((((((((((((((((((((((((((((((((((((((((((((((((((((((((((((((((((((((((((((((((((((((((((((((((((((((((((((((((((((((((((((((((((((((((((((((",
"((((((((((((((((((((((((((((((((((((((((((((((((((((((((((((((((((((((((((((((((((((((((((((((((((((((((((((((((((((((((((((((((((((((((((((((((((((((((((((((((((((((((((((I^^^^^^^!((((((((((((((((((((((((((((((((((((((aBmBBBBCCBVW^^^^^^^^^^^^^^^^^^^/A(J^^^^^^^^^!^^^^^^^^^^YASGGSGDGSKa(((((((((((((((((((((((((((((((((((((J/^^^^^^^g((((((((((((((((((((((((((((((((((((((((((((((((((((((((((((((((((((((((((((((((((((((((((((((((((((((((((((((((((((((((((((((((((((((((((((((((((((((((((((((((",
"((((((((((((((((((((((((((((((((((((((((((((((((((((((((((((((((((((((((((((((((((((((((((((((((((((((((((((((((((((((((((((((((((((((((((((((((((((((((((((((((((((((((((((u^^^^^^^Q(((((((((((((((((((((((((((((((((((((*BBCCBCCCCMJ^^^^^^^^^^^^^^^^^^^^Q(((!^^^^^^^^^^^^^^^^^^^^KSGDGGGGGGG((((((((((((((((((((((((((((((((((((r!^^^^^^/Y(((((((((((((((((((((((((((((((((((((((((((((((((((((((((((((((((((((((((((((((((((((((((((((((((((((((((((((((((((((((((((((((((((((((((((((((((((((((((((((((((",
"(((((((((((((((((((((((((((((((((((((((((((((((((((((((((((((((((((((((((((((((((((((((((((((((((((((((((((((((((((((((((((((((((((((((((((((((((((((((((((((((((((((((((((((W/^^^^/J(((((((((((((((((((((((((((((((((((((nCCBBCBZMCA!^^^^^^^^^^^^^^^^^^^^f(((z^^^^!^^^^^^^^^^^^^^^~SSGGGGGGGKC(((((((((((((((((((((((((((((((((((J^^^^^^^/V(((((((((((((((((((((((((((((((((((((((((((((((((((((((((((((((((((((((((((((((((((((((((((((((((((((((((((((((((((((((((((((((((((((((((((((((((((((((((((((((((",
"(((((((((((((((((((((((((((((((((((((((((((((((((((((((((((((((((((((((((((((((((((((((((((((((((((((((((((((((((((((((((((((((((((((((((((((((((((((((((((((((((((((((((((((t^^^^^Q(((((((((((((((((((((((((((((((((((((yCmCBCBBBBMY^^^^^^^^^^^^^^^^^^^^D(((((L/^^^^^^^^^^!^^^^^^^^YSSSGSGGGGK7((((((((((((((((((((((((((((((((((W^^^^^^^!((((((((((((((((((((((((((((((((((((((((((((((((((((((((((((((((((((((((((((((((((((((((((((((((((((((((((((((((((((((((((((((((((((((((((((((((((((((((((((((((((",
"(((((((((((((((((((((((((((((((((((((((((((((((((((((((((((((((((((((((((((((((((((((((((((((((((((((((((((((((((((((((((((((((((((((((((((((((((((((((((((((((((((((((((((((((L!!J(((((((((((((((((((((((((((((((((((((%mCBBCBBVCCD!^^^^^^^^^^~^^^^^^^^!(((((((!/^^^^^^^^^^^^^^^^~^^JSGSGGGGGKG((((((((((((((((((((((((((((((((((!^^^^!!/J((((((((((((((((((((((((((((((((((((((((((((((((((((((((((((((((((((((((((((((((((((((((((((((((((((((((((((((((((((((((((((((((((((((((((((((((((((((((((((((((((",
"((((((((((((((((((((((((((((((((((((((((((((((((((((((((((((((((((((((((((((((((((((((((((((((((((((((((((((((((((((((((((((((((((((((((((((((((((((((((((((((((((((((((((((((((((((((((((((((((((((((((((((((((((((((((hCBBBBBCBBZY^^^^^^^~^^^^^^^^^^^^g(((((((z^^^^^^^^^^^^^^^^^^^^YDSGGGSGGGKj(((((((((((((((((((((((((((((((((E^^^^^/!(((((((((((((((((((((((((((((((((((((((((((((((((((((((((((((((((((((((((((((((((((((((((((((((((((((((((((((((((((((((((((((((((((((((((((((((((((((((((((((((((((",
"(((((((((((((((((((((((((((((((((((((((((((((((((((((((((((((((((((((((((((((((((((((((((((((((((((((((((((((((((((((((((((((((((((((((((((((((((((((((((((((((((((((((((((((((((((((((((((((((((((((((((((((((((((((((9BCmBBCBCCBL^^^^^^^^^^^^^^^^^^^^J(((((((((E/^^^^^^^^^^^^^^^^^^^IASGGGDGGGK6((((((((((((((((((((((((((((((((z^/!^^/D(((((((((((((((((((((((((((((((((((((((((((((((((((((((((((((((((((((((((((((((((((((((((((((((((((((((((((((((((((((((((((((((((((((((((((((((((((((((((((((((((((",
"(((((((((((((((((((((((((((((((((((((((((((((((((((((((((((((((((((((((((((((((((((((((((((((((((((((((((((((((((((((((((((((((((((((((((((((((((((((((((((((((((((((((((((((((((((((((((((((((((((((((((((((((((((((((mBmBCBBBBBS!^^^^^^^^^^^^^^^^^^^!(((((((((((!^^^^!^^^^^^^!^^^^^^^JSGGGGGGGKS(((((((((((((((((((((((((((((((((N^///L((((((((((((((((((((((((((((((((((((((((((((((((((((((((((((((((((((((((((((((((((((((((((((((((((((((((((((((((((((((((((((((((((((((((((((((((((((((((((((((((((((",
"((((((((((((((((((((((((((((((((((((((((((((((((((((((((((((((((((((((((((((((((((((((((((((((((((((((((((((((((((((((((((((((((((((((((((((((((((((((((((((((((((((((((((((((((((((((((((((((((((((((((((((((((((((((aBBBBBBBBBNW^^^!^^^^^^!^^^^^^^^^z(((((((((((V^^^^^^^^^^^^^!^^^^^^YSSDGGGGKGKf((((((((((((((((((((((((((((((((((jxt(((((((((((((((((((((((((((((((((((((((((((((((((((((((((((((((((((((((((((((((((((((((((((((((((((((((((((((((((((((((((((((((((((((((((((((((((((((((((((((((((((((",
"(((((((((((((((((((((((((((((((((((((((((((((((((((((((((((((((((((((((((((((((((((((((((((((((((((((((((((((((((((((((((((((((((((((((((((((((((((((((((((((((((((((((((((((((((((((((((((((((((((((((((((((((((((((&mBBmBBmCBBK^^^^^^^^^^^^^^^^^^~/I(((((((((((((E^^^^^^^^^^^^^^^^^^^^LSGGGGGGGKK((((((((((((((((((((((((((((((((((((((((((((((((((((((((((((((((((((((((((((((((((((((((((((((((((((((((((((((((((((((((((((((((((((((((((((((((((((((((((((((((((((((((((((((((((((((((((((((((((((((((((",
"(((((((((((((((((((((((((((((((((((((((((((((((((((((((((((((((((((((((((((((((((((((((((((((((((((((((((((((((((((((((((((((((((((((((((((((((((((((((((((((((((((((((((((((((((((((((((((((((((((((((((((((((((((((nBmBBBBCBmZ!^^^^^^^^^^^^^^^^^^^!((((((((((((((r^^^^^^^^^^^^^^^^^^^^~DDGGGGGKKKC(((((((((((((((((((((((((((((((((((((((((((((((((((((((((((((((((((((((((((((((((((((((((((((((((((((((((((((((((((((((((((((((((((((((((((((((((((((((((((((((((((((((((((((((((((((((((((((((((((((((((",
"((((((((((((((((((((((((((((((((((((((((((((((((((((((((((((((((((((((((((((((((((((((((((((((((((((((((((((((((((((((((((((((((((((((((((((((((((((((((((((((((((((((((((((((((((((((((((((((((((((((((((((((((((((6mBBBmBBBBBU^^^^^^^^^^^^^^^^^^^^A(((((((((((((((D^^^^^^^^^^^^^^^^^^^^ISGGDGKGGGK7((((((((((((((((((((((((((((((((((((((((((((((((((((((((((((((((((((((((((((((((((((((((((((((((((((((((((((((((((((((((((((((((((((((((((((((((((((((((((((((((((((((((((((((((((((((((((((((((((((((((",
"((((((((((((((((((((((((((((((((((((((((((((((((((((((((((((((((((((((((((((((((((((((((((((((((((((((((((((((((((((((((((((((((((((((((((((((((((((((((((((((((((((((((((((((((((((((((((((((((((((((((((((((((((((mmBBBBBBBMD!^^^^^^^^^^^^^^^^^^^W(((((((((((((((((W^^^^^^^!^^^^^^^^^^^^KDGGGGGKKKG((((((((((((((((((((((((((((((((((((((((((((((((((((((((((((((((((((((((((((((((((((((((((((((((((((((((((((((((((((((((((((((((((((((((((((((((((((((((((((((((((((((((((((((((((((((((((((((((((((((((",
"(((((((((((((((((((((((((((((((((((((((((((((((((((((((((((((((((((((((((((((((((((((((((((((((((((((((((((((((((((((((((((((((((((((((((((((((((((((((((((((((((((((((((((((((((((((((((((((((((((((((((((((((((((aCBBmmBBBBVQ^^^^^^^^^^^^^^^^^^^^u(((((((((((((((((f^^^^^^^^^^^^^^^^^^^^QDGGGGGGGGKb(((((((((((((((((((((((((((((((((((((((((((((((((((((((((((((((((((((((((((((((((((((((((((((((((((((((((((((((((((((((((((((((((((((((((((((((((((((((((((((((((((((((((((((((((((((((((((((((((((((((",
"((((((((((((((((((((((((((((((((((((((((((((((((((((((((((((((((((((((((((((((((((((((((((((((((((((((((((((((((((((((((((((((((((((((((((((((((((((((((((((((((((((((((((((((((((((((((((((((((((((((((((((((((((*mBmmBmBBBbL^^^^^^^^^^^^^!^^^^^/D(((((((((((((((((((J/^^^^^^^^^^^^^^^^^^^IDGGGGKGKKK*((((((((((((((((((((((((((((((((((((((((((((((((((((((((((((((((((((((((((((((((((((((((((((((((((((((((((((((((((((((((((((((((((((((((((((((((((((((((((((((((((((((((((((((((((((((((((((((((((((((",
"((((((((((((((((((((((((((((((((((((((((((((((((((((((((((((((((((((((((((((((((((((((((((((((((((((((((((((((((((((((((((((((((((((((((((((((((((((((((((((((((((((((((((((((((((((((((((((((((((((((((((((((((((nBmBmBBBBmZ~^^^^^^^^^^^^^^^^^^^!(((((((((((((((((((((!^^^^^^^^^^^^^^^^^^^!DDGGGGKGKKZ((((((((((((((((((((((((((((((((((((((((((((((((((((((((((((((((((((((((((((((((((((((((((((((((((((((((((((((((((((((((((((((((((((((((((((((((((((((((((((((((((((((((((((((((((((((((((((((((((((((",
"(((((((((((((((((((((((((((((((((((((((((((((((((((((((((((((((((((((((((((((((((((((((((((((((((((((((((((((((((((((((((((((((((((((((((((((((((((((((((((((((((((((((((((((((((((((((((((((((((((((((((((((((((6BmmBmBBmBBI^^^^^^^^^^^^^^^^^^^^z(((((((((((((((((((((z^^^^^^^^^^^^^^^^^^^^RSJGGKGKKKKy(((((((((((((((((((((((((((((((((((((((((((((((((((((((((((((((((((((((((((((((((((((((((((((((((((((((((((((((((((((((((((((((((((((((((((((((((((((((((((((((((((((((((((((((((((((((((((((((((((((",
"(((((((((((((((((((((((((((((((((((((((((((((((((((((((((((((((((((((((((((((((((((((((((((((((((((((((((((((((((((((((((((((((((((((((((((((((((((((((((((((((((((((((((((((((((((((((((((((((((((((((((((((((((mmBBmBmBBmG^^^^^^^^^^~^^^^^^^^^L(((((((((((((((((((((((I^^^^^^^^^^^^^^^^^^^!JDDKGKGGKKG(((((((((((((((((((((((((((((((((((((((((((((((((((((((((((((((((((((((((((((((((((((((((((((((((((((((((((((((((((((((((((((((((((((((((((((((((((((((((((((((((((((((((((((((((((((((((((((((((((((",
"((((((((((((((((((((((((((((((((((((((((((((((((((((((((((((((((((((((((((((((((((((((((((((((((((((((((((((((((((((((((((((((((((((((((((((((((((((((((((((((((((((((((((((((((((((((((((((((((((((((((((((((((ammBmCmBBBC~^^^^^^^^^^^^^^^^^^^^(((((((((((((((((((((((((^^^^^^^^^^^^^^^^^^^/WDDGGGKKKGLm((((((((((((((((((((((((((((((((((((((((((((((((((((((((((((((((((((((((((((((((((((((((((((((((((((((((((((((((((((((((((((((((((((((((((((((((((((((((((((((((((((((((((((((((((((((((((((((((((((",
"(((((((((((((((((((((((((((((((((((((((((((((((((((((((((((((((((((((((((((((((((((((((((((((((((((((((((((((((((((((((((((((((((((((((((((((((((((((((((((((((((((((((((((((((((((((((((((((((((((((((((((((((,mmBmmBBBmmK~^^^^^^^^^^^^^^^^^^^A(((((((((((((((((((((((((A^^^^^^^^^!^^^^^^^^^^LDKGKGGKKKK;(((((((((((((((((((((((((((((((((((((((((((((((((((((((((((((((((((((((((((((((((((((((((((((((((((((((((((((((((((((((((((((((((((((((((((((((((((((((((((((((((((((((((((((((((((((((((((((((((((",
"((((((((((((((((((((((((((((((((((((((((((((((((((((((((((((((((((((((((((((((((((((((((((((((((((((((((((((((((((((((((((((((((((((((((((((((((((((((((((((((((fjADIQ^/!v(((((((((((((((((((((((((((((((((((((hBmmmCmBmbS!^^^^^^!^^^^^^^^^^^^W(((((((((((((((((((((((((((W^^^^^^^^^^^^^^^^^^^!DGGGKGKGKLZ(((((((((((((((((((((((((((((((((((((((((fI!QIDVzt(((((((((((((((((((((((((((((((((((((((((((((((((((((((((((((((((((((((((((((((((((((((((((((((((((((((((((((((((((((((((((((((((((((((((((((((((",
"((((((((((((((((((((((((((((((((((((((((((((((((((((((((((((((((((((((((((((((((((((((((((((((((((((((((((((((((((((((((((((((((((((((((((((((((((((((((fNJII!!/////^^^^^/D(((((((((((((((((((((((((((((((((((6mmmBmmCmBbY^^^^^^^^^^^^^^^^^^^^g(((((((((((((((((((((((((((u^^^^^^^^^^^^^^^^^^^^EGGGKGKKKKLy(((((((((((((((((((((((((((((((((((((((A/!/!/////^!!WIDxu(((((((((((((((((((((((((((((((((((((((((((((((((((((((((((((((((((((((((((((((((((((((((((((((((((((((((((((((((((((((((((((((((((((((((",
"((((((((((((((((((((((((((((((((((((((((((((((((((((((((((((((((((((((((((((((((((((((((((((((((((((((((((((((((((((((((((((((((((((((((((((((((rfVJW^^///^^///^^^!^^^^^^^/7((((((((((((((((((((((((((((((((((mBmmBmmmCmD^^^^^^^^^^^^^^~^^^^/J(((((((((((((((((((((((((((((J^^^^^^^^^^^^^^!^^^^^GGKKKKKKKKG((((((((((((((((((((((((((((((((((((((r!//!/^/!!/^^^/^//^/^^IDvf-(((((((((((((((((((((((((((((((((((((((((((((((((((((((((((((((((((((((((((((((((((((((((((((((((((((((((((((((((((((((((((((((((",
"((((((((((((((((((((((((((((((((((((((((((((((((((((((((((((((((((((((((((((((((((((((((((((((((((((((((((((((((((((((((((((((((((((((((((gAJEW^/////^^^^^^^!/!^^^^^^^^^^^/N(((((((((((((((((((((((((((((((((ymmBmmCmCmCY/^^^^^^^^^^^^^^^^^^!(((((((((((((((((((((((((((((((!^^^^^^^^^^!^^^^^^^^YSGGGKGKKKPb(((((((((((((((((((((((((((((((((((((x//!/!^^^/!^^^^^^^^^^^^////~WLJNu(((((((((((((((((((((((((((((((((((((((((((((((((((((((((((((((((((((((((((((((((((((((((((((((((((((((((((((((((((((((((((",
"((((((((((((((((((((((((((((((((((((((((((((((((((((((((((((((((((((((((((((((((((((((((((((((((((((((((((((((((((((((((((((((((((((gAL~^^^///^^^^^^^^^^^^^^^^^~^^^^^^^^^^^A((((((((((((((((((((((((((((((((&mmBmmBmBmlL^^^^^^^^^^^^^^^^^^^/v(((((((((((((((((((((((((((((((z^^^^^^^^^^^^^^^^^^^^KGGKGKKKKKK;((((((((((((((((((((((((((((((((((((N^^^^^^^^^^^^^^^^^^^^^^~^^^/^///^/!!Jvt(((((((((((((((((((((((((((((((((((((((((((((((((((((((((((((((((((((((((((((((((((((((((((((((((((((((((((((((((((((",
"((((((((((((((((((((((((((((((((((((((((((((((((((((((((((((((((((((((((((((((((((((((((((((((((((((((((((((((((((((((((((((((gAJI^//^^^^^^^^^^^^^^^^^^^^~^^^^^^^^^^^^^^^^^t((((((((((((((((((((((((((((((((dmmmBmmBmmA!^^^^^^^^^^^^^^^^^^^W(((((((((((((((((((((((((((((((((I^^^^^^^^^^^^^^!^^^^~SGGKKKKKKLZ((((((((((((((((((((((((((((((((((((g/^^^^^^^^^^^^^^^^~^^^^^^^^^/!//!/!/////!LDxr(((((((((((((((((((((((((((((((((((((((((((((((((((((((((((((((((((((((((((((((((((((((((((((((((((((((((((((((",
"(((((((((((((((((((((((((((((((((((((((((((((((((((((((((((((((((((((((((((((((((((((((((((((((((((((((((((((((((((((((((jDQ!^^//^^^^^^^^^^^^^^^^^^^^^^^^^^^^^^^^^^^^^^^^^L((((((((((((((((((((((((((((((((4mmmmmmBmBlW/!^^^^^^^^^^^^^^!^^^t(((((((((((((((((((((((((((((((((t^^^^^^^^^^^^^^^^^^^^~ZKKGKKKKKPy((((((((((((((((((((((((((((((((((((W^^^^^^^^^^^^^^^^^^^^^^^^^^!!^!!/^^/^^^^^//^^!LVr((((((((((((((((((((((((((((((((((((((((((((((((((((((((((((((((((((((((((((((((((((((((((((((((((((((((((",
"((((((((((((((((((((((((((((((((((((((((((((((((((((((((((((((((((((((((((((((((((((((((((((((((((((((((((((((((((((jAI^///^^^^^^^^^^^^^^^^^^^^^^^^^^^^^^^^^^^^^^^^^/^/^!L(((((((((((((((((((((((((((((((((nmmmmBmmmmD!^^^^^^^^^^^^^^^^^^/J(((((((((((((((((((((((((((((((((((D^^^^^^^^^^^^^^^^^^^~GGKKKKKKKKG(((((((((((((((((((((((((((((((((((((E^^/^^/^^^^^^^^^^^^^^^^^^^^/^/^^^^!^^^^^^^^^^^///QJNt(((((((((((((((((((((((((((((((((((((((((((((((((((((((((((((((((((((((((((((((((((((((((((((((((((((",
"(((((((((((((((((((((((((((((((((((((((((((((((((((((((((((((((((((((((((((((((((((((((((((((((((((((((((((((((uDE!^^//^^^^^^^^^^^^^^^^^^^^^^^^^^^^^^^^^^^^^^^/^^!ILDAxu((((((((((((((((((((((((((((((((((0mmmmBmBmmNQ^^^^^^^^!^^^^^^^^^^!(((((((((((((((((((((((((((((((((((((!^^^^^^^^^^^^^^^^^^^~GGKKK~SGGKb(((((((((((((((((((((((((((((((((((((7zAJLW!^^^^/^^^^^^^^^^^^^^!///!/^^^!^^^^^^^^^^^!^//^~YJg(((((((((((((((((((((((((((((((((((((((((((((((((((((((((((((((((((((((((((((((((((((((((((((((((",
"(((((((((((((((((((((((((((((((((((((((((((((((((((((((((((((((((((((((((((((((((((((((((((((((((((((((((((gDQ//^^^^^^^^^^^^^^^^^^^^^^^^^^^^^^^^^^^^^/^^~~!IDzf((((((((((((((((((((((((((((((((((((((((((ommmmmmmmmmT!^^^^^^^^^^^^^^^^^^/v(((((((((((((((((((((((((((((((((((((j^^^^^^^^^^^^^^^^^^^~KSKKKKKGG~K((((((((((((((((((((((((((((((((((((((((((((((gvDE!^^^^^^^^^^^^/!!!/!!/^/^^^^^^^^^^^/^^^^^/^//!Jz(((((((((((((((((((((((((((((((((((((((((((((((((((((((((((((((((((((((((((((((((((((((((((((",
"(((((((((((((((((((((((((((((((((((((((((((((((((((((((((((((((((((((((((((((((((((((((((((((((((((((((jJQ^/^^^^^^^^^^^^^^^^^^^^^^^^^^^^^^^^^^^/^^WELDxt(((((((((((((((((((((((((((((((((((((((((((((((((ymmmBmmmBmZ!^^^^^^^^^^^^^^^^^^^W(((((((((((((((((((((((((((((((((((((((I^^^^^^~^^^^^^^^^^^^~ZGGS~~SKKKC((((((((((((((((((((((((((((((((((((((((((((((((((((fvJLE!^/^/^//!!//!^^^^^^^^^^!^^!^^^^^^^^!///^QLz(((((((((((((((((((((((((((((((((((((((((((((((((((((((((((((((((((((((((((((((((((((((((",
"(((((((((((((((((((((((((((((((((((((((((((((((((((((((((((((((((((((((((((((((((((((((((((((((((((gJ!^^/^^^^^^^^^^^^^^^^^^^^^^^^^^^^^^^^^^^QLAjt(((((((((((((((((((((((((((((((((((((((((((((((((((((((&mmmmmmmBmmL^^^^^^^^^^^^^^^^^^^^u(((((((((((((((((((((((((((((((((((((((7^^^^^^^^^!^^^^^^^^^~~GGGGGGKPKG6((((((((((((((((((((((((((((((((((((((((((((((((((((((((((uzDI!!///!//!^^^^^^^^/^^/^^^^^^^^/!/!^^/^^^Jg(((((((((((((((((((((((((((((((((((((((((((((((((((((((((((((((((((((((((((((((((((((",
"(((((((((((((((((((((((((((((((((((((((((((((((((((((((((((((((((((((((((((((((((((((((((((((((tAE^/^^^^^^^^^^^^^^^^^^^^^^^^^^^^^^//^!WIDg7(((((((((((((((((((((((((((((((((((((((((((((((((((((((((((((ammmmmmmmmA!/^^^^^!^^^^^^^^^^^/T(((((((((((((((((((((((((((((((((((((((((D^^^^^^^^^^^^^^^^^^^~JGKKKPKKK~D((((((((((((((((((((((((((((((((((((((((((((((((((((((((((((((((uAJW!!//^^^^^^^^^^^^^^^/!/!/!!/^^^^^^^/^EA7(((((((((((((((((((((((((((((((((((((((((((((((((((((((((((((((((((((((((((((((((",
"((((((((((((((((((((((((((((((((((((((((((((((((((((((((((((((((((((((((((((((((((((((((((((fL^^//^^^^^^^^^^^^^^^^^^^^^^^^^^^^^^!LAjr((((((((((((((((((((((((((((((((((((((((((((((((((((((((((((((((((6nmmmmmmmmmY^^^^^^^^^^^^^^^^^^^!(((((((((((((((((((((((((((((((((((((((((((!^^^^^^^^^^^^^^^^~^^YDKKKKKKKKLf(((((((((((((((((((((((((((((((((((((((((((((((((((((((((((((((((((((fvJQ^^^^^/!^^^^^^!/!/!//!^^^^^^^^^^^^!Lg((((((((((((((((((((((((((((((((((((((((((((((((((((((((((((((((((((((((((((((",
"(((((((((((((((((((((((((((((((((((((((((((((((((((((((((((((((((((((((((((((((((((((((((VL^//^^^^^^^^^^^^^^^^^^^^^^^^^/^^~QIAf((((((((((((((((((((((((((((((((((((((((((((((((((((((((((((((((((((((((nmmnmmmmmnD!/^^^!^^^^^^^^^^^!^/A(((((((((((((((((((((((((((((((((((((((((((z^^^^^^^^^^^^^^^^^^~~KGKKKPKPPLK((((((((((((((((((((((((((((((((((((((((((((((((((((((((((((((((((((((((((rzLQ!//^^^^^/!^^//!/^^^^^^^^^^^^^^/^Lg(((((((((((((((((((((((((((((((((((((((((((((((((((((((((((((((((((((((((((",
"((((((((((((((((((((((((((((((((((((((((((((((((((((((((((((((((((((((((((((((((((((((AQ^//^^^^^^^^^^^^^^^^^^^^^^^^^^^!JAf((((((((((((((((((((((((((((((((((((((((((((((((((((((((((((((((((((((((((((9mnmmmmmmmCY/!^^^^^^^^^^^^^^^^^W(((((((((((((((((((((((((((((((((((((((((((((L^^^^^^^^^^!^^^^^^^^~GKKKKKKKKLm((((((((((((((((((((((((((((((((((((((((((((((((((((((((((((((((((((((((((((((tNJQ^/^!/^!/!/!^^^^^^^^^^^^^^^^^/^Eg((((((((((((((((((((((((((((((((((((((((((((((((((((((((((((((((((((((((",
"(((((((((((((((((((((((((((((((((((((((((((((((((((((((((((((((((((((((((((((((((((zE/^^^^^^^^^^^^^^^^^^^^^^^^^/^~WDg(((((((((((((((((((((((((((((((((((((((((((((((((((((((((((((((((((((((((((((((((nmnmmmmmmlL!^^^^^^^^^^^^^^^^^^^g(((((((((((((((((((((((((((((((((((((((((((((r^^^^^^^^^^^^^^^^^^^^KGKKPKKPKKL(((((((((((((((((((((((((((((((((((((((((((((((((((((((((((((((((((((((((((((((((((uAW!//^^^^^^^^^^^^^^^^^^^^^^^^/^Jg(((((((((((((((((((((((((((((((((((((((((((((((((((((((((((((((((((((",
"((((((((((((((((((((((((((((((((((((((((((((((((((((((((((((((((((((((((((((((((zE^/^^^^^^^^^^^^^^^^^^^^^^^^^QLAt((((((((((((((((((((((((((((((((((((((((((((((((((((((((((((((((((((((((((((((((((((ymnmnmmmmmV!^^^^^^^^^^^^^^^^^^/T(((((((((((((((((((((((((((((((((((((((((((((((D^^^!^^^^^^^~^^^^^^^~GKKKKKKPLLZ((((((((((((((((((((((((((((((((((((((((((((((((((((((((((((((((((((((((((((((((((((((rVT!^/^^^^^^^^^^^^^^^^^^^^^^/^!S(((((((((((((((((((((((((((((((((((((((((((((((((((((((((((((((((((",
"((((((((((((((((((((((((((((((((((((((((((((((((((((((((((((((((((((((((((((((D!/^^^^^^^^^^^^^^^^^^^^^^^~!Lzr(((((((((((((((((((((((((((((((((((((((((((((((((((((((((((((((((((((((((((((((((((((((%nmnnmmmmmmI^^^^^^^^^^^^!^^^^^^!(((((((((((((((((((((((((((((((((((((((((((((((((!^^^^^^^^^^^^^^^^^^^YSGKKKKKKLL7((((((((((((((((((((((((((((((((((((((((((((((((((((((((((((((((((((((((((((((((((((((((((zL!^/^^^^^^^^^^^^^^^^^^^^^^/If((((((((((((((((((((((((((((((((((((((((((((((((((((((((((((((((",
"(((((((((((((((((((((((((((((((((((((((((((((((((((((((((((((((((((((((((((gE!/^^^^^^^^^^^^^^^!^^^^^/!EAt(((((((((((((((((((((((((((((((((((((((((((((((((((((((((((((((((((((((((((((((((((((((((((amnmmmmmmnA!^^^^^^^^^^^^^^^^^^^D(((((((((((((((((((((((((((((((((((((((((((((((((x^^^^^^^^^^^^^^^^^^^^KS~KPKKPKLG(((((((((((((((((((((((((((((((((((((((((((((((((((((((((((((((((((((((((((((((((((((((((((((rAE!/^^^^^^^^^^^^^^^^^^^^^/QA((((((((((((((((((((((((((((((((((((((((((((((((((((((((((((((",
"(((((((((((((((((((((((((((((((((((((((((((((((((((((((((((((((((((((((((A!^/^^^^^^^^^^^^^^^^^^^^^WAf((((((((((((((((((((((((((((((((((((((((((((((((((((((((((((((((((((((((((((((((((((((((((((((<nmnnmmmmnlW^^^^^^^^^^^^^^^^^^^Q(((((((((((((((((((((((((((((((((((((((((((((((((((U^^^^^^^^^^^^^^^^^^^YDKLKLGK~K~0((((((((((((((((((((((((((((((((((((((((((((((((((((((((((((((((((((((((((((((((((((((((((((((((gD!^^^^^^^^^^^^^^^^^^^^^/^D((((((((((((((((((((((((((((((((((((((((((((((((((((((((((((",
"(((((((((((((((((((((((((((((((((((((((((((((((((((((((((((((((((((((((A!/^^^^^^^^^^^^^^^^^^//!IV((((((((((((((((((((((((((((((((((((((((((((((((((((((((((((((((((((((((((((((((((((((((((((((((((pmnmmmnmmlF^^^^^^^^^^^^^^^^^^^^z(((((((((((((((((((((((((((((((((((((((((((((((((((f^^^^^^^^^^^^^~^^^^^^LJKKKG~GGPG((((((((((((((((((((((((((((((((((((((((((((((((((((((((((((((((((((((((((((((((((((((((((((((((((((AQ^/^^^^^^^^!^^^^^^^^^^^D((((((((((((((((((((((((((((((((((((((((((((((((((((((((((",
"(((((((((((((((((((((((((((((((((((((((((((((((((((((((((((((((((((((A!/^^^^^^^^^^^^^^^^^^^!Jj((((((((((((((((((((((((((((((((((((((((((((((((((((((((((((((((((((((((((((((((((((((((((((((((((((6mnnmnnmnmBW^^^^^^^^^^^^^^^^^^/E(((((((((((((((((((((((((((((((((((((((((((((((((((((J^^^^~^^^~^^^^^^^^^^YGKKLKKPKKKb((((((((((((((((((((((((((((((((((((((((((((((((((((((((((((((((((((((((((((((((((((((((((((((((((((((vI^/^^^^^^^^^^^^^^^^^^^D((((((((((((((((((((((((((((((((((((((((((((((((((((((((",
"(((((((((((((((((((((((((((((((((((((((((((((((((((((((((((((((((((V!/^^^^^^!^^^^^^^^^^^!Lg(((((((((((((((((((((((((((((((((((((((((((((((((((((((((((((((((((((((((((((((((((((((((((((((((((((((nnlmnnmmmnT^^^^^^^^!^^^^^^^^^^^t((((((((((((((((((((((((((((((((((((((((((((((((((((((!^^^^^^^^^^^^^^^^^^^LGPKPKKPK~K(((((((((((((((((((((((((((((((((((((((((((((((((((((((((((((((((((((((((((((((((((((((((((((((((((((((((vQ!//^^^^^^^^^^^^^^^^~x((((((((((((((((((((((((((((((((((((((((((((((((((((((",
"(((((((((((((((((((((((((((((((((((((((((((((((((((((((((((((((((fQ/^^^^^^^^^^^^^^^^^^Lj(((((((((((((((((((((((((((((((((((((((((((((((((((((((((((((((((((((((((((((((((((((((((((((((((((((((((6mnnnnmmmnV!^^!^^^^^^^^^^^^^^^/J(((((((((((((((((((((((((((((((((((((((((((((((((((((((V^^^^^^^^^^^^^^^^^^^~GKKKKPKKLPC(((((((((((((((((((((((((((((((((((((((((((((((((((((((((((((((((((((((((((((((((((((((((((((((((((((((((((AQ^^^^^^^^^^^^^^^^^/Yt((((((((((((((((((((((((((((((((((((((((((((((((((((",
"((((((((((((((((((((((((((((((((((((((((((((((((((((((((((((((((L^^^^^^!^^^^^^^^^^^Qv((((((((((((((((((((((((((((((((((((((((((((((((((((((((((((((((((((((((((((((((((((((((((((((((((((((((((((nnmnmmnlmkR!/^/^^^^^^^^^^^^^^^!(((((((((((((((((((((((((((((((((((((((((((((((((((((((((!^^^^^^^^~^^^^^^^^^^PGLPKKPPLKP;((((((((((((((((((((((((((((((((((((((((((((((((((((((((((((((((((((((((((((((((((((((((((((((((((((((((((((uL^^^^^^^^^^^^^^^^^^D(((((((((((((((((((((((((((((((((((((((((((((((((((",
"((((((((((((((((((((((((((((((((((((((((((((((((((((((((((((((N!/^^^^^^^^^^^^^^/!Jt(((((((((((((((((((((((((((((((((((((((((((((((((((((((((((((((((((((((((((((((((((((((((((((((((((((((((((((ynnnmmnmmkV!!^^!!^^^^^^^^^^^^^/A(((((((((((((((((((((((((((((((((((((((((((((((((((((((((j^^^^^^^^^^^^^~^^^^^~JKPKKKKPKPS(((((((((((((((((((((((((((((((((((((((((((((((((((((((((((((((((((((((((((((((((((((((((((((((((((((((((((((((AW^^^^^^^^^^^^^^^/!t(((((((((((((((((((((((((((((((((((((((((((((((((",
"(((((((((((((((((((((((((((((((((((((((((((((((((((((((((((((E/^^^^^^^^^^^^^^^Qz((((((((((((((((((((((((((((((((((((((((((((((((((((((((((((((((((((((((((((((((((((((((((((((((((((((((((((((($nnnnnnnmlmE//^^/^^^^^^^^^!^^^^!(((((((((((((((((((((((((((((((((((((((((((((((((((((((((((L/^^^^^^^^^^^^^~^^^^YGKKPPKPPPPy((((((((((((((((((((((((((((((((((((((((((((((((((((((((((((((((((((((((((((((((((((((((((((((((((((((((((((((((fE^/^^^^^^^^^^^^/^V((((((((((((((((((((((((((((((((((((((((((((((((",
"(((((((((((((((((((((((((((((((((((((((((((((((((((((((((((rW/^^^^^^^^^^^^^^Ig(((((((((((((((((((((((((((((((((((((((((((((((((((((((((((((((((((((((((((((((((((((((((((((((((((((((((((((((((ynnnnnmnnkS!/^^^^^^^^^^^^^^!^^^z(((((((((((((((((((((((((((((((((((((((((((((((((((((((((((r^^^^^^^^^^^^~^^^^^^^KKLLLLLPKPD((((((((((((((((((((((((((((((((((((((((((((((((((((((((((((((((((((((((((((((((((((((((((((((((((((((((((((((((((rL^^^^^^^^^^^^^^^J(((((((((((((((((((((((((((((((((((((((((((((((",
"((((((((((((((((((((((((((((((((((((((((((((((((((((((((((z^^^^^^^^^^^^^^~Lu((((((((((((((((((((((((((((((((((((((((((((((((((((((((((((((((((((((((((((((((((((((((((((((((((((((((((((((((((&nnnnnknmmlW^^^^^^^^^^^^^^^^^^/I(((((((((((((((((((((((((((((((((((((((((((((((((((((((((((((J^^^^^~^^^^^^^^~^^^^YDKKLLLPKLUf((((((((((((((((((((((((((((((((((((((((((((((((((((((((((((((((((((((((((((((((((((((((((((((((((((((((((((((((((((K^^^^^^^^^^^^^/Q((((((((((((((((((((((((((((((((((((((((((((((",
"(((((((((((((((((((((((((((((((((((((((((((((((((((((((((A^/^^^^^^^^^^^^It((((((((((((((((((((((((((((((((((((((((((((((((((((((((((((((((((((((((((((((((((((((((((((((((((((((((((((((((((((ankmkmmnmkD!/^^/!/^^^^^^^^^^^^^u((((((((((((((((((((((((((((((((((((((((((((((((((((((((((((((!^^^^^^^^^^^^^^^^^^^KKLLKPKPLLK(((((((((((((((((((((((((((((((((((((((((((((((((((((((((((((((((((((((((((((((((((((((((((((((((((((((((((((((((((((rI^^^^^^^^^^^^^W(((((((((((((((((((((((((((((((((((((((((((((",
"((((((((((((((((((((((((((((((((((((((((((((((((((((((((V^^^!^^^^^^^^^Ef(((((((((((((((((((((((((((((((((((((((((((((((((((((((((((((((((((((((((((((((((((((((((((((((((((((((((((((((((((((2nnnkmknmkBQ^^^^!^^^^^^^!^^^^^/K(((((((((((((((((((((((((((((((((((((((((((((((((((((((((((((((J/^^^^^^^^^^^^^^^^^^~GKLLLKPLLUj((((((((((((((((((((((((((((((((((((((((((((((((((((((((((((((((((((((((((((((((((((((((((((((((((((((((((((((((((((((fQ^^^^^^^^^^^/E((((((((((((((((((((((((((((((((((((((((((((",
"(((((((((((((((((((((((((((((((((((((((((((((((((((((((N^^^^^^^^^^^^~z(((((((((((((((((((((((((((((((((((((((((((((((((((((((((((((((((((((((((((((((((((((((((((((((((((((((((((((((((((((((pnknknmlmkJ!!!^!^^!^^^^^^^^^^^!(((((((((((((((((((((((((((((((((((((((((((((((((((((((((((((((((!^^^^^^^^^^^^^^^^^^^PKKPPKPLPPK((((((((((((((((((((((((((((((((((((((((((((((((((((((((((((((((((((((((((((((((((((((((((((((((((((((((((((((((((((((((L^^^^^^^^^^^/E(((((((((((((((((((((((((((((((((((((((((((",
"((((((((((((((((((((((((((((((((((((((((((((((((((((((j^^^^^^^^^^^^!7(((((((((((((((((((((((((((((((((((((((((((((((((((((((((((((((((((((((((((((((((((((((((((((((((((((((((((((((((((((((2nnmkmnnmkMQ///^/^^/^^^^^^^^^^/D(((((((((((((((((((((((((((((((((((((((((((((((((((((((((((((((((D/~^^^^^^^^^^^^^^^^^~GKKKPPPLPPM((((((((((((((((((((((((((((((((((((((((((((((((((((((((((((((((((((((((((((((((((((((((((((((((((((((((((((((((((((((((E^^^^^^^^^^!/A((((((((((((((((((((((((((((((((((((((((((",
"((((((((((((((((((((((((((((((((((((((((((((((((((((((W^^^^^^^^^^^^u((((((((((((((((((((((((((((((((((((((((((((((((((((((((((((((((((((((((((((((((((((((((((((((((((((((((((((((((((((((((amnknnnnlkE!/!!/!^^!^!^^^^^^^^!(((((((((((((((((((((((((((((((((((((((((((((((((((((((((((((((((((!^^^^^^^^^^^^^^^^^^^UGPKPKPLRLU((((((((((((((((((((((((((((((((((((((((((((((((((((((((((((((((((((((((((((((((((((((((((((((((((((((((((((((((((((((((g^^^^^^^^^^/^!f(((((((((((((((((((((((((((((((((((((((((",
"(((((((((((((((((((((((((((((((((((((((((((((((((((((f^^^^^^^^^^^^E((((((((((((((((((((((((((((((((((((((((((((((((((((((((((((((((((((((((((((((((((((((((((((((((((((((((((((((((((((((((6nnkknnkmlV!/!/^^/^^/^^^^^^^^^/v(((((((((((((((((((((((((((((((((((((((((((((((((((((((((((((((((((x/^^^~^^~^^^~^^^^^^^^KGPPKLLPPIZ((((((((((((((((((((((((((((((((((((((((((((((((((((((((((((((((((((((((((((((((((((((((((((((((((((((((((((((((((((((((!^^^^!^^^^!^WE(((((((((((((((((((((((((((((((((((((((((",
"(((((((((((((((((((((((((((((((((((((((((((((((((((((C^/^^^^^^^^^/H((((((((((((((((((((((((((((((((((((((((((((((((((((((((((((((((((((((((((((((((((((((((((((((((((((((((((((((((((((((((dnnnnnnnnlT^^!/!/!//!/!/!!/!//!(((((((((((((((((((((((((((((((((((((((((((((((((((((((((((((((((((((W/^^^^^^^^^~^^^^^^^^EJLLLPPPPPP:(((((((((((((((((((((((((((((((((((((((((((((((((((((((((((((((((((((((((((((((((((((((((((((((((((((((((((((((((((((((!^^^^^^^^^^^Q!A((((((((((((((((((((((((((((((((((((((((",
"((((((((((((((((((((((((((((((((((((((((((((((((((((wH^^~^^^^^^^^^H(((((((((((((((((((((((((((((((((((((((((((((((((((((((((((((((((((((((((((((((((((((((((((((((((((((((((((((((((((((((8ndnnnnnnnV~^^/!/!/!!/!/!//!/!!g(((((((((((((((((((((((((((((((((((((((((((((((((((((((((((((((((((((g^^^^^^^^^^^^^^^^^^^^KKLLKPKPPPS((((((((((((((((((((((((((((((((((((((((((((((((((((((((((((((((((((((((((((((((((((((((((((((((((((((((((((((((((((((t^^^^^^^^^^^^^!Q((((((((((((((((((((((((((((((((((((((((",
"((((((((((((((((((((((((((((((((((((((((((((((((((((wQ^^^^^^^~^^^^Q(((((((((((((((((((((((((((((((((((((((((((((((((((((((((((((((((((((((((((((((((((((((((((((((((((((((((((((((((((((((hndnndnnnkW^^^!/!/!//!/!/!!/!/E(((((((((((((((((((((((((((((((((((((((((((((((((((((((((((((((((((((((L^^^^^^^^^^^^^^^^^^^~GLLKPPLLLU:(((((((((((((((((((((((((((((((((((((((((((((((((((((((((((((((((((((((((((((((((((((((((((((((((((((((((((((((((((((A^^^^^^!^^^^^^E^j(((((((((((((((((((((((((((((((((((((((",
"(((((((((((((((((((((((((((((((((((((((((((((((((((qwQ^^^^^^^^^^^^^w(((((((((((((((((((((((((((((((((((((((((((((((((((((((((((((((((((((((((((((((((((((((((((((((((((((((((((((((((((((0knnnnndnnZ^^^^/!///!!/!/!///!!u(((((((((((((((((((((((((((((((((((((((((((((((((((((((((((((((((((((((r^^^^^^^^^^^^!^^^^^^~LGLLLPPPPUG(((((((((((((((((((((((((((((((((((((((((((((((((((((((((((((((((((((((((((((((((((((((((((((((((((((((((((((((((((((!^^^^^^^^^^^^^E!L(((((((((((((((((((((((((((((((((((((((",
"(((((((((((((((((((((((((((((((((((((((((((((((((((qe!^^^~^^^^^^^^^E((((((((((((((((((((((((((((((((((((((((((((((((((((((((((((((((((((((((((((((((((((((((((((((((((((((((((((((((((((okndnnnnkkmE^^^^/!/!/!!///!/!//L(((((((((((((((((((((((((((((((((((((((((((((((((((((((((((((((((((((((((J^^!^^^^^^^^^^^^^^^^QGLLPPPPPPUy(((((((((((((((((((((((((((((((((((((((((((((((((((((((((((((((((((((((((((((((((((((((((((((((((((((((((((((((((((!/!/^^^^^^^^!/!LQ^(((((((((((((((((((((((((((((((((((((((",
"((((((((((((((((((((((((((((((((((((((((((((((((((>qp~^^^^^^^^^^^^^/F(((((((((((((((((((((((((((((((((((((((((((((((((((((((((((((((((((((((((((((((((((((((((((((((((((((((((((((((((((0nndndnnlkS~^^^^!/!/!//!/!/!/!/(((((((((((((((((((((((((((((((((((((((((((((((((((((((((((((((((((((((((((^^^^^^^^^^^^^^^^^^~^LKLLLLLLPUK((((((((((((((((((((((((((((((((((((((((((((((((((((((((((((((((((((((((((((((((((((((((((((((((((((((((((((((((((J!!/!^^^^^^^^/!/LQ^(((((((((((((((((((((((((((((((((((((((",
"((((((((((((((((((((((((((((((((((((((((((((((((((3qp!^^^^^^~^^^^^^^^l((((((((((((((((((((((((((((((((((((((((((((((((((((((((((((((((((((((((((((((((((((((((((((((((((((((((((((((((($dnnnndnnnlW^^^^^/!/!/!!/!/!/!/J(((((((((((((((((((((((((((((((((((((((((((((((((((((((((((((((((((((((((((D^^^^^!^^^^^^^^^^^^^~DLLLPPPLPUu((((((((((((((((((((((((((((((((((((((((((((((((((((((((((((((((((((((((((((((((((((((((((((((((((((((((((((((((R/!/!/^^^^~^^^!/^EQ/t((((((((((((((((((((((((((((((((((((((",
"((((((((((((((((((((((((((((((((((((((((((((((((((3wp!^^^^^^^^^^^^^^^^A((((((((((((((((((((((((((((((((((((((((((((((((((((((((((((((((((((((((((((((((((((((((((((((((((((((((((((((((yndndnnnndD^^^^^^!/!/!//!/!/!/!(((((((((((((((((((((((((((((((((((((((((((((((((((((((((((((((((((((((((((((Q/^^^^^^^^^^^^^^^^^^LKLLLPLPUUK(((((((((((((((((((((((((((((((((((((((((((((((((((((((((((((((((((((((((((((((((((((((((((((((((((((((((((((((!!!/!/!^^^^^^^^/!^RQ^z((((((((((((((((((((((((((((((((((((((",
"((((((((((((((((((((((((((((((((((((((((((((((((((qws!^^^^^^^^^^!//!/!!R((((((((((((((((((((((((((((((((((((((((((((((((((((((((((((((((((((((((((((((((((((((((((((((((((((((((((((((%ddnndkklkmQ^^^!//!/!/!/!/^^^^/A(((((((((((((((((((((((((((((((((((((((((((((((((((((((((((((((((((((((((((((x/^^^/!/!/!/!^^^^^^^!KLLLLULPUUh((((((((((((((((((((((((((((((((((((((((((((((((((((((((((((((((((((((((((((((((((((((((((((((((((((((((((((r!!/!/!!/!/!/!//!!//EQ/A((((((((((((((((((((((((((((((((((((((",
"((((((((((((((((((((((((((((((((((((((((((((((((((wqwQ^^^^^^^^~^/!//!/!/Qq((((((((((((((((((((((((((((((((((((((((((((((((((((((((((((((((((((((((((((((((((((((((((((((((((((((((((((0nnndnnllkD^^^^//!/!/!/!/!^^^^!(((((((((((((((((((((((((((((((((((((((((((((((((((((((((((((((((((((((((((((((Q^^^//!/!/!/^^^^^^^^IKLPPPPPPIL(((((((((((((((((((((((((((((((((((((((((((((((((((((((((((((((((((((((((((((((((((((((((((((((((((((((((((D^!/!/!//!/!/!//!//!!Q!/D((((((((((((((((((((((((((((((((((((((",
"((((((((((((((((((((((((((((((((((((((((((((((((((wqwQ/~^^^^^^^^!//!/!/!!!J((((((((((((((((((((((((((rfzVVf((((((((((((((((((((((((((((((((((((((((((((((((((((((((((((((((((((((((((OkkdndnklklQ^^^^!!^!/!/!/!/^^^/x(((((((((((((((((((((((((((((((((((((((((((((((((((((((((((((((((((((((((((((((j^^^!//!/!/!^^^~^^^^~KLLPLULPPUj((((((((((((((((((((((((((((((((((((((((((((((((((((((((((((((((((((((((((((((((((((((((((((((((((((((((z!^^/!!///!/!/!/!//!!!!!^/J((((((((((((((((((((((((((((((((((((((",
"((((((((((((((((((((((((((((((((((((((((((((((((((qwwH^~^^^^^^^^/!!/!/!/!/!!A((((((((((((((((((((jE!^^^///^^^!Jt(((((((((((((((((((((((((((((((((((((((((((((((((((((((((((((((((((((sndndnknkkJ^^^^^^/^/!/!/!/!^!^!(((((((((((((((((((((((((((((((((((((((((((((((((((((((((((((((((((((((((((((((((I/^/!!/!//!^^^^^^^^^UKLPLPPPIUP((((((((((((((((((((((((((((((((((((((((((((((((((((((((((((((((((((((((((((((((((((((((((((((((((((((tW^^^^!//!/!/!/!/!/!!//!!E^/J((((((((((((((((((((((((((((((((((((((",
"((((((((((((((((((((((((((((((((((((((((((((((((((wwqk~/^^^^^^^^!/!//!/!!/!//Qu(((((((((((((((pE//^^^^^^^^/^^^//!D((((((((((((((((((((((((((((((((((((((((((((((((((((((((((((((((((>ddndnknkdB!^^^^^!!/!//!/!//^^/g(((((((((((((((((((((((((((((((((((((((((((((((((((((((((((((((((((((((((((((((((u!/!/!/^^!^^^^^^^~^^~LLLLPPLPPWM(((((((((((((((((((((((((((((((((((((((((((((((((((((((((((((((((((((((((((((((((((((((((((((((((((uL^/^^^^!/!//!/!!!/!/!/!!!!!!!D((((((((((((((((((((((((((((((((((((((",
"((((((((((((((((((((((((((((((((((((((((((((((((((qqweR/^^^^^^^^/!/!/!!//!//!/!Qk(((((((((((tE!/^^^^^^^^^^!^^^^^^/^D((((((((((((((((((((((((((((((((((((((((((((((((((((((((((((((((snddnddkkkF!^^^^^/^^/!!/!/!/^/I(((((((((((((((((((((((((((((((((((((((((((((((((((((((((((((((((((((((((((((((((((I//!/!^//^^^^^^^^^^^IKPLLPUUPWL(((((((((((((((((((((((((((((((((((((((((((((((((((((((((((((((((((((((((((((((((((((((((((((((((zW//^^^^^^/!/!//!///!/!/!//!!!/!A((((((((((((((((((((((((((((((((((((((",
"((((((((((((((((((((((((((((((((((((((((((((((((((qwwqC/^^^^^^^~!/!/!/!/!//!/!!//!V((((((((R^^^^^^^^^^^^^^!^^^^^^^^/~z(((((((((((((((((((((((((((((((((((((((((((((((((((((((((((((%dndnnnnnkc!^^^^^^^^/!!/!/!/!^^f(((((((((((((((((((((((((((((((((((((((((((((((((((((((((((((((((((((((((((((((((((r!!/!/^!^^^^^~^^^^^^~KLPLPPPPWWM((((((((((((((((((((((((((((((((((((((((((((((((((((((((((((((((((((((((((((((((((((((((((((((A!//^^^^^^^^!/!/!//!/!/!/!/!/E!!!/z((((((((((((((((((((((((((((((((((((((",
"((((((((((((((((((((((((((((((((((((((((((((((((((3wwqwE^^^^^^^^/!/!/!/!/!!/!/!/^^/!J(((((Q/^^^^^^^^^^^^^^/^^^^^^^^^^^L((((((((((((((((((((((((((((((((((((((((((((((((((((((((((((0kdndddndkT^^^^^^!/^!//!/!/!/^I(((((((((((((((((((((((((((((((((((((((((((((((((((((((((((((((((((((((((((((((((((((I/!/!^/!/^^^^^^^^^^^YKLUPLPUPYU(((((((((((((((((((((((((((((((((((((((((((((((((((((((((((((((((((((((((((((((((((((((((((uL~/^^^^!!^^^^^/!/!/!!/!/!/!/!/!!!!/!(((((((((((((((((((((((((((((((((((((((",
"((((((((((((((((((((((((((((((((((((((((((((((((((>wqwwm!/!//!/!/!/!/!/!^^^^~^^~^^^^/^Qzv^^^^^^^^^^^^^^^^^^^^^^^^^^^^^/E((((((((((((((((((((((((((((((((((((((((((((((((((((((((((,akkdkkkkkCQ^^^^^^^^^^^^^^^^^^^r((((((((((((((((((((((((((((((((((((((((((((((((((((((((((((((((((((((((((((((((((((((!^^^!/^!/!/!^^^^^^^!KLLIWPPWPWN(((((((((((((((((((((((((((((((((((((((((((((((((((((((((((((((((((((((((((((((((((((((rJ~^/^^^^^^^^^^^!/^^^!/^!/!^^^^^/!E!/!^W(((((((((((((((((((((((((((((((((((((((",
"((((((((((((((((((((((((((((((((((((((((((((((((((@wwqqwT!/!!/!/!/!/!/!/^^^^^^^^^^~^^^^^^^^^^^^^^^^^^^^^^^^^^^^!^^^^^^^/Q(((((((((((((((((((((((((((((((((((((((((((((((((((((((((iddkdkkkdkT^^^^^^^^^^^^^^^^^^/L(((((((((((((((((((((((((((((((((((((((((((((((((((((((((((((((((((((((((((((((((((((((D/^^^^^^^^^^^^^^^^^^YJLIIPPUUUP(((((((((((((((((((((((((((((((((((((((((((((((((((((((((((((((((((((((((((((((((((((AQ^^^^^^^^^^^^^^^^^^/!^/^^^^^^^^^^!EQ/!^/A(((((((((((((((((((((((((((((((((((((((",
"(((((((((((((((((((((((((((((((((((((((((((((((((((qqwwqpR!//!/!/!/!!///^^~^^^^^^^^^^^^^~^^^^^^^^^^^^^^!^^^^^^^^^^^^^^^!/!(((((((((((((((((((((((((((((((((((((((((((((((((((((((>dkddndkkkN!^^^^^^^^^^^^^^^^^^^(((((((((((((((((((((((((((((((((((((((((((((((((((((((((((((((((((((((((((((((((((((((((!^^!/!^^!^^^^^^^^!/^JLIPPUPUUWV(((((((((((((((((((((((((((((((((((((((((((((((((((((((((((((((((((((((((((((((((A!^/^^^^^^^^^^^^^^^^^^^^!/!//!/^^^^^!Q!!^!^^7(((((((((((((((((((((((((((((((((((((((",
"(((((((((((((((((((((((((((((((((((((((((((((((((((>wwwwqpQ/!/!/!/!//!/!^^^^^^^^^^^^^^^^^^^^^^^^^^^^^^^^^^^^^^^^^^^^^^^^^^L((((((((((((((((((((((((((((((((((((((((((((((((((((((ykdkndkkkdT!^^^^^^!^^^^^^^!^^/J(((((((((((((((((((((((((((((((((((((((((((((((((((((((((((((((((((((((((((((((((((((((((A/!^^/^^/^^^^^^^^/!/QJIPIPUUUUU(((((((((((((((((((((((((((((((((((((((((((((((((((((((((((((((((((((((((((((jJ!/^^^^^^^^^^^^^^^^^^^^^!/^^^^!!^^^^^^^QW!/!^^L((((((((((((((((((((((((((((((((((((((((",
"((((((((((((((((((((((((((((((((((((((((((((((((((((qwwwwqdE/!/!/!/!!/!/^^^^^^^^^~^^^^^^^^^^^^^^^!^^^^^^^^!^^^^^^!^^^^^^^^/V((((((((((((((((((((((((((((((((((((((((((((((((((((,dddddkdkdC!^^^^^^^^^^^^^^^^^^^(((((((((((((((((((((((((((((((((((((((((((((((((((((((((((((((((((((((((((((((((((((((((((Q^^^^^^/^^^^^^^^^^!!QLPEPUPUWWZ((((((((((((((((((((((((((((((((((((((((((((((((((((((((((((((((((((((((rSW^^/^^^^^^^^^^^^^^^^^!^^^^^^^!//!/!/!^^^^WW!^!/^/u((((((((((((((((((((((((((((((((((((((((",
"((((((((((((((((((((((((((((((((((((((((((((((((((((1wwqwwqdR!!/!/!//!/!^^^^^^^^^^^^^^^^^^^^^^^^^^^^^^^^^^^^^^^^^^^^^^^^^^^^r(((((((((((((((((((((((((((((((((((((((((((((((((((yddndnnkdkJ^^^^^^^^^^^^^^^^^^/D(((((((((((((((((((((((((((((((((((((((((((((((((((((((((((((((((((((((((((((((((((((((((((v/^^^^^!/!^^^^^^^^//!LPPPUUUUWU(((((((((((((((((((((((((((((((((((((((((((((((((((((((((((((((((((((zJ^^^/^^^^^^^^^^^^^^^^^^^^^^^^^^^^/!//!/!/^^!EQ~^~^!!I(((((((((((((((((((((((((((((((((((((((((",
"(((((((((((((((((((((((((((((((((((((((((((((((((((((qwwwqwwwH^//!/!!/!/^^^^^^^^^^^^^^^^^^^^^^^^^^^^^^^^^^^^^^^^^^^^^^^^^^^^L((((((((((((((((((((((((((((((((((((((((((((((((((%ddddnddkdN!^^^^^^^^^^^^^^^^^^!(((((((((((((((((((((((((((((((((((((((((((((((((((((((((((((((((((((((((((((((((((((((((((((!^^^^^^^^^^^^^^^^/!!ELURUWUPUWB(((((((((((((((((((((((((((((((((((((((((((((((((((((((((((((((tAIQ^//^^^^^^^^^^^^!^^^^^^^^^^^^^^^^^^^!//!/!/!^!EQ^~^~!^!((((((((((((((((((((((((((((((((((((((((((",
"((((((((((((((((((((((((((((((((((((((((((((((((((((($wqwwwwwwZQ///!/!/!^^~^^^^^^^^^^^^^^^~^^^~^^^^^^^^^^^^^^^^^^^^^^^^^^^^^/t(((((((((((((((((((((((((((((((((((((((((((((((((endddddnddL^~^^^^^^^^^^^!^^^^^D(((((((((((((((((((((((((((((((((((((((((((((((((((((((((((((((((((((((((((((((((((((((((((((v^^^^!/!^!^^^^^^^!/!!KPUPPUPWWW(((((((((((((((((((((((((((((((((((((((((((((((((((((((((((jJ!//^/^^^^!^^^^^^^^^^^^^^^^^~^^^^^^^^^^^^^/!!/!/!/WEQ^!^~~^^v((((((((((((((((((((((((((((((((((((((((((",
"((((((((((((((((((((((((((((((((((((((((((((((((((((((3wwwwwwwqd!^^^^^^^^^^^^^^^^^^^^^^^^^^^^^^^^^^^^!^^^^^^^^^^^^^^^^^!^^^^/L(((((((((((((((((((((((((((((((((((((((((((((((($dddddndddB~^^^^^^!^^^^^^^^^^^^(((((((((((((((((((((((((((((((((((((((((((((((((((((((((((((((((((((((((((((((((((((((((((((((!//!/^^^!^^!/!/!/!!!LLUUUUWWUWB(((((((((((((((((((((((((((((((((((((((((((((((((((((tAJ!!//!/!/!!/!//^/^^^^!^^^^^^^^^~^^^^^^^^^^!^^^!/!/!/!EE!!/!^^^/J(((((((((((((((((((((((((((((((((((((((((((",
"(((((((((((((((((((((((((((((((((((((((((((((((((((((((qwwqwwwwwpA!!^^^^^^^^^^^^^^^^^~^^^^^^^^^^^^^^^^^^^^^^^^^^^^^^^^^^^^^^^^t(((((((((((((((((((((((((((((((((((((((((((((((yddddnddndK^^^~^^^^^^^^^^^^^^/A(((((((((((((((((((((((((((((((((((((((((((((((((((((((((((((((((((((((((((((((((((((((((((((((g/!/!^/!/^^//!!/!///YJLIPWPWWWW((((((((((((((((((((((((((((((((((((((((((((((((rxJ!^//!//!/!!/!//!/!^^!^!///^^^^^^^^^^^^^^^^^^^^^^^^/!/!!QI!!!/!^^~^T((((((((((((((((((((((((((((((((((((((((((((",
"((((((((((((((((((((((((((((((((((((((((((((((((((((((((qwwqqwwwwqkT^^^^^^^^^^^^^^^^^^^^^^^^^^^^^^^^^^^^^^^^!^^^^^^^^^^^^^^^^/Iu(((((((((((((((((((((((((((((((((((((((((((((OdddddddndB!^^^^^^^^^^^^^^^^^^!(((((((((((((((((((((((((((((((((((((((((((((((((((((((((((((((((((((((((((((((((((((((((((((((((I/!/^!^!/^!!/!//!/!^LLUUPUUWWQN((((((((((((((((((((((((((((((((((((((((((gAJQ^//^^^/!/!!/!//!/!!/!/!^!^!/!/^^^^^^^^^^^^^^^^^^^~^^^^!!!!EW!/!^!!!!^E(((((((((((((((((((((((((((((((((((((((((((((",
"(((((((((((((((((((((((((((((((((((((((((((((((((((((((((qewwwwwwiqwlR^^^^^^^^^^^^~^^^^^^^^~^^^^^^^^^^^^^^^^^^^^^^^^^^^^^^^!^^^^!!WJz7(((((((((((((((((((((((((((((((((((((((edddndddkdT^^^^^^^^^^^^!^^^^!/Z(((((((((((((((((((((((((((((((((((((((((((((((((((((((((((((((((((((((((((((((((((((((((((((((((g/!^^/^/!///!/!!/!/^QKPUUUUPWWP((((((((((((((((((((((((((((((((((((fVLQ!^^//^^^^^^^!/!//!/!!/!//!/!/^/^/!/!^^~^^~^^^^^^^^^^^^^^^^^^!!E!!^!!^!!/^^L((((((((((((((((((((((((((((((((((((((((((((((",
"((((((((((((((((((((((((((((((((((((((((((((((((((((((((((qewwwwwwwiwwlE~^^^^^^^^^^^^^^^^^^^^^^~^^^^^^^^^^^^^^^^^^!^^^^^^^^!^^^^^/^////!LDzt(((((((((((((((((((((((((((((((((dddddndddB~^^^^^^^^^^^^^^^^^^!(((((((((((((((((((((((((((((((((((((((((((((((((((((((((((((((((((((((((((((((((((((((((((((((((((Q//!/!!/!/!/!//!/!^^LIIUPWWUU~m((((((((((((((((((((((((((((tzAJY/////^^^^^^^^^^^^^/!/!!/!//!/!!/!//!/!!/!/^^^^^^^^^^^^^^^^^^^^^^!!EQ!!!/!!^^!^^T(((((((((((((((((((((((((((((((((((((((((((((((",
"(((((((((((((((((((((((((((((((((((((((((((((((((((((((((((8wwwwwiwwwwwicR~^^^^^^^^^^^^^^^^~^^^^^^^^^^^^^^^^^^^^^^^^^^^^^^^^^^^^^^^^!^^^////^~QIJxt(((((((((((((((((((((((((0dddddddddK^^^^^^^^^^^^^^^^^^^A(((((((((((((((((((((((((((((((((((((((((((((((((((((((((((((((((((((((((((((((((((((((((((((((((((f!!/!//!/!/!/!!/!/^^YKIUUUWUUWW(((((((((((((((((((((tgDLWQ!/////^!!^^^^^^^^^^^^^^^!/!//!/!!/!////!!/!//!/!^^^^^^^^^^^^^^^^^^^^!QIW!!!/!!/!!!^!V((((((((((((((((((((((((((((((((((((((((((((((((",
"((((((((((((((((((((((((((((((((((((((((((((((((((((((((((((1wewwwwwiwiwwilH!^^^^^^^^^^^^^^^^^^^^^^!^^^^^^^^^^^^^^^^^^^^^^^^^^^^^^^^^^^^^^^^^^^^^////!IJVgr(((((((((((((((((pddddddddB~^^^^^^~^^^^^^^^^^/!(((((((((((((((((((((((((((((((((((((((((((((((((((((((((((((((((((((((((((((((((((((((((((((((((((((I/!!/!/!/!/!//!/!^^^LLWUWWUUYQM((((((((((((rgxDL!^///^//^!/!/!!^^^^^^^^^~^^^^^^^^/!//!/!/!////!/!/!/!!/!/^^^~^^^^^^^^^^^^^!!EEI!~!!!!!!!!^!!f(((((((((((((((((((((((((((((((((((((((((((((((((",
"(((((((((((((((((((((((((((((((((((((((((((((((((((((((((((((#wewwwiwwwiwwwipTQ^^^^^~^^^^^^^^^^^^^^^^^^^^!^^^^^^^^^^^^^^^^^^^^^^^^^^^^/!^^^^^^^^^^^^^^^/////!!EEDVg7(((((((0ddsddddddK^^^^^^^^^^!^^^^^^^^V(((((((((((((((((((((((((((((((((((((((((((((((((((((((((((((((((((((((((((((((((((((((((((((((((((((g///!/!/!/!//!/!/^^^QLLUUUWUWWL(((7gzDJIW!^////^^^^^^^^^^/!/!///!^/!^^^^^^^^^^^^^!/!!/!/!/!/!!/!/!/!//!/!^^^^^^^^^!^^^^^!QEEQ!!!!!!!!/!!/^T(((((((((((((((((((((((((((((((((((((((((((((((((((",
"(((((((((((((((((((((((((((((((((((((((((((((((((((((((((((((((3wwwewwwwwsswwwiVW^^^^^^^^^^^^^^^^^^^^!^^!/!!/!/!/!/!!/!/!/!/!!/!^^^^^^^^^^^^^^^^^!^^^^^^!/!///////^/^/^!EJFTTFFZCBmmm~^^^~^^^^~^^^^^^^^^!(((((((((((((((((((((((((((((((((((((((((((((((((((((((((((((((((((((((((((((((((((((((((((((((((((((((I^^^^^^!/^!//!/!^^^^LLUWUUUP~U~~/^^^///^^^^^^^^^^^^^^^^^^^!^^^^^^^^^^^^^^^^^^^^^^^^^^^^^~^^^^^^^^^^^^^^^^^^^~^^^^^^^~~PLK~~~~Q~!~~~~!!^Qz((((((((((((((((((((((((((((((((((((((((((((((((((((",
"(((((((((((((((((((((((((((((((((((((((((((((((((((((((((((((((($wewwwsewwwwswswS!^^^^^!^^^^^^^!^^^^^^^^/!//!/!/!//////!/!/!//!/^^^^^~^^!^^^^^^^^^^^^^^^/!/!/!/!!^^^^^^^^//^/^^^~~~Q~^^^^^^^^^^^^^^^^^^^A(((((((((((((((((((((((((((((((((((((((((((((((((((((((((((((((((((((((((((((((((((((((((((((((((((((((g!^^^^^/^^!/!/!/^^^^~~UPWWUPPUP~^^^^^^^^^~^^^^~^^^^^^^^^^^^^^^^^^^^^^^^^^^^!^^^^^^^~^^^^^^^^^^^^^^^^^^^^^^^^^^^^^~!QLUUP~W~Q~~!~!!~~/!F((((((((((((((((((((((((((((((((((((((((((((((((((((((",
"((((((((((((((((((((((((((((((((((((((((((((((((((((((((((((((((((1eeeewiiiswswsS!^^^^^^^^^^^^^^^^^^^^^^!/!//!/!!/!//!/!!/!//!/!^^^^^^^^^^^^^^^^^^^^^^^^!/!/!/!//!!/^^^^!^^^^^^^^^^^^^^^^^^^^^^^^^^^^^^^A((((((((((((((((((((((((((((((((((((((((((((((((((((((((((((((((((((((((((((((((((((((((((((((((((7tujxD!^^^!/!/!/!!/!/^^^^^~LPUUU~PUP~^^^^^^^^^^^^^^^^^^^^^^^^^^^^^^^^^^^^^^^^^^^^^^^^^^^^^^^^^^^^^^^^^^^~^^^^^^^^^^^!WWKUQQ~~~~~~~Q!~!~^!Rr(((((((((((((((((((((((((((((((((((((((((((((((((((((((",
"(((((((((((((((((((((((((((((((((((((((((((((((((((((((((((((((((((@qweeiwwwswswZ^^^^^^^^^^^^^^^^^^^^^^^/!/!!/!//!/!!/!//!/!!/!/^^^^^^^^^^^^^^^^^^^^^^^^/!/!/!/!^/^^/!^^^^^^^^^^^^^^^^^^^^^^^^^^^^^^^^^^^////^!QWIIJJDDAZNxxzgffut7((((((((((((((((((((((((((((((((((((((((((((((:rrufggjzxVAADJJLIEW!^^///////^^^^^^^^^!/!//!/!^^~^~~~UL~UWWYP~~^^^^^^^^^^^^^^^^^^^^^^~^^^^^^^^^!^^^^^^^^^^^^^^^^^^^^^^^^^^^^^^^^^^^^!^^^^~~WLUIW~Q~~~~W~Q~~~!~~~Eg(((((((((((((((((((((((((((((((((((((((((((((((((((((((((",
"(((((((((((((((((((((((((((((((((((((((((((((((((((((((((((((((((((((#qswieewswwC~^^^^^^^^!^^^^^^^^^^^^^!/!//!/!!/!//!/!!/!//!/!^^^~^^^^^^^^^!^^^^^^^^^^//!//!/!^^^!^!^^^^^^^~^^^^^^^^^^^^^^^^^^^^^!^^^^^^^^^^^^^^//^///////////^^^^^^^^~^~~~!!!!!!!!!!!!!!!!QQ!!!!!!!!!!~~!^^^^^^^//^///////////^^/^^^^^^^^^^^^^^^^^!^^/!//!/!/^~^^^^~PPPPPPU~W~^^^^^^^^^^^^^^^^^^^^^^^^^^^^^^^^^^^^^^^^/^/^^^^^^~^^^^^^^^^^^^^^^^^^^^^~WQLKPYU!!Q~~~Y~~~P~!!~!Lj(((((((((((((((((((((((((((((((((((((((((((((((((((((((((((",
"(((((((((((((((((((((((((((((((((((((((((((((((((((((((((((((((((((((((#8sswswswB~^^^^^^^^^^^^^^!/!/^^^^/!/!!/!//!/!!/!//!/!!/!/^^^^^^^^^^^^^^^^^^^^!^^^!//!!/!/!/^/^^^^^^^^^^^^^^^^^^~^^^^^^^^^^^^^^^^^^^^^^^^^^^^^^^^^^^^/^/!^^^^^^^^^^^^^^^^^^/^^^^^^^^^^^///^^^^^^/^^^^^^^^^^^^^^^^^^^^^^^^^^^^^^^^^^^^^^^^^^^^^^^^^!/!//!/!^^^^^^~UP~WWP~PWU~^^~^^^^^^^^^^^^^^^^^^^^^^^^^^^^^^^^^^!^!^!^^^^^^^^^^^^~^^^^^^^^^^^!^WLUKUQ~~~~!Q!Q~W~W~~~~~!Ij(((((((((((((((((((((((((((((((((((((((((((((((((((((((((((((",
"(((((((((((((((((((((((((((((((((((((((((((((((((((((((((((((((((((((((((#8sssswnQ^^^^^^^^^^^^^^/^^!^^^^!//!/!/!!/!//!/!!/!/!//!^^^^^~^^^^^^^^^^^^^^^^^^/!/!/!/!!^^^^^^^^^^^^^^^~^^^^^^^^^^^^^^^^^^^^^^^^^^^^^^^^^^^^^^^^/^!^^^^^^^^^^^^^^^^^^^^^^^!^^^^^^^^^!/!^^^^^^^^^^^^^^^^^^^^^^^^^^^^^^^^^^^^^^^^^^^~^^^^^^^^^^^^/!/!!/!/^^^^^^~~~PW~WWUUU~^^^^^^^^~^^~^^^^^^^^^^^^^^!^^^^^^^^^^^^!^^^^^^^^^^^^^^^^^^^^^^^QQYJIEEY~~~W~W~~QY~Y~~Y~~~~Ku(((((((((((((((((((((((((((((((((((((((((((((((((((((((((((((((",
"((((((((((((((((((((((((((((((((((((((((((((((((((((((((((((((((((((((((((((1wsesR^^^^^^^^^^^^^^^^^^^^^^//!/!/!//!/!!/!//!/!/!//^^^^^^^^^^^^^^^^^^^^^^^^!/!/!//!/^/!^^^^^^^^^^^^^^^^^^^^^^~^^~^^^^^^^^^^^^^^^^^^^^^^^^^^^!^^^^^^^^^^^^^^^^^^^^^^^^^^^^^^^^^^^^^^^^^^^^^^^^^^^^^^^^^^^^^^^^^^^^^^^^^^^^^^^^^^^^^^^^^^^^^^!/!//!/!^^^^^~^~PPPPPP~PUY~~^^^^^^^^^^^^^~^^^~^^^^^^^^^^^^^^^^^^^//!^/!^^^^^^^^^^^^^~~IIELLWYQY!U~UW~W~QQ~Q!~Y~~~YZ((((((((((((((((((((((((((((((((((((((((((((((((((((((((((((((((((",
"((((((((((((((((((((((((((((((((((((((((((((((((((((((((((((((((((((((((((((((1wsF//!/!/^^^^^^^^!^!/!/!/!/!/!//!!//!/!/!!//!/!/!^^^^^^^^^~^^^^~^!^^^/^^^^/^^!/!/^^!/!/!/^^^^^^^^^^^^~^^^^^^^^^^^^^^^^^^^^^^^^^~^^^^!^^^^^^^^^^^^^^^^^^^^^^^^^^^^^^^^^^^^^^^^^!^^^^^^^^^^^^^^^^^^^^^^^^^^^!^^^^^^^^^^^^^^^^^^^^^^^^^^^^^^^!^^^^^^^^^^^^^^~LPPPUP~~P~~~^^^^^^^^^^^^^^^^^^^^^^^^^^^^^^^^^^^^!/!/!/!^^^^^^^^~Q~LKLPKUQQQW~WY~W~UYQ~QQ~Q~!~YLj((((((((((((((((((((((((((((((((((((((((((((((((((((((((((((((((((((",
"(((((((((((((((((((((((((((((((((((((((((((((((((((((((((((((((((((((((((((((((((d!!/!/!^^^^^^^^/^^^/!/!/!/!/!!//!//!/!//!!/!/!/^^^^^^^^^^^^^^^^^^^^!^!/^!/!/!/!!^/!/!/!^^^^^^^^^^^^^^^^^^^^^~^^^^^^^^^^^^^^^^^^^^^^^^^^^^^^^^^^^^^^^^^!^^^^^^^^^^^^^^^^^^^^^^^^^^^^^^^^^^^^^^^^!^^^^^^^^^^^^^~^^^^^^^^^^^^^^^^^!^^^^^^^^^^^^^~^^^^^^^^^~UU~L~P~~UP~^^^^^^^^^^^^^^^^^^^^^^!^^^^^^^^~^^^^^/!/!/!/^^^^~UIWLGLYUP~~QQQQY~~YW~~~~QQ~Y~!!UV:((((((((((((((((((((((((((((((((((((((((((((((((((((((((((((((((((((((",
"((((((((((((((((((((((((((((((((((((((((((((((((((((((((((((((((((((((((((((((((((R!!/!/^^^^^^^^/!!/!/!//!!/!/!/!//!/!/!/!/!!//!^^^^^^^~^^^^^^^^^^^^^^^^^^^^!/!///!///!/^^^^^^^^^^^^^^^^^^^^^^^^^^^^^~^^^^^^^^^^^^^^^^^^^^^^^^^^^^^^^^^^^^^^^~^^^^^^^^!^^^^^^^^^^^^^^^^^^^^^^^^^^^^^^^^^^^^^^^^^^^^!^^^^!^^^^^^^^^^^^^^^^^^^^^^^^^^^^^^^^~~UUPPUPPY~~^^^^^^^^^^^^^^^^^^^^^^^^^^^^^^^^^^^^//!!!!!~UGLULLUYWYQYY~UQQQQQQ~Q~UP~Q~!!~UDt(((((((((((((((((((((((((((((((((((((((((((((((((((((((((((((((((((((((((",
"((((((((((((((((((((((((((((((((((((((((((((((((((((((((((((((((((((((((((((((((((q!/!/!^^^^!^^^^^^^/!//!/!//!/!/!!/!/!/!/!//!//^^^~^^^^^^^^^^^^^^^^^^^^!^/!/!/!/!/!!!/!^^^^^^~^^^^^^^^^^^^^^^^^^^^^^^^^^^^^^^^^^^^^^^^^^^^^^^^!^^^^^^^^^^^^^^^^^^^^^^^^^^^^^^^^^^!^^^^^^^^^^^^^^^^^^^^^^^^^^^^^^^^^^^^^^^^^^^^^^^^^^^^^^^^^^^^^~^^^^~^^^~PUU~~PU~Y~~^^^^^^^^^^^^^^^^^^^^^^^^^^^^^^^^^^^^!QE!!IJKWUPWQYYYQQWQYU~QQQQQQQQU~P~Q!WSy((((((((((((((((((((((((((((((((((((((((((((((((((((((((((((((((((((((((((((",
"(((((((((((((((((((((((((((((((((((((((((((((((((((((((((((((((((((((((((((((((((((R/!/!^^^^^^^^^!/!/!/!/!/!/!!/!/!/!/!!!/!/!EJQ!~^^^^^^^^^^^^^^^^^^^^^^/^/!/!!/!//!/!/!^^^^^^^^^^^~^^^^^^^~^^^^!^^^^~^^^~^^^^^^^^^^^^^^!^^^^^^^^^!^^^^^^^^^^^^^^^^^^^^^^^^^^^^^^^^^^^^^^^^^^^^^^^^^^!^^^^^^^^^^^^^^^^^^^^^^^!^^^^^^^!^^^^^^^^^^^^^^^^^^^^~UUUUU~UP~~~^^^^^^^^^^^~^^^^^^^^^^^^^^^^!^!~YLKILKLIWW~PUPWWWWWYQWQQQWQWQQQYQQ~~QUDr(((((((((((((((((((((((((((((((((((((((((((((((((((((((((((((((((((((((((((((((",
"(((((((((((((((((((((((((((((((((((((((((((((((((((((((((((((((((((((((((((((((((((t!/!/^^^^^^^^^/!/!/!/!/!////!/!/!/!///!//!ApkdkNTEEW!^^^^^^^^^^^^^^^^!^!/!//!/!//!/!/^^^^^^~^^^^^^~^^^^^^^^^^^^^^^^^^^^^^^^^~^^^^^^^^^^^^^^^^^^^^^^^^^^^^^^^^^!^^^^^^^^^^^^^^^^^^^^^^^^^^^^^^^^^^^^^^^^^^^^^^^^^^^^^^^^^^^^^^^^^^^^^^^^^^^^^^^^^^^^^^^^~PUP~PPP~U~~^^^^^^^^^^^^^^^^^^^^^^/!QWWQIDDLLLLIYWWYYEWW~PWU~YQYWQWYYQY~QYQ~!QGB7((((((((((((((((((((((((((((((((((((((((((((((((((((((((((((((((((((((((((((((((((",
"((((((((((((((((((((((((((((((((((((((((((((((((((((((((((((((((((((((((((((((((((((R!/!^^^^^^^^^//!/!/!/!/!!/!/!/!/!/!/!/!!FdddddddsykZSSDK~~~~^^^^^^^^//!!/!//!//!/!/!^^^^^^^^^^^^^^^^^^^^^~^^^^^^^^^^^^^^^^^^^^^^^^^^^^^^^^^^^^^^^^~^^^^^^^^^^^^^^^^^^^!^^^^^^^^^^^^!^^^^^^^^^^^^^^^^^^^^^^^^^^^^^^^^^^^^^^^^^^^^^^^^^^^^^^^^^^^^~^^^^^~~~PP~U~~PU~~^^^^^^^^^^^^^!^~!!WLKIILDDLIUUUUUUUUWWUEWUUUPW~QWWQQQQQQQWQQQUDa((((((((((((((((((((((((((((((((((((((((((((((((((((((((((((((((((((((((((((((((((((((",
"(((((((((((((((((((((((((((((((((((((((((((((((((((((((((((((((((((((((((((((((((((((!//!^^^^^^^^!!/!/!/!/!//!/!/!/!/!/!/!/QmddddddddnddppdhmnnBDEWWQ!!//!//!//!/!!/!/!/^^^^^^^^^^^^^^^^^^^^^^^^^^^^^^^^^^^^^^^^^^^!^^^^^^^^^^^^^^^^^^^^^^^~^^^^^^^^^^^^^^^^^^^^^^^^^^^^^^^^~^^^^^^^^^^^^^^^^~^^^^^^^^!^^^^^^^^^^^^^^^^^^^^^^~^^^^^^^^^^^^~~WUP~UPP~U~^^^^^^^^^~QQ!!EJDDIILJLLUUUIUUWUWUWYUYWWWWP~U~UPWWYQWYQQQQPKN6(((((((((((((((((((((((((((((((((((((((((((((((((((((((((((((((((((((((((((((((((((((((((",
"(((((((((((((((((((((((((((((((((((((((((((((((((((((((((((((((((((((((((((((((((((((7!^^^^^^^^^/!/!!^/!^^^^^^^^/!/!^^^^^^QCdddsddddnddndddndddddhpskmSGDFTW!!^~!!!!^^^^^^^^^^^^^^^^^^^^^^^^^^^^^^^^^^^^^^^^^^^^^^^^^^^^^^^^^^^~^^^^^^!^^^^^^^^^^^^~^^^^^^^^^^^^^!^^^^^^^^^^^^~^^^^^~^^^^^^^^^^^^^^^^^^^^^^^^^^^^^^^^^^^^^^^^^^^~^^^^^^^^^^~QWWWP~PU~U~^~~LKLPYKDSDKLPPLRPPWUUUUUUUUUUWUWUUWUWWWWWQWWQUWQYQYWJz7(((((((((((((((((((((((((((((((((((((((((((((((((((((((((((((((((((((((((((((((((((((((((((((",
"((((((((((((((((((((((((((((((((((((((((((((((((((((((((((((((((((((((((((((((((((((((z/^^^^^^^^!/!//^^^^^^!^^^^!/!/^^^^^!FddddddddddddddnndndnknknnknkspdlmZBmNJI!!!!!^!/^^^/^^^^^^^^^^^^^^^^^^^^^^^^^^^^^^^^^^^^^^^^^^^^^^^^^^^^^^^^^^^^^^^^~^^^^^^^^^^^^^^^^^^^^^^^^^^^^^^^^^^^^^^^^^^^^^^^^^!^^^^^^^^^^^^^^^^^^^^^^^^^^^^^^^^^^^^^^^^^^^~WWWP~~PP~WGLLKGGGLLIPUPPPLPPPPPURPPUUUPUUWUWWUWUWWWWWYWYQ~WLGM6(((((((((((((((((((((((((((((((((((((((((((((((((((((((((((((((((((((((((((((((((((((((((((((((((",
"(((((((((((((((((((((((((((((((((((((((((((((((((((((((((((((((((((((((((((((((((((((((N^^^^^^^^/!!/^^/^^^^^^^^^/!/!^^/!!FdddddddnddnddnnddndnnnndnkkknnllknlkkknnvBmCCFTRRRQQ!^^^^^^^^~^^^^^^^^^^^^^^^^^^^^^^^^^^^^^^^^^^^^^^^^^^^^^^^^^^^^^^^^^^^^^^^^^^^^^^^^^^^^^^^^^^^^^^^^^^^^^^^^^^^^^^^^^^^^^^^^^^^^^^^^^^^^^^^^^^^^^^^^^^^^^~^^^^^^~UW~PUUPY~PLLLLPPLLPPLLPPLUPPPPPLUPUUUUUUUWUPWUYYWWWYWWUKVf((((((((((((((((((((((((((((((((((((((((((((((((((((((((((((((((((((((((((((((((((((((((((((((((((((((",
"((((((((((((((((((((((((((((((((((((((((((((((((((((((((((((((((((((((((((((((((((((((((z^^^^^^^!/^^/!!^^^^^^^^^!/!/^!/!TnddddddddddddndddndnddddnkknkkklnnkllnmllllnnlnnnnmBCZZSHTTRPW~~~~~~~^^!^^^^^^^^^^^^^^^^^^^^^^^^^^^^^^^^^^^^^^^^^^^^^^^^^^^^^^^^^^^^^!^^^^^^^^^^^^^^^^^^^^^^^^^^^^^^^^^^^^^^^^^^^^^^^^^^^^^~!!~!^^^^^^^^^^^^^^^^^^~^~UU~P~~~PYPLLLLLPLPLPPLPULPEPWLUPUPUPWPUWUUWUUQWWPLDj7((((((((((((((((((((((((((((((((((((((((((((((((((((((((((((((((((((((((((((((((((((((((((((((((((((((((((",
"(((((((((((((((((((((((((((((((((((((((((((((((((((((((((((((((((((((((((((((((((((((((((f!^^^^^/!/!^^^^^^^^^^^^/!/!//R7(2qsdkdkndddkddkdnnddndnnndndnnnkknnnnnknnnmnmlnmnmmnnnmnmmmmmBCmBSSSHKGSGLUEELRPPUUY~^^^^^^^^^^^^^^^^^^^^^^^^^^^^^^^^^^^^^^^^^^^^^^^^^^^^^^^^^^^^^^^^^^^^^^^^^^^^^^^^^^^^^^^^!QYIUUUIUUYYUKDSAVZK~^^^^^^^^^^^^^^^^^^~YWU~PPP~P~PLPLPKPKPLPLPLUPLRPUUPWPPUUWWUYUWIDAby(((((((((((((((((((((((((((((((((((((((((((((((((((((((((((((((((((((((((((((((((((((((((((((((((((((((((((((((",
"(((((((((((((((((((((((((((((((((((((((((((((((((((((((((((((((((((((((((((((((((((((((((((L^/^^!/!//!!/^^^^^^^^!/!!!J((((((((1qppdnkkkkddanndndndnnnnnkknnnnnkmnnnnnnnnnmnnmnmmmmmmmmmmmmmmmmmmmmmmnhhknnmMBZSGGDDSSAADDDDKLLIUQQ~^~^^!~~~~^~~~!!^!!!^!~^!^~~~~~~~~!!!^~~~~~^~~~~~~~PPPKKKJKDGGDGKLLLKJDSAAZVZSSGGKKKKKKKQ^^~^^~^^^^^^^^^^^^^~WP~U~~P~PPLKPPPLPLPLPPPLPPUPPPUWUWWUPLGNa=((((((((((((((((((((((((((((((((((((((((((((((((((((((((((((((((((((((((((((((((((((((((((((((((((((((((((((((((((((",
"((((((((((((((((((((((((((((((((((((((((((((((((((((((((((((((((((((((((((((((((((((((((((((gQ^^!!/!^^^^^^^^^^^^/!!R(((((((((((((((,20sannnnnndnnddndnnknknnknnkmnlmmmnmmnmmmmmmmmmmmmmmmmmmmCmmmBBmBBBBBBBBBmBmmBMmbmmBmBBBBVBZZSSZZZVBCMNBMNMNVBBccBVBNMCNMVCCNBBNNNVVCCCZZSSSSGGGDDDSSSSASZSZSSZSDDGGGGGKKKGKKGKGGGKGGKI^^^^^^^^^^^^^^^^^^^~UPP~PPPP~~PLLLPKPPLPPPLPPPIWWWLKDZjr((((((((((((((((((((((((((((((((((((((((((((((((((((((((((((((((((((((((((((((((((((((((((((((((((((((((((((((((((((((((((",
"((((((((((((((((((((((((((((((((((((((((((((((((((((((((((((((((((((((((((((((((((((((((((((((zE/////!^^^^^^^^^^!Qt((((((((((((((((((((((>,9sdnddnnnnnknnknnmknmnnnnnnmnnmnmnmmmmmmmmBmmmmBmmmmCBmmBmmBBCmBBBBmCBBBBCZBBCCVBZBCZCVZBZCZVZCCCZCZZZZZZZAZZCSZZZSSZZSSZSSSSSSSSSSSSSSSSSDSDGGSGDDSGGGGGGGDGGGGGGDKGGKGGKKGKKKK!^^^^^^^^~^^^^^^^^~~~~UP~P~~~PPPLPKPPPPPPPPLLLSMu:((((((((((((((((((((((((((((((((((((((((((((((((((((((((((((((((((((((((((((((((((((((((((((((((((((((((((((((((((((((((((((((((",
"(((((((((((((((((((((((((((((((((((((((((((((((((((((((((((((((((((((((((((((((((((((((((((((((((JQ!^/^/^//^^!Tz(((((((((((((((((((((((((((((((o29ysdknmllnlllnkmnnnnnmnmnmnmnmmmmmmmmmBmmmmmmBmmBmBmBBBBBCmBmBBCBBCBCBBCCCCVCCBZZCZCZZZCZZZZZZZZZZZZZSZSZSZZSSSSSZSZSSSSSSGSSSSDDSDGSSGSSGGSGGGDGSGSGGGGGGGGGKGGKGGGGKKKKGU^^^^^^^^^^^^~^^^^^^~~WWP~P~PQQLPULULKDDZjr(((((((((((((((((((((((((((((((((((((((((((((((((((((((((((((((((((((((((((((((((((((((((((((((((((((((((((((((((((((((((((((((((((((((",
"(((((((((((((((((((((((((((((((((((((((((((((((((((((((((((((((((((((((((((((((((((((((((((((((((((((fxAAvju5(((((((((((((((((((((((((((((((((((((((((o,8qidnkmknnnmnmnmmmmnmmmmmmmmmmmmmBmBBBmmmBmBBBmBmBBBBBCBBBBBCBCCCBCCBZCZBZZBZZCZCZZZZZZZSZZSZSZSZSZSSZZSSSSSSSSSSSSSSSSGSSGSSGGSGSGSGGSGGDGGGGGGGGGGGKGGKGGKKGKGGKGL!^^^^^^^^^^^^^^^^~^~WWW~U~U~QQDNja7((((((((((((((((((((((((((((((((((((((((((((((((((((((((((((((((((((((((((((((((((((((((((((((((((((((((((((((((((((((((((((((((((((((((((((((",
"((((((((((((((((((((((((((((((((((((((((((((((((((((((((((((((((((((((((((((((((((((((((((((((((((((((((((((((((((((((((((((((((((((((((((((((((((((((((((((((1dknnnnmnnnnnnnnnmmmmmmmmmmBmmmmmBBmmBBmBBmBBBBBBBBBBCCBCBCMCCBCCCCVZCVCCZZZZZZSZZZZZZSZZZZSSSSSSSZSSSSSSSSSSSGSSSSGSSGSSGSGSGGSSGSGSGGDGGGGGGGGKGGGGKGKKGKGKKW^^^^^^^^^^^^^^^^^^^~WWQU~PUQ~h((((((((((((((((((((((((((((((((((((((((((((((((((((((((((((((((((((((((((((((((((((((((((((((((((((((((((((((((((((((((((((((((((((((((((((((((((",
"((((((((((((((((((((((((((((((((((((((((((((((((((((((((((((((((((((((((((((((((((((((((((((((((((((((((((((((((((((((((((((((((((((((((((((((((((((((((((((((oipssdpdkkCSZCCBBmmmmmmmmmmmBmmBBmmBmBBmBmCCmBBBBCBBBBBCBCCCCCZCCCCZCZZCZZZZCZZZZZZZZSZZSSZZSZZSZZSSSZSSSSSSSSSSSGSSSGSSGSGSGSSGGGGDGGGDGGGGGDGGGGKKGGKKGKGKKKL^^^^^^^~^^^^^^^^^^^QL~W~UW~W~J((((((((((((((((((((((((((((((((((((((((((((((((((((((((((((((((((((((((((((((((((((((((((((((((((((((((((((((((((((((((((((((((((((((((((((((((((",
"((((((((((((((((((((((((((((((((((((((((((((((((((((((((((((((((((((((((((((((((((((((((((((((((((((((((((((((((((((((((((((((((((((((((((((((((((((((((((((((qssssdsdikQ^~QQWERTTHSSZCCBmmmmMmBBBBBBBBBBCCBBBBBCBCBCBBCCCCCCVCVZCVZCZZCZCZZZZZZSZSZZSSZSZZSSZSSSSSSSSSZSSSSGSSSGSSGSSSGSGFGSGGSGDGGGGGGGGGKGKKKKKKKKKKKGGGGSU^^^^^^^^^^^^^^^^^^^LUYUWW~Q~W((((((((((((((((((((((((((((((((((((((((((((((((((((((((((((((((((((((((((((((((((((((((((((((((((((((((((((((((((((((((((((((((((((((((((((((((((",
"((((((((((((((((((((((((((((((((((((((((((((((((((((((((((((((((((((((((((((((((((((((((((((((((((((((((((((((((((((((((((((((((((((((((((((((((((((((((((((((isspsssdsF^^^^/^/^^^^~~~~~~WWy((&260ysaahknnmBCCCCCCCZCCZVVCCCCCZZCZZZCZZZZZZZZZZZZZZZZZZZZSSZSSSSZSSSSSSSSSSSSSFFGSSFGGSFSGFGGGGGGGGGGGGKGGDSSZBNMbjhu06(((((((U^^~^^^^~^~^^^^^^^^QPQ~~WQ~W~Z(((((((((((((((((((((((((((((((((((((((((((((((((((((((((((((((((((((((((((((((((((((((((((((((((((((((((((((((((((((((((((((((((((((((((((((((((",
"(((((((((((((((((((((((((((((((((((((((((((((((((((((((((((((((((((((((((((((((((((((((((((((((((((((((((((((((((((((((((((((((((((((((((((((((((((((((((((((1ssssdspspW^^^^^^^^^^^^^^^^^^L(((((((((((((((((((%&,2:60yyaallMBBBBBBVCCVCZZZVZZZZZZZZZSZZSSSSSZSSSSSZSZSSSSSSFSSFSSSSFSSSFSSCCbmbhayr76;*(((((((((((((((((((((((g^^^^^^^^^^^^^^^~^^^KPP~UYQQQW(((((((((((((((((((((((((((((((((((((((((((((((((((((((((((((((((((((((((((((((((((((((((((((((((((((((((((((((((((((((((((((((((((((((((((((((((",
"(((((((((((((((((((((((((((((((((((((((((((((((((((((((((((((((((((((((((((((((((((((((((((((((((((((((((((((((((((((((((((((((((((((((((((((((((((((((((((((wdssdsspsC!^^^^^^^^^^^~^^^^^^u(((((((((((((((((((((((((((((((((((((((((((((((((&&**<4444466;6;:9;;;4662;***<((((((((((((((((((((((((((((((((((((((((((((((((((((((W^^^^^^^^^^^^^^^^^^QK~P~W~QQ~j((((((((((((((((((((((((((((((((((((((((((((((((((((((((((((((((((((((((((((((((((((((((((((((((((((((((((((((((((((((((((((((((((((((((((((((((",
"(((((((((((((((((((((((((((((((((((((((((((((((((((((((((((((((((((((((((((((((((((((((((((((((((((((((((((((((((((((((((((((((((((((((((((((((((((((((((((($sspsssdssL^^^^^^^^^^^^^^^^^/I(((((((((((((((((((((((((((((((((((((((((((((((((((((((((((((((((((((((((((((((((((((((((((((((((((((((((((((((((((((((((((((((((((((z^^^^^^^~^^^^^^^^^^!LWQQQQQQ~I((((((((((((((((((((((((((((((((((((((((((((((((((((((((((((((((((((((((((((((((((((((((((((((((((((((((((((((((((((((((((((((((((((((((((((((((",
"((((((((((((((((((((((((((((((((((((((((((((((((((((((((((((((((((((((((((((((((((((((((((((((((((((((((((((((((((((((((((((((((((((((((((((((((((((((((((((8ssssdssiB!!^^^^^^^^^^^^^^!^/j((((((((((((((((((((((((((((((((((((((((((((((((((((((((((((((((((((((((((((((((((((((((((((((((((((((((((((((((((((((((((((((((((((((~^^^^^^^^^^^~^^^/!/IIQQQQQQQ!:(((((((((((((((((((((((((((((((((((((((((((((((((((((((((((((((((((((((((((((((((((((((((((((((((((((((((((((((((((((((((((((((((((((((((((((((",
"(((((((((((((((((((((((((((((((((((((((((((((((((((((((((((((((((((((((((((((((((((((((((((((((((((((((((((((((((((((((((((((((((((((((((((((((((((((((((((.issssdsdsD^^^^^^^^^^^^^^^^^^!(((((((((((((((((((((((((((((((((((((((((((((((((((((((((((((((((((((((((((((((((((((((((((((((((((((((((((((((((((((((((((((((((((((((S^^^^^^^^^^^^^^^^^!!IWQQY~Q~~D(((((((((((((((((((((((((((((((((((((((((((((((((((((((((((((((((((((((((((((((((((((((((((((((((((((((((((((((((((((((((((((((((((((((((((((((",
"(((((((((((((((((((((((((((((((((((((((((((((((((((((((((((((((((((((((((((((((((((((((((((((((((((((((((((((((((((((((((((((((((((((((((((((((((((((((((((,ssspsssskQ^^^^^^^^^^^^^!^^^/V((((((((((((((((((((((((((((((((((((((((((((((((((((((((((((((((((((((((((((((((((((((((((((((((((((((((((((((((((((((((((((((((((((((((~^~^^^^^^^^^^^^/!/^LIQQWQQQ!W(((((((((((((((((((((((((((((((((((((((((((((((((((((((((((((((((((((((((((((((((((((((((((((((((((((((((((((((((((((((((((((((((((((((((((((((",
"(((((((((((((((((((((((((((((((((((((((((((((((((((((((((((((((((((((((((((((((((((((((((((((((((((((((((((((((((((((((((((((((((((((((((((((((((((((((((((esssdssssA^^^^^^^^!^^^^^^^^/!(((((((((((((((((((((((((((((((((((((((((((((((((((((((((((((((((((((((((((((((((((((((((((((((((((((((((((((((((((((((((((((((((((((((((D^^^^^^^^~^^^~^^^^/QLQQQ~P~~~z((((((((((((((((((((((((((((((((((((((((((((((((((((((((((((((((((((((((((((((((((((((((((((((((((((((((((((((((((((((((((((((((((((((((((((((",
"(((((((((((((((((((((((((((((((((((((((((((((((((((((((((((((((((((((((((((((((((((((((((((((((((((((((((((((((((((((((((((((((((((((((((((((((((((((((((($ssssssspsR^^^^^^^^^^^^^^^^^/D(((((((((((((((((((((((((((((((((((((((((((((((((((((((((((((((((((((((((((((((((((((((((((((((((((((((((((((((((((((((((((((((((((((((((t^^^^^^^^^^^^^^^^^^!WWWWY~U~WU((((((((((((((((((((((((((((((((((((((((((((((((((((((((((((((((((((((((((((((((((((((((((((((((((((((((((((((((((((((((((((((((((((((((((((((",
"((((((((((((((((((((((((((((((((((((((((((((((((((((((((((((((((((((((((((((((((((((((((((((((((((((((((((((((((((((((((((((((((((((((((((((((((((((((((((qsssssdssC~^^^^^^^^^^^^^^^^^^7((((((((((((((((((((((((((((((((((((((((((((((((((((((((((((((((((((((((((((((((((((((((((((((((((((((((((((((((((((((((((((((((((((((((((I^^^^^^^^^^^^^^^^^^WEQ~~~~~P~0(((((((((((((((((((((((((((((((((((((((((((((((((((((((((((((((((((((((((((((((((((((((((((((((((((((((((((((((((((((((((((((((((((((((((((((",
"((((((((((((((((((((((((((((((((((((((((((((((((((((((((((((((((((((((((((((((((((((((((((((((((((((((((((((((((((((((((((((((((((((((((((((((((((((((((( esessssssG^^^^^^^^^^^^^^^^^^I(((((((((((((((((((((((((((((((((((((((((((((((((((((((((((((((((((((((((((((((((((((((((((((((((((((((((((((((((((((((((((((((((((((((((((g^^^^^^^^^^^^^!^^^/!IWWWU~P~~G(((((((((((((((((((((((((((((((((((((((((((((((((((((((((((((((((((((((((((((((((((((((((((((((((((((((((((((((((((((((((((((((((((((((((((((",
"(((((((((((((((((((((((((((((((((((((((((((((((((((((((((((((((((((((((((((((((((((((((((((((((((((((((((((((((((((((((((((((((((((((((((((((((((((((((((1ssssssssk!^^^^^^^^^^^^^^^^^^g((((((((((((((((((((((((((((((((((((((((((((((((((((((((((((((((((((((((((((((((((((((((((((((((((((((((((((((((((((((((((((((((((((((((((((Q^^^^^^^^^^^^^^^^^^LWP~~W~P~P(((((((((((((((((((((((((((((((((((((((((((((((((((((((((((((((((((((((((((((((((((((((((((((((((((((((((((((((((((((((((((((((((((((((((((((",
"(((((((((((((((((((((((((((((((((((((((((((((((((((((((((((((((((((((((((((((((((((((((((((((((((((((((((((((((((((((((((((((((((((((((((((((((((((((((((wissssssiD!^^^^!^^^^^^^^^^^^Q(((((((((((((((((((((((((((((((((((((((((((((((((((((((((((((((((((((((((((((((((((((((((((((((((((((((((((((((((((((((((((((((((((((((((((((z/^^^^^^^^^^^^^^^^^!L~~P~U~~~z((((((((((((((((((((((((((((((((((((((((((((((((((((((((((((((((((((((((((((((((((((((((((((((((((((((((((((((((((((((((((((((((((((((((((((",
"((((((((((((((((((((((((((((((((((((((((((((((((((((((((((((((((((((((((((((((((((((((((((((((((((((((((((((((((((((((((((((((((((((((((((((((((((((((((#sisssssspE/^^^^^^^^^^^^^^^^/V((((((((((((((((((((((((((((((((((((((((((((((((((((((((((((((((((((((((((((((((((((((((((((((((((((((((((((((((((((((((((((((((((((((((((((((!^^^^^~^^^^^~^^^^^~IP~~U~~~~L((((((((((((((((((((((((((((((((((((((((((((((((((((((((((((((((((((((((((((((((((((((((((((((((((((((((((((((((((((((((((((((((((((((((((((",
"((((((((((((((((((((((((((((((((((((((((((((((((((((((((((((((((((((((((((((((((((((((((((((((((((((((((((((((((((((((((((((((((((((((((((((((((((((((((3sisssssiV!^^^^^^^^^^^^^^^^^!(((((((((((((((((((((((((((((((((((((((((((((((((((((((((((((((((((((((((((((((((((((((((((((((((((((((((((((((((((((((((((((((((((((((((((((((J^^^^^^^^^~^^^^^^^^UKPP~~PU~~r(((((((((((((((((((((((((((((((((((((((((((((((((((((((((((((((((((((((((((((((((((((((((((((((((((((((((((((((((((((((((((((((((((((((((((",
"((((((((((((((((((((((((((((((((((((((((((((((((((((((((((((((((((((((((((((((((((((((((((((((((((((((((((((((((((((((((((((((((((((((((((((((((((((((((iseisssssD^^^^^^^^^^^!^^^^^/J(((((((((((((((((((((((((((((((((((((((((((((((((((((((((((((((((((((((((((((((((((((((((((((((((((((((((((((((((((((((((((((((((((((((((((((((r!^^^^^^^^^^^^^^^^^~PYYQU~~~~D(((((((((((((((((((((((((((((((((((((((((((((((((((((((((((((((((((((((((((((((((((((((((((((((((((((((((((((((((((((((((((((((((((((((((((",
"(((((((((((((((((((((((((((((((((((((((((((((((((((((((((((((((((((((((((((((((((((((((((((((((((((((((((((((((((((((((((((((((((((((((((((((((((((((((,sisssssilQ^^^^^^^^^^^^^^^^^^t((((((((((((((((((((((((((((((((((((((((((((((((((((((((((((((((((((((((((((((((((((((((((((((((((((((((((((((((((((((((((((((((((((((((((((((((L/^^^^^^^^^^^^^^^^^PYY~~U~P~Q(((((((((((((((((((((((((((((((((((((((((((((((((((((((((((((((((((((((((((((((((((((((((((((((((((((((((((((((((((((((((((((((((((((((((((",
"(((((((((((((((((((((((((((((((((((((((((((((((((((((((((((((((((((((((((((((((((((((((((((((((((((((((((((((((((((((((((((((((((((((((((((((((((((((((qssissssiA!^^^^^^^^^^^^^^^^^E(((((((((((((((((((((((((((((((((((((((((((((((((((((((((((((((((((((((((((((((((((((((((((((((((((((((((((((((((((((((((((((((((((((((((((((((((g^^^^^^^~^^^^^^^^^^~LQ~~~WYQ~j((((((((((((((((((((((((((((((((((((((((((((((((((((((((((((((((((((((((((((((((((((((((((((((((((((((((((((((((((((((((((((((((((((((((((",
"((((((((((((((((((((((((((((((((((((((((((((((((((((((((((((((((((((((((((((((((((((((((((((((((((((((((((((((((((((((((((((((((((((((((((((((((((((((#eeesisssiW/^^^^!^^^^^^^^^^^/z((((((((((((((((((((((((((((((((((((((((((((((((((((((((((((((((((((((((((((((((((((((((((((((((((((((((((((((((((((((((((((((((((((((((((((((((((Q^~^^^^^^^^~^^^^^^~LYWU~~~Q~L((((((((((((((((((((((((((((((((((((((((((((((((((((((((((((((((((((((((((((((((((((((((((((((((((((((((((((((((((((((((((((((((((((((((((",
"((((((((((((((((((((((((((((((((((((((((((((((((((((((((((((((((((((((((((((((((((((((((((((((((((((((((((((((((((((((((((((((((((((((((((((((((((((((3ssiisiiiB!^^^^^^^/!/!/!/!//!(((((((((((((((((((((((((((((((((((((((((((((((((((((((((((((((((((((((((((((((((((((((((((((((((((((((((((((((((((((((((((((((((((((((((((((((((((A^/!/!/!!/!//!/!/!^QI!Q!Q~Q~!((((((((((((((((((((((((((((((((((((((((((((((((((((((((((((((((((((((((((((((((((((((((((((((((((((((((((((((((((((((((((((((((((((((((((",
"((((((((((((((((((((((((((((((((((((((((((((((((((((((((((((((((((((((((((((((((((((((((((((((((((((((((((((((((((((((((((((((((((((((((((((((((((((((wssssssiwH/^^^^^^!/!!/!/!/!/J((((((((((((((((((((((((((((((((((((((((((((((((((((((((((((((((((((((((((((((((((((((((((((((((((((((((((((((((((((((((((((((((((((((((((((((((((((!!/!////!/!!/!/!/^!IQQQ~YQ!~Z(((((((((((((((((((((((((((((((((((((((((((((((((((((((((((((((((((((((((((((((((((((((((((((((((((((((((((((((((((((((((((((((((((((((((",
"(((((((((((((((((((((((((((((((((((((((((((((((((((((((((((((((((((((((((((((((((((((((((((((((((((((((((((((((((((((((((((((((((((((((((((((((((((((#iiwssisinQ^^^^^^^^!/!//!/!/!(((((((((((((((((((((((((((((((((((((((((((((((((((((((((((((((((((((((((((((((((((((((((((((((((((((((((((((((((((((((((((((((((((((((((((((((((((((L/!!/!/!/!/!//!/!^^II!~Q~~~~W(((((((((((((((((((((((((((((((((((((((((((((((((((((((((((((((((((((((((((((((((((((((((((((((((((((((((((((((((((((((((((((((((((((((((",
"(((((((((((((((((((((((((((((((((((((((((((((((((((((((((((((((((((((((((((((((((((((((((((((((((((((((((((((((((((((((((((((((((((((((((((((((((((((qiiessiiiV^^^^^^^^^/!/!!/!/!!(((((((((((((((((((((((((((((((((((((((((((((((((((((((((((((((((((((((((((((((((((((((((((((((((((((((((((((((((((((((((((((((((((((((((((((((((((((t/!/!/!/!/!/!!/!/^^!IQQ~Q~Q~~t((((((((((((((((((((((((((((((((((((((((((((((((((((((((((((((((((((((((((((((((((((((((((((((((((((((((((((((((((((((((((((((((((((((((",
"(((((((((((((((((((((((((((((((((((((((((((((((((((((((((((((((((((((((((((((((((((((((((((((((((((((((((((((((((((((((((((((((((((((((((((((((((((((wwwieiiisE^^^!^^^^^!/!//!/!/z((((((((((((((((((((((((((((((((((((((((((((((((((((((((((((((((((((((((((((((((((((((((((((((((((((((((((((((((((((((((((((((((((((((((((((((((((((((W/!/^^^^!/!//!//^^^LQ!Q!QW~~J((((((((((((((((((((((((((((((((((((((((((((((((((((((((((((((((((((((((((((((((((((((((((((((((((((((((((((((((((((((((((((((((((((((((",
"((((((((((((((((((((((((((((((((((((((((((((((((((((((((((((((((((((((((((((((((((((((((((((((((((((((((((((((((((((((((((((((((((((((((((((((((((((1iiiissiik!^^^^^^^^^/!/!!/!/!(((((((((((((((((((((((((((((((((((((((((((((((((((((((((((((((((((((((((((((((((((((((((((((((((((((((((((((((((((((((((((((((((((((((((((((((((((((((V//!^^^^/!/!!//!^^^WIQ!Q~~~~W((((((((((((((((((((((((((((((((((((((((((((((((((((((((((((((((((((((((((((((((((((((((((((((((((((((((((((((((((((((((((((((((((((((((",
"((((((((((((((((((((((((((((((((((((((((((((((((((((((((((((((((((((((((((((((((((((((((((((((((((((((((((((((((((((((((((((((((((((((((((((((((((((qiweiiiswH^^^^^^^^^^!/!//!!/A((((((((((((((((((((((((((((((((((((((((((((((((((((((((((((((((((((((((((((((((((((((((((((((((((((((((((((((((((((((((((((((((((((((((((((((((((((((((!^^^^^^!/!/!/!/^^^!LQQ!P~~W^h(((((((((((((((((((((((((((((((((((((((((((((((((((((((((((((((((((((((((((((((((((((((((((((((((((((((((((((((((((((((((((((((((((((((",
"(((((((((((((((((((((((((((((((((((((((((((((((((((((((((((((((((((((((((((((((((((((((((((((((((((((((((((((((((((((((((((((((((((((((((((((((((((@wissiesspE^^^^^^^^^^/!//!//!(((((((((((((((((((((((((((((((((((((((((((((((((((((((((((((((((((((((((((((((((((((((((((((((((((((((((((((((((((((((((((((((((((((((((((((((((((((((((J^^^^^^!//!/!/!^^^^EW!!~~~~~L(((((((((((((((((((((((((((((((((((((((((((((((((((((((((((((((((((((((((((((((((((((((((((((((((((((((((((((((((((((((((((((((((((((((",
"(((((((((((((((((((((((((((((((((((((((((((((((((((((((((((((((((((((((((((((((((((((((((((((((((((((((((((((((((((((((((((((((((((((((((((((((((((,eseeiiswC~^^^^^^^^^^^^^^^^^W(((((((((((((((((((((((((((((((((((((((((((((((((((((((((((((((((((((((((((((((((((((((((((((((((((((((((((((((((((((((((((((((((((((((((((((((((((((((((u^^^^^^/!/!/!/!/!//!E!Q~W~P~~(((((((((((((((((((((((((((((((((((((((((((((((((((((((((((((((((((((((((((((((((((((((((((((((((((((((((((((((((((((((((((((((((((((((",
"(((((((((((((((((((((((((((((((((((((((((((((((((((((((((((((((((((((((((((((((((((((((((((((((((((((((((((((((((((((((((((((((((((((((((((((((((((qeewsiissH^^^^^^^^^^^^^^^^^/g((((((((((((((((((((((((((((((((((((((((((((((((((((((((((((((((((((((((((((((((((((((((((((((((((((((((((((((((((((((((((((((((((((((((((((((((((((((((((W^!^^^!/!/!/!/!//!!IQ!~~~~~~M((((((((((((((((((((((((((((((((((((((((((((((((((((((((((((((((((((((((((((((((((((((((((((((((((((((((((((((((((((((((((((((((((((((",
"((((((((((((((((((((((((((((((((((((((((((((((((((((((((((((((((((((((((((((((((((((((((((((((((((((((((((((((((((((((((((((((((((((((((((((((((((@wwsseiiid!^^^^^^^!^^^^^^^^/~(((((((((((((((((((((((((((((((((((((((((((((((((((((((((((((((((((((((((((((((((((((((((((((((((((((((((((((((((((((((((((((((((((((((((((((((((((((((((((v/^^^^/!/!/!/!!/!/!!E!~~~~~~R((((((((((((((((((((((((((((((((((((((((((((((((((((((((((((((((((((((((((((((((((((((((((((((((((((((((((((((((((((((((((((((((((((((",
"((((((((((((((((((((((((((((((((((((((((((((((((((((((((((((((((((((((((((((((((((((((((((((((((((((((((((((((((((((((((((((((((((((((((((((((((((1eswswiiiV!^^^^^^^^^^^^^^^!/D((((((((((((((((((((((((((((((((((((((((((((((((((((((((((((((((((((((((((((((((((((((((77((((((((((((((((((((((((((((((((((((((((((((((((((((((((((((((((((!^^^^!/!/!/!//!/!!!J!P~P~Q~~((((((((((((((((((((((((((((((((((((((((((((((((((((((((((((((((((((((((((((((((((((((((((((((((((((((((((((((((((((((((((((((((((((((",
"((((((((((((((((((((((((((((((((((((((((((((((((((((((((((((((((((((((((((((((((((((((((((((((((((((((((((((((((((((((((((((((((((((((((((((((((((qiwiseiiwR^^^^^^^^^^^^^^^^^^t((((((((((((((((((((((((((((((((((((((((((((((((((((((((((((((((((((((((((((((((((((((j!//^x((((((((((((((((((((((((((((((((((((((((((((((((((((((((((((((((L^^^^/!!/!//!!//!/!!!~QQ~~Q~B(((((((((((((((((((((((((((((((((((((((((((((((((((((((((((((((((((((((((((((((((((((((((((((((((((((((((((((((((((((((((((((((((((((",
"(((((((((((((((((((((((((((((((((((((((((((((((((((((((((((((((((((((((((((((((((((((((((((((((((((((((((((((((((((((((((((((((((((((((((((((((((@weswweiinQ^^^~^^^^^^^^^^^^/Q((((((((((((((((((((((((((((((((((((((((((((((((((((((((((((((((((((((((((((((((((((((z^^^^^/x(((((((((((((((((((((((((((((((((((((((((((((((((((((((((((((((g^^^^!//!/!/!/!!/!/!!~~~~~~~U(((((((((((((((((((((((((((((((((((((((((((((((((((((((((((((((((((((((((((((((((((((((((((((((((((((((((((((((((((((((((((((((((((((",
"(((((((((((((((((((((((((((((((((((((((((((((((((((((((((((((((((((((((((((((((((((((((((((((((((((((((((((((((((((((((((((((((((((((((((((((((((,swwiseiwA^^^^^^^^^^^^^^^^^/A((((((((((((((((((((((((((((((((((((((((((((((((((((((((((((((((((((((((((((((((((((((W/^^^^/!r(((((((((((((((((((((((((((((((((((((((((((((((((((((((((((((((!/^^//!/!/!/!/!!/!/!~~^^^~~^(((((((((((((((((((((((((((((((((((((((((((((((((((((((((((((((((((((((((((((((((((((((((((((((((((((((((((((((((((((((((((((((((((((",
"(((((((((((((((((((((((((((((((((((((((((((((((((((((((((((((((((((((((((((((((((((((((((((((((((((((((((((((((((((((((((((((((((((((((((((((((((qewsswiipH^^^^^^!^^^^^^^!^^!((((((((((((((((((((((((((((((((((((((((((((((((((((((((((((((((AIID(((((((((((((((((((!^^^^^^^Q(((((((((((((((((((((((((((((((((((((((((((((((((((((((((((((((A^^^/!/!/!/!/!//!/!/~^^^^^^^E((((((((((((((((((((((((((((((((((((((((((((((((((((((((((((((((((((((((((((((((((((((((((((((((((((((((((((((((((((((((((((((((((((",
"((((((((((((((((((((((((((((((((((((((((((((((((((((((((((((((((((((((((((((((((((((((((((((((((((((((((((((((((((((((((((((((((((((((((((((((((@wiwsiwswg!^^^^^^^^^^^^^^^^^L(((((((((((((((((((((((((((((((((((((((((((((((((((((((((((((((Q//^/!((((((((((((((((((~^^^^^^^/J(((((((((((((((((((((((((((((((((((((((((((((((((((((((((((((((!//!//!/!/!/!/!!/!/^^~^^^^^^^Ir(((((((((((((((((((((((((((((((((((((((((((((((((((((((((((((((((((((((((((((((((((((((((((((((((((((((((((((((((((((((((((((((((",
"((((((((((((((((((((((((((((((((((((((((((((((((((((((((((((((((((((((((((((((((((((((((((((((((((((((((((((((((((((((((((((((((((((((((((((((((1wwiwseiiF^^^^^^^^^^^^^!^^^/j((((((((((((((((((((((((((((((((((((((((((((((((((((((((((((((L^^^^^/I(((((((((((((((((I^^^^!^^^/z((((((((((((((((((((((((((((((((((((((((((((((((((((((((((((((Q!!/!//!/!/!/!//!/!^^^^^^^^^^^^K((((((((((((((((((((((((((((((((((((((((((((((((((((((((((((((((((((((((((((((((((((((((((((((((((((((((((((((((((((((((((((((((",
"((((((((((((((((((((((((((((((((((((((((((((((((((((((((((((((((((((((((((((((((((((((((((((((((((((((((((((((((((((((((((((((((((((((((((((((((qiwiiiieiE^^^^^^^^^^^^^^^^^!((((((((((((((((((((((((((((((((((((((((((((((((((((((((((((((A^^^^^^/!(((((((((((((((((t!^^^^^^^^^7(((((((((((((((((((((((((((((((((((((((((((((((((((((((((((((A/!!//!/!/!/!/!/!!/^^^^^^^^^^^^/!g((((((((((((((((((((((((((((((((((((((((((((((((((((((((((((((((((((((((((((((((((((((((((((((((((((((((((((((((((((((((((((((",
"(((((((((((((((((((((((((((((((((((((((((((((((((((((((((((((((((((((((((((((((((((((((((((((((((((((((((((((((((((((((((((((((((((((((((((((((@wwiwewswj!^^^^^^^^^^^^^^^^/J(((((((((((((((((((((((((((((((((((((((((((((((((((((((((((((u^^^!^^^^/((((((((((((((((((A/^^^^^^^^Y((((((((((((((((((((((((((((((((((((((((((((((((((((((((((((((!//!!/!/!/!/!/!//!^^^^^^^^~^^^^^/A(((((((((((((((((((((((((((((((((((((((((((((((((((((((((((((((((((((((((((((((((((((((((((((((((((((((((((((((((((((((((((((",
"(((((((((((((((((((((((((((((((((((((((((((((((((((((((((((((((((((((((((((((((((((((((((((((((((((((((((((((((((((((((((((((((((((((((((((((((>iwiwwsiwJ^^^//!/^^!^^^^^^^^t(((((((((((((((((((((((((((((((((((((((((((((((((((((((((((((Q^^^^^^^^!(((((((((((((((((((L^^^^^^^^/J(((((((((((((((((((((((((((((((((((((((((((((((((((((((((((((L/!/!/!/!!/!//!/!/^^^^~^^^^^^^^^^^J((((((((((((((((((((((((((((((((((((((((((((((((((((((((((((((((((((((((((((((((((((((((((((((((((((((((((((((((((((((((((((",
"(((((((((((((((((((((((((((((((((((((((((((((((((((((((((((((((((((((((((((((((((((((((((((((((((((((((((((((((((((((((((((((((((((((((((((((((qwiwiswwdE/^^!!/!^^^^^^^^^^!(((((((((((((((((((((((((((((((((((((((((((((((((((((((((((((L/^^^^^^^^A((((((((((((((((((((!^^^^^^^^/z((((((((((((((((((((((((((((((((((((((((((((((((((((((((((((j!/!/!/!//!//!/!/!^^^^^^^^^^^^^^^^/J(((((((((((((((((((((((((((((((((((((((((((((((((((((((((((((((((((((((((((((((((((((((((((((((((((((((((((((((((((((((((((",
"(((((((((((((((((((((((((((((((((((((((((((((((((((((((((((((((((((((((((((((((((((((((((((((((((((((((((((((((((((((((((((((((((((((((((((((((wiwwwiiwn/!/!/!!/^^^^^^^^^/A((((((((((((((((((((((((((((((((((((((((((((((((((((((((((((A^^^^^^^^/W(((((((((((((((((((((g^^^^^^^^^^7(((((((((((((((((((((((((((((((((((((((((((((((((((((((((((J/!/!/!/!/!/!/!//!^^~^^^^^^^^^^^^^^^A((((((((((((((((((((((((((((((((((((((((((((((((((((((((((((((((((((((((((((((((((((((((((((((((((((((((((((((((((((((((((",
"((((((((((((((((((((((((((((((((((((((((((((((((((((((((((((((((((((((((((((((((((((((((((((((((((((((((((((((((((((((((((((((((((((((((((((((>wwiwswiwA!/!/!//!^^^^^^^^^^t(((((((((((((((((((((((((((((((((((((((((((((((((((((((((((f^^^^^^^^^!5((((((((((((((((((((((A/^^^^^!^^Q((((((((((((((((((((((((((((((((((((((((((((((((((((((((((z!//!/!/!/!/!/!/!//^^^^^^^^^^^^^^^^^^^j(((((((((((((((((((((((((((((((((((((((((((((((((((((((((((((((((((((((((((((((((((((((((((((((((((((((((((((((((((((((((",
"((((((((((((((((((((((((((((((((((((((((((((((((((((((((((((((((((((((((((((((((((((((((((((((((((((((((((((((((((((((((((((((((((((((((((((((qwwewsiwiE!/!///!/^^^^^^!^/W((((((((((((((((((((((((((((((((((((((((((((((((((((((((((((!^/!//!/^^z((((((((((((((((((((((((I^^^^^^^^^L(((((((((((((((((((((((((((((((((((((((((((((((((((((((((!/!/!/!/!/!/!/!/!/!^^~^^~^^^^^^^^^^^^^!(((((((((((((((((((((((((((((((((((((((((((((((((((((((((((((((((((((((((((((((((((((((((((((((((((((((((((((((((((((((((",
"((((((((((((((((((((((((((((((((((((((((((((((((((((((((((((((((((((((((((((((((((((((((((((((((((((((((((((((((((((((((((((((((((((((((((((((qiwieeiwkQ/!/!!//!^^^^^^^^^A(((((((((((((((((((((((((((((((((((((((((((((((((((((((((((I^^!/!!/!/J((((((((((((((((((((((((((!^^^^^^^^/N(((((((((((((((((((((((((((((((((((((((((((((((((((((((T/!/!/!/!/!//!!/!/!/^^^^^^^^^^^^^^^^^^^/D((((((((((((((((((((((((((((((((((((((((((((((((((((((((((((((((((((((((((((((((((((((((((((((((((((((((((((((((((((((((",
"(((((((((((((((((((((((((((((((((((((((((((((((((((((((((((((((((((((((((((((((((((((((((((((((((((((((((((((((((((((((((((((((((((((((((((((#wwiweeiwF^/!!//!/!^^^^^^^^^(((((((((((((((((((((((((((((((((((((((((((((((((((((((((((A/^^/!!/!/W(((((((((((((((((((((((((((g^^^^^^^^^^t(((((((((((((((((((((((((((((((((((((((((((((((((((((g!/!//!/!!///!/!//!/!^^^^^^^^~^^^^^~^^^^^^r(((((((((((((((((((((((((((((((((((((((((((((((((((((((((((((((((((((((((((((((((((((((((((((((((((((((((((((((((((((((",
"(((((((((((((((((((((((((((((((((((((((((((((((((((((((((((((((((((((((((((((((((((((((((((((((((((((((((((((((((((((((((((((((((((((((((((((3wwwiwwiiT^!/!/!/!/^^^^^^^^Q((((((((((((((((((((((((((((((((((((((((((((((((((((((((((j^^^^!//!/!7((((((((((((((((((((((((((((D/^^^^^^^^!(((((((((((((((((((((((((((((((((((((((((((((((((((((E/!/!!/!//!/!/!/!!/!/^^^^^^^^^^^^^^^^^^^^^J(((((((((((((((((((((((((((((((((((((((((((((((((((((((((((((((((((((((((((((((((((((((((((((((((((((((((((((((((((((((",
"(((((((((((((((((((((((((((((((((((((((((((((((((((((((((((((((((((((((((((((((((((((((((((((((((((((((((((((((((((((((((((((((((((((((((((((qwwweewwm!^/!!/!//!^^^^^^^/A(((((((((((((((((((((((((((((((((((((((((((((((((((((((((7!!/!//!/!/z((((((((((((((((((((((((((((((I^^^^^^^^^E(((((((((((((((((((((((((((((((((((((((((((((((((((r!/!/!/!/!!/!/!/!//!/!^^^^^^^^^^^^~^^^^^^^^^(((((((((((((((((((((((((((((((((((((((((((((((((((((((((((((((((((((((((((((((((((((((((((((((((((((((((((((((((((((((",
"((((((((((((((((((((((((((((((((((((((((((((((((((((((((((((((((((((((((((((((((((((((((((((((((((((((((((((((((((((((((((((((((((((((((((((@wwwewewwC^^!//!/!!/^^^^^^^^((((((((((((((((((((((((((((((((((((((((((((((((((((((((((Y!/!/!!/!/J((((((((((((((((((((((((((((((((!^^^^^^^^/D((((((((((((((((((((((((((((((((((((((((((((((((((H!//!/!/!//!/!/!/!!/!/^^^^^^^^^^^^^^^^^^^^^/v((((((((((((((((((((((((((((((((((((((((((((((((((((((((((((((((((((((((((((((((((((((((((((((((((((((((((((((((((((((",
"((((((((((((((((((((((((((((((((((((((((((((((((((((((((((((((((((((((((((((((((((((((((((((((((((((((((((((((((((((((((((((((((((((((((((((>wwwwwieiT^^/!//!/!!^^^^^^/W(((((((((((((((((((((((((((((((((((((((((((((((((((((((((J//!////!/!(((((((((((((((((((((((((((((((((f^^^^^^^^^^z(((((((((((((((((((((((((((((((((((((((((((((((((!/!//!/!/!!/!/!/!//!/!^~^^^^^^^^^^^^^^^^^^^^W((((((((((((((((((((((((((((((((((((((((((((((((((((((((((((((((((((((((((((((((((((((((((((((((((((((((((((((((((((((",
"((((((((((((((((((((((((((((((((((((((((((((((((((((((((((((((((((((((((((((((((((((((((((((((((((((((((((((((((((((((((((((((((((((((((((((qiwwwiews!^^!/!//!//^!^^^^/A((((((((((((((((((((((((((((((((((((((((((((((((((((((((A/!!/!!/!/!(((((((((((((((((((((((((((((((((((Z^^^^^^^^^^7(((((((((((((((((((((((((((((((((((((((((((((((f!!/!!/!//!/!/!/!//!/!/^^^^^^~^^^^^^^^^^^^^^^^((((((((((((((((((((((((((((((((((((((((((((((((((((((((((((((((((((((((((((((((((((((((((((((((((((((((((((((((((((((",
"((((((((((((((((((((((((((((((((((((((((((((((((((((((((((((((((((((((((((((((((((((((((((((((((((((((((((((((((((((((((((((((((((((((((((((wwwwewewB!^^^^^^^^^^^^^^^^^u(((((((((((((((((((((((((((((((((((((((((((((((((((((((u!//!/!/!/!x((((((((((((((((((((((((((((((((((((L^^^^^^^^^!(((((((((((((((((((((((((((((((((((((((((((((((V!/!/!//!//!/!/!/!//!/!/!/!!/!///!/!/!/^^^^!//g(((((((((((((((((((((((((((((((((((((((((((((((((((((((((((((((((((((((((((((((((((((((((((((((((((((((((((((((((((((",
"(((((((((((((((((((((((((((((((((((((((((((((((((((((((((((((((((((((((((((((((((((((((((((((((((((((((((((((((((((((((((((((((((((((((((((#wwwwwwwwT^^^!^^^^^^^^^^^^^!((((((((((((((((((((((((((((((((((((((((((((((((((((((((!/!!/!/!!/J((((((((((((((((((((((((((((((((((((((Q^^^^^^^^^L((((((((((((((((((((((((((((((((((((((((((((((J/^/!/!!//!/!/!/!!/!/!/!/!//!/!!!/!/!/!^^^^/!/A(((((((((((((((((((((((((((((((((((((((((((((((((((((((((((((((((((((((((((((((((((((((((((((((((((((((((((((((((((((",
"(((((((((((((((((((((((((((((((((((((((((((((((((((((((((((((((((((((((((((((((((((((((((((((((((((((((((((((((((((((((((((((((((((((((((((1wwwwiweiR!^^^^^^^^^^^^^^^/J(((((((((((((((((((((((((((((((((((((((((((((((((((((((E^!/!//!//I(((((((((((((((((((((((((((((((((((((((r!^^^^^^^^/A(((((((((((((((((((((((((((((((((((((((((((((W^^/!/!/!/!!/!//!/!!/!//!/!/!!//!!/!/!/^^!^!/!J(((((((((((((((((((((((((((((((((((((((((((((((((((((((((((((((((((((((((((((((((((((((((((((((((((((((((((((((((((((",
"(((((((((((((((((((((((((((((((((((((((((((((((((((((((((((((((((((((((((((((((((((((((((((((((((((((((((((((((((((((((((((((((((((((((((((3iwwwwiwc!/^^^^^^^^^^^^^^^^f((((((((((((((((((((((((((((((((((((((((((((((((((((((J^^/!/!!//!(((((((((((((((((((((((((((((((((((((((((z/^^^^^^^^!7((((((((((((((((((((((((((((((((((((((((((((!^^!/!/!/!//!/!!/!//!/!!/!/!//!!//!/!//^^^^/!/W(((((((((((((((((((((((((((((((((((((((((((((((((((((((((((((((((((((((((((((((((((((((((((((((((((((((((((((((((((((",
"(((((((((((((((((((((((((((((((((((((((((((((((((((((((((((((((((((((((((((((((((((((((((((((((((((((((((((((((((((((((((((((((((((((((((((wwwwwwiwV^^^^^^^^^!^^^^^^^!((((((((((((((((((((((((((((((((((((((((((((((((((((((v^^^/!///!^f((((((((((((((((((((((((((((((((((((((((((D/^^^^^^^^!((((((((((((((((((((((((((((((((((((((((((((!///!/!/!/!!/!//!//!/!//!//!/!//!/!/!/!^^^^^^/!(((((((((((((((((((((((((((((((((((((((((((((((((((((((((((((((((((((((((((((((((((((((((((((((((((((((((((((((((((((",
"((((((((((((((((((((((((((((((((((((((((((((((((((((((((((((((((((((((((((((((((((((((((((((((((((((((((((((((((((((((((((((((((((((((((((@wwwwwwwsT^^^^^^^^^^^^^^^^/L(((((((((((((((((((((((((((((((((((((((((((((((((((((f~^^^!//!^/V((((((((((((((((((((((((((((((((((((((((((((I^^^^^^^^/R(((((((((((((((((((((((((((((((((((((((((((!!!!/!/!/!//!/!!/!//!/!!//!/!/!!/!/!/!/^^^^^^!Q(((((((((((((((((((((((((((((((((((((((((((((((((((((((((((((((((((((((((((((((((((((((((((((((((((((((((((((((((((((",
"((((((((((((((((((((((((((((((((((((((((((((((((((((((((((((((((((((((((((((((((((((((((((((((((((((((((((((((((((((((((((((((((((((((((((1wwwwwwwp!^^^^^^^^^^^^^^^^/z(((((((((((((((((((((((((((((((((((((((((((((((((((((!^^^^/!/!/J((((((((((((((((((((((((((((((((((((((((((((((!^^^^^^^^^D((((((((((((((((((((((((((((((((((((((((((!!//!/!/!!/!/!//!/!!/!/!/!/!//!/!/!/!/!^^^^^!/W(((((((((((((((((((((((((((((((((((((((((((((((((((((((((((((((((((((((((((((((((((((((((((((((((((((((((((((((((((((",
"((((((((((((((((((((((((((((((((((((((((((((((((((((((((((((((((((((((((((((((((((((((((((((((((((((((((((((((((((((((((((((((((((((((((((3wwwwwwwl!^^^^^^^^^^^^^^^^!(((((((((((((((((((((((((((((((((((((((((((((((((((((W^^^^^!/!/Y(((((((((((((((((((((((((((((((((((((((((((((((t^^^^^^^^^/x(((((((((((((((((((((((((((((((((((((((((!//!/!/!//!/!/!!/!//!/!/!/!/!//!/!/!/!/^^^^^^^W(((((((((((((((((((((((((((((((((((((((((((((((((((((((((((((((((((((((((((((((((((((((((((((((((((((((((((((((((((((",
"((((((((((((((((((((((((((((((((((((((((((((((((((((((((((((((((((((((((((((((((((((((((((((((((((((((((((((((((((((((((((((((((((((((((((qwwwwwwwT!!/!/^^!^^^^^^^^^I((((((((((((((((((((((((((((((((((((((((((((((((((((K^^^^^^^^^!:((((((((((((((((((((((((((((((((((((((((((((((((v^^^^^^^^^^u((((((((((((((((((((((((((((((((((((((((W!/!/!//!/!/!!/!/!/!//!!//!/!/!!/!/!//!^^^^^^^L(((((((((((((((((((((((((((((((((((((((((((((((((((((((((((((((((((((((((((((((((((((((((((((((((((((((((((((((((((((",
"(((((((((((((((((((((((((((((((((((((((((((((((((((((((((((((((((((((((((((((((((((((((((((((((((((((((((((((((((((((((((((((((((((((((((#wwwwwwwwE^/!/!^^^^^^^^^^^/V(((((((((((((((((((((((((((((((((((((((((((((((((((A^^^^^^^^^^j((((((((((((((((((((((((((((((((((((((((((((((((((J^^^^^^^^^!7(((((((((((((((((((((((((((((((((((((((L///!/!!/!/!//!/!/!//!//!/!!/!//!/!/!!/^^^^^!/A(((((((((((((((((((((((((((((((((((((((((((((((((((((((((((((((((((((((((((((((((((((((((((((((((((((((((((((((((((((",
"(((((((((((((((((((((((((((((((((((((((((((((((((((((((((((((((((((((((((((((((((((((((((((((((((((((((((((((((((((((((((((((((((((((((((,wwwwwwwpQ/!^^^^^^^^^^^^^^^(((((((((((((((((((((((((((((((((((((((((((((((((((x^/^^^^^^^^A((((((((((((((((((((((((((((((((((((((((((((((((((((I^^^^^^^^^Q(((((((((((((((((((((((((((((((((((((((V!!//!//!!//!//!/!/!//!!/!//!/!!/!/!//!^^^^^^^g(((((((((((((((((((((((((((((((((((((((((((((((((((((((((((((((((((((((((((((((((((((((((((((((((((((((((((((((((((((",
"(((((((((((((((((((((((((((((((((((((((((((((((((((((((((((((((((((((((((((((((((((((((((((((((((((((((((((((((((((((((((((((((((((((((((3wwwwwiwZ!^/^/!^^^^^^^^^^^~((((((((((((((((((((((((((((((((((((((((((((((((((g^^^^^^^^^^J((((((((((((((((((((((((((((((((((((((((((((((((((((((Q^^^^^^^^/I((((((((((((((((((((((((((((((((((((((u^/!!/!!//!!/!//!/!/!!//!/!!/!//!/!/!!/^^^^!/^((((((((((((((((((((((((((((((((((((((((((((((((((((((((((((((((((((((((((((((((((((((((((((((((((((((((((((((((((((((",
"(((((((((((((((((((((((((((((((((((((((((((((((((((((((((((((((((((((((((((((((((((((((((((((((((((((((((((((((((((((((((((((((((((((((((8wwwwwwwA!//!/!^^^^^^^^^^^L(((((((((((((((((((((((((((((((((((((((((((((((((r!^^^^^^^^^I(((((((((((((((((((((((((((((((((((((((((((((((((((((((7^^^^^^^^^^L((((((((((((((((((((((((((((((((((((((!!/!/!!/!//!/!!!/!/!/!!/!//!/!^^^/^^^^^^^^^/W((((((((((((((((((((((((((((((((((((((((((((((((((((((((((((((((((((((((((((((((((((((((((((((((((((((((((((((((((((((",
"((((((((((((((((((((((((((((((((((((((((((((((((((((((((((((((((((((((((((((((((((((((((((((((((((((((((((((((((((((((((((((((((((((((((@qwwwwwwpI/!!/!/^^^^^^^^^^/j(((((((((((((((((((((((((((((((((((((((((((((((((W^^^^^^^^^!(((((((((((((((((((((((((((((((((((((((((((((((((((((((((g^^^^^^^^^/A(((((((((((((((((((((((((((((((((((((J/!/!//!/!//!///!/!/!//!/!!////!!/!/!^^^^^^^V((((((((((((((((((((((((((((((((((((((((((((((((((((((((((((((((((((((((((((((((((((((((((((((((((((((((((((((((((((((",
"((((((((((((((((((((((((((((((((((((((((((((((((((((((((((((((((((((((((((((((((((((((((((((((((((((((((((((((((((((((((((((((((((((((((#wwwwwwqk!!//!/!^^^^^^^^^^^5((((((((((((((((((((((((((((((((((((((((((((((((I^^^^^^^^^^t((((((((((((((((((((((((((((((((((((((((((((((((((((((((((V/^^^^^^^^/v((((((((((((((((((((((((((((((((((((r!/!/!!/!/!//!/!/!/!/!!/!/!/!/^^^//^!/!^^^^^(((((((((((((((((((((((((((((((((((((((((((((((((((((((((((((((((((((((((((((((((((((((((((((((((((((((((((((((((((((((",
"((((((((((((((((((((((((((((((((((((((((((((((((((((((((((((((((((((((((((((((((((((((((((((((((((((((((((((((((((((((((((((((((((((((((1wwqwwwwl!//!/!/^^^^^^^^^^W((((((((((((((((((((((((((((((((((((((((((((((((J^^^^^^^^^^x((((((((((((((((((((((((((((((((((((((((((((((((((((((((((((J^^^^^^^^^^g((((((((((((((((((((((((((((((((((((E//!//!/!/!!/!/!/!/!//!/!/!/!/!^!^^^^/^^^/J(((((((((((((((((((((((((((((((((((((((((((((((((((((((((((((((((((((((((((((((((((((((((((((((((((((((((((((((((((((((",
"((((((((((((((((((((((((((((((((((((((((((((((((((((((((((((((((((((((((((((((((((((((((((((((((((((((((((((((((((((((((((((((((((((((((3wqwwwwwF!^^^^^^^^^^^^^^^^H(((((((((((((((((((((((((((((((((((((((((((((((D^^^^^^^^^^A((((((((((((((((((((((((((((((((((((((((((((((((((((((((((((((W^^^^^^^^^^r(((((((((((((((((((((((((((((((((((j^^^^^^!/^/^^^^^^^^^^^^^^!^^^^^^^^^^^!/!!/r(((((((((((((((((((((((((((((((((((((((((((((((((((((((((((((((((((((((((((((((((((((((((((((((((((((((((((((((((((((((",
"((((((((((((((((((((((((((((((((((((((((((((((((((((((((((((((((((((((((((((((((((((((((((((((((((((((((((((((((((((((((((((((((((((((((qwwwwwwwE^^^^^~^^^^^~^^^^^V((((((((((((((((((((((((((((((((((((((((((((((z^^^^^^^^^/L(((((((((((((((((((((((((((((((((((((((((((((((((((((((((((((((t^^^^^^^^^^!((((((((((((((((((((((((((((((((((((L^^^^^^^^!!^^^^^^^^^^^^^^^^^^^^^^^^^/!//F((((((((((((((((((((((((((((((((((((((((((((((((((((((((((((((((((((((((((((((((((((((((((((((((((((((((((((((((((((((((",
"((((((((((((((((((((((((((((((((((((((((((((((((((((((((((((((((((((((((((((((((((((((((((((((((((((((((((((((((((((((((((((((((((((((( qwwwwwwwE^^^^^^^^^^^^^^^^^((((((((((((((((((((((((((((((((((((((((((((((j^^^^^^^^^^U(((((((((((((((((((((((((((((((((((((((((((((((((((((((((((((((((j^^^^^^^^^^Q((((((((((((((((((((((((((((((((((((^^^^^^^^^/^^^^^^^~^^^^^^^^^^^^^^^^^!/!Q(((((((((((((((((((((((((((((((((((((((((((((((((((((((((((((((((((((((((((((((((((((((((((((((((((((((((((((((((((((((((",
"(((((((((((((((((((((((((((((((((((((((((((((((((((((((((((((((((((((((((((((((((((((((((((((((((((((((((((((((((((((((((((((((((((((((#wwwwwwwdQ^^^^^^^^^^^^^^^^~(((((((((((((((((((((((((((((((((((((((((((((t^^^^^^^^^^!(((((((((((((((((((((((((((((((((((((((((((((((((((((((((((((((((((A^^^^^^^^^/I(((((((((((((((((((((((((((((((((((V^^^^^^^/!^~^^^^^^^^^^~^^^^^^^^^^^!/!/p(((((((((((((((((((((((((((((((((((((((((((((((((((((((((((((((((((((((((((((((((((((((((((((((((((((((((((((((((((((((((",
"(((((((((((((((((((((((((((((((((((((((((((((((((((((((((((((((((((((((((((((((((((((((((((((((((((((((((((((((((((((((((((((((((((((((,qwqwwwwZ^^^^^^^^~^^^^^^^/H((((((((((((((((((((((((((((((((((((((((((((7!/^!^^^^^^~t((((((((((((((((((((((((((((((((((((((((((((((((((((((((((((((((((((J/^^^^^^^^/L(((((((((((((((((((((((((((((((((((D//!/!!^!/^^^^^^^^^^^^^^^^!^^^^^^^//J((((((((((((((((((((((((((((((((((((((((((((((((((((((((((((((((((((((((((((((((((((((((((((((((((((((((((((((((((((((((((",
"(((((((((((((((((((((((((((((((((((((((((((((((((((((((((((((((((((((((((((((((((((((((((((((((((((((((((((((((((((((((((((((((((((((((3wwwwwwqF^^^^^^^~^^^^^~^^/c((((((((((((((((((((((((((((((((((((((((((((!^!^/^^^^^^j((((((((((((((((((((((((((((((((((((((((((((((((((((((((((((((((((((((I^^^^^^^^^/D(((((((((((((((((((((((((((((((((((L//!//^^^^^^^^^^^^^^^^^^^^^^^^^^^!/c((((((((((((((((((((((((((((((((((((((((((((((((((((((((((((((((((((((((((((((((((((((((((((((((((((((((((((((((((((((((((",
"(((((((((((((((((((((((((((((((((((((((((((((((((((((((((((((((((((((((((((((((((((((((((((((((((((((((((((((((((((((((((((((((((((((((3wwwwwwqH^^^^^^^^^^^^^^^^/i(((((((((((((((((((((((((((((((((((((((((((W/^^^/^/!^^A((((((((((((((((((((((((((((((((((((((((((((((((((((((((((((((((((((((((W^^^^^^^^^^A(((((((((((((((((((((((((((((((((((L!/!/!!/^^^^^^^^^^^^^^^^^^^^^^^^//F((((((((((((((((((((((((((((((((((((((((((((((((((((((((((((((((((((((((((((((((((((((((((((((((((((((((((((((((((((((((((",
"(((((((((((((((((((((((((((((((((((((((((((((((((((((((((((((((((((((((((((((((((((((((((((((((((((((((((((((((((((((((((((((((((((((((qwqwwwwpR^^^^^^^^^^^^^^^^~(((((((((((((((((((((((((((((((((((((((((((L^^^^^!^^^/D((((((((((((((((((((((((((((((((((((((((((((((((((((((((((((((((((((((((((!^^^^^^^^^/V(((((((((((((((((((((((((((((((((((J/!/^^^^^~^^^~^^^^!^^^^^^^^^^^^!!R((((((((((((((((((((((((((((((((((((((((((((((((((((((((((((((((((((((((((((((((((((((((((((((((((((((((((((((((((((((((((",
"(((((((((((((((((((((((((((((((((((((((((((((((((((((((((((((((((((((((((((((((((((((((((((((((((((((((((((((((((((((((((((((((((((((((qwwqwwqn~^^^^^^^^^^^^^^^^E((((((((((((((((((((((((((((((((((((((((((J^^^^^^^^^/L(((((((((((((((((((((((((((((((((((((((((((((((((((((((((((((((((((((((((((t~^^^^^^^^^^z(((((((((((((((((((((((((((((((((((A!/^^^^^^^^^^^!/!//!/!^^!/!^!/^/E((((((((((((((((((((((((((((((((((((((((((((((((((((((((((((((((((((((((((((((((((((((((((((((((((((((((((((((((((((((((((",
"((((((((((((((((((((((((((((((((((((((((((((((((((((((((((((((((((((((((((((((((((((((((((((((((((((((((((((((((((((((((((((((((((((((@qwqwwwqn~^^^^^~^^^^^^^^^/J(((((((((((((((((((((((((((((((((((((((((J/^^^^^^!^/I(((((((((((((((((((((((((((((((((((((((((((((((((((((((((((((((((((((((((((((f^^^^^^^^^^^j((((((((((((((((((((((((((((((((((((L^^^^^^^^^^^/!/!!/!/^^/!/!^!!^!((((((((((((((((((((((((((((((((((((((((((((((((((((((((((((((((((((((((((((((((((((((((((((((((((((((((((((((((((((((((((",
"((((((((((((((((((((((((((((((((((((((((((((((((((((((((((((((((((((((((((((((((((((((((((((((((((((((((((((((((((((((((((((((((((((((@wwwwwwqm^^^^^^^^^^^^^^^^/V((((((((((((((((((((((((((((((((((((((((D^^^^^^/!//Q(((((((((((((((((((((((((((((((((((((((((((((((((((((((((((((((((((((((((((((((z^^^^^^^^^^^u((((((((((((((((((((((((((((((((((((fE//^^^^^^^!/!//!/!^^^Q!^!^^^/((((((((((((((((((((((((((((((((((((((((((((((((((((((((((((((((((((((((((((((((((((((((((((((((((((((((((((((((((((((((((",
"((((((((((((((((((((((((((((((((((((((((((((((((((((((((((((((((((((((((((((((((((((((((((((((((((((((((((((((((((((((((((((((((((((((>wqwwwwwF^^^^~^^^^^^^^^^^^p(((((((((((((((((((((((((((((((((((((((A^^^^^^^!/!!(((((((((((((((((((((((((((((((((((((((((((((((((((((((((((((((((((((((((((((((((A/^^^^^^^^^^u(((((((((((((((((((((((((((((((((((((tD!^^^^^^/!//!/!/^^!L!^!^!^/r(((((((((((((((((((((((((((((((((((((((((((((((((((((((((((((((((((((((((((((((((((((((((((((((((((((((((((((((((((((((((",
"((((((((((((((((((((((((((((((((((((((((((((((((((((((((((((((((((((((((((((((((((((((((((((((((((((((((((((((((((((((((((((((((((((((1wwwwwweR/^^^^^^^^^^^~^^^^(((((((((((((((((((((((((((((((((((((((A^^^^^^^^//!f((((((((((((((((((((((((((((((((((((((((((((((((((((((((((((((((((((((((((((((((((D/^^^^^^^^^^t((((((((((((((((((((((((((((((((((((((v^^^^^^!/!//!/!!/!W!!^^/!/g(((((((((((((((((((((((((((((((((((((((((((((((((((((((((((((((((((((((((((((((((((((((((((((((((((((((((((((((((((((((((",
"((((((((((((((((((((((((((((((((((((((((((((((((((((((((((((((((((((((((((((((((((((((((((((((((((((((((((((((((((((((((((((((((((((((1wwqwwqwQ/^^^^^^^^^^^^^^^!((((((((((((((((((((((((((((((((((((((N^^^^^^^^^/!j((((((((((((((((((((((((((((((((((((((((((((((((((((((((((((((((((((((((((((((((((((J^^^^^^^^^^!r((((((((((((((((((((((((((((((((((((((^^^^^^/!/!!/!//!/!!^!^!~/v(((((((((((((((((((((((((((((((((((((((((((((((((((((((((((((((((((((((((((((((((((((((((((((((((((((((((((((((((((((((((",
"((((((((((((((((((((((((((((((((((((((((((((((((((((((((((((((((((((((((((((((((((((((((((((((((((((((((((((((((((((((((((((((((((((((1wqwwwwwQ^^^^~^^^~^^^^^^^E(((((((((((((((((((((((((((((((((((((x^^^^^^^^^^!x((((((((((((((((((((((((((((((((((((((((((((((((((((((((((((((((((((((((((((((((((((((L/^^^^^^^^^^7(((((((((((((((((((((((((((((((((((((!^^^^^/!!/!/!/!//!W^!^^^/A(((((((((((((((((((((((((((((((((((((((((((((((((((((((((((((((((((((((((((((((((((((((((((((((((((((((((((((((((((((((((",
"((((((((((((((((((((((((((((((((((((((((((((((((((((((((((((((((((((((((((((((((((((((((((((((((((((((((((((((((((((((((((((((((((((((3wwqwwwwQ^^^^^^^^^^^^^^^/H((((((((((((((((((((((((((((((((((((x^^^^^^^^^^^A((((((((((((((((((((((((((((((((((((((((((((((((((((((((((((((((((((((((((((((((((((((((E^^^^^^^^^^!r((((((((((((((((((((((((((((((((((((E^^^^^!/!//!/!/!!QE!^^!/!T(((((((((((((((((((((((((((((((((((((((((((((((((((((((((((((((((((((((((((((((((((((((((((((((((((((((((((((((((((((((((",
"((((((((((((((((((((((((((((((((((((((((((((((((((((((((((((((((((((((((((((((((((((((((((((((((((((((((((((((((((((((((((((((((((((((qwqwwwweQ^~^~^^^^^^^^^^^/V(((((((((((((((((((((((((((((((((((v^^^^^^^^^!/A((((((((((((((((((((((((((((((((((((((((((((((((((((((((((((((((((((((((((((((((((((((((((E/^^^^^^^^^^r(((((((((((((((((((((((((((((((((((J^^^^^/!/!//!//!/!I!/!!/!Q(((((((((((((((((((((((((((((((((((((((((((((((((((((((((((((((((((((((((((((((((((((((((((((((((((((((((((((((((((((((((",
"((((((((((((((((((((((((((((((((((((((((((((((((((((((((((((((((((((((((((((((((((((((((((((((((((((((((((((((((((((((((((((((((((((((qwwwqwwm~^^^^^^^^^^^~^^^/l((((((((((((((((((((((((((((((((((v^^^^^^^^^^^A((((((((((((((((((((((((((((((((((((((((((((((((((((((((((((((((((((((((((((((((((((((((((((W^^^^^^^^^^!7((((((((((((((((((((((((((((((((((D/^^^^!/!/!//!!//!E!!!/!!!(((((((((((((((((((((((((((((((((((((((((((((((((((((((((((((((((((((((((((((((((((((((((((((((((((((((((((((((((((((((((",
"((((((((((((((((((((((((((((((((((((((((((((((((((((((((((((((((((((((((((((((((((((((((((((((((((((((((((((((((((((((((((((((((((((((qqqwwwwF~^^^^^^^^^^^^^^^/i(((((((((((((((((((((((((((((((((v//^^^^^^^^^D((((((((((((((((((((((((((((((((((((((((((((((((((((((((((((((((((((((((((((((((((((((((((((((W/^^^^^^^^^^t(((((((((((((((((((((((((((((((((x^^^^^/!/!!/!//!/!!!!!!!/!(((((((((((((((((((((((((((((((((((((((((((((((((((((((((((((((((((((((((((((((((((((((((((((((((((((((((((((((((((((((((",
"((((((((((((((((((((((((((((((((((((((((((((((((((((((((((((((((((((((((((((((((((((((((((((((((((((((((((((((((((((((((((((((((((((((qwqwwwwH^~^^^^^^^^^^^^^^/(((((((((((((((((((((((((((((((((v^!/^^^^^^^^J((((((((((((((((((((((((((((((((((((((((((((((((((((((((((((((((((((((((((((((((((((((((((((((((!^^^^^^^^^^!t((((((((((((((((((((((((((((((((j^^^^^!/!//!/!!/!!!!!!!/!!(((((((((((((((((((((((((((((((((((((((((((((((((((((((((((((((((((((((((((((((((((((((((((((((((((((((((((((((((((((((((",
"((((((((((((((((((((((((((((((((((((((((((((((((((((((((((((((((((((((((((((((((((((((((((((((((((((((((((((((((((((((((((((((((((((((wwwwwqwH^^^^^^^^^^^^^^^^/((((((((((((((((((((((((((((((((A^!/!^^^^^^^J((((((((((((((((((((((((((((((((((((((((((((((((((((((((((((((((((((((((((((((((((((((((((((((((((Q^^^^^^^^^^~f(((((((((((((((((((((((((((((((u^^^^^/!/!!/!/!/!/!/!/!//!(((((((((((((((((((((((((((((((((((((((((((((((((((((((((((((((((((((((((((((((((((((((((((((((((((((((((((((((((((((((((",
"((((((((((((((((((((((((((((((((((((((((((((((((((((((((((((((((((((((((((((((((((((((((((((((((((((((((((((((((((((((((((((((((((((((qwqwwwqH^^^^^^~^^^^^^~^^~(((((((((((((((((((((((((((((((F^/^!/^/!/^^L((((((((((((((((((((((((((((((((((((((((((((((((((((((((((((((((((((((((((((((((((((((((((((((((((((!^^^^^^^^^^^j((((((((((((((((((((((((((((((:^^^^^!/!//!/!///!!!!!!!/!(((((((((((((((((((((((((((((((((((((((((((((((((((((((((((((((((((((((((((((((((((((((((((((((((((((((((((((((((((((((((",
"((((((((((((((((((((((((((((((((((((((((((((((((((((((((((((((((((((((((((((((((((((((((((((((((((((((((((((((((((((((((((((((((((((((qwqwwwqH/^^^^~^^^^^^^^^^E((((((((((((((((((((((((((((((J!/^^^/!//!/L(((((((((((((((((((((((((((((((((((((((((((((((((((((((((((((((((((((((((((((((((((((((((((((((((((((7!^^^^^^^^^^^x((((((((((((((((((((((((((((((!^^^^/!/!/!!//!!!!!!//!!!(((((((((((((((((((((((((((((((((((((((((((((((((((((((((((((((((((((((((((((((((((((((((((((((((((((((((((((((((((((((((",
"((((((((((((((((((((((((((((((((((((((((((((((((((((((((((((((((((((((((((((((((((((((((((((((((((((((((((((((((((((((((((((((((((((((qwwwwwqH^^^^^^^^^^^^^^^/Q(((((((((((((((((((((((((((((J//!/!^!^^!^R(((((((((((((((((((((((((((((((((((((((((((((((((((((((((((((((((((((((((((((((((((((((((((((((((((((((7!^^^^^^^^^^^V(((((((((((((((((((((((((((((!^^^^!/!/!//!!/!!!!!!/!/!(((((((((((((((((((((((((((((((((((((((((((((((((((((((((((((((((((((((((((((((((((((((((((((((((((((((((((((((((((((((((",
"((((((((((((((((((((((((((((((((((((((((((((((((((((((((((((((((((((((((((((((((((((((((((((((((((((((((((((((((((((((((((((((((((((((wwwwwwqH^^^^^~^^~^^^^^~/E((((((((((((((((((((((((((((R^^^^/!//!//R(((((((((((((((((((((((((((((((((((((((((((((((((((((((((((((((((((((((((((((((((((((((((((((((((((((((((r!^^^^^^^^^^^D((((((((((((((((((((((((((((!/^^^/!//!/!/!/!/E!!!!//Q(((((((((((((((((((((((((((((((((((((((((((((((((((((((((((((((((((((((((((((((((((((((((((((((((((((((((((((((((((((((((",
"((((((((((((((((((((((((((((((((((((((((((((((((((((((((((((((((((((((((((((((((((((((((((((((((((((((((((((((((((((((((((((((((((((((qwwqqwqH^^^^^^^^^^^^^^/^E(((((((((((((((((((((((((((E/^^^^!/!//!T(((((((((((((((((((((((((((((((((((((((((((((((((((((((((((((((((((((((((((((((((((((((((((((((((((((((((((7Q^^^^^^^^^^^L(((((((((((((((((((((((((((!^^^^!//!/!/!/!!/Q!!!/!!R(((((((((((((((((((((((((((((((((((((((((((((((((((((((((((((((((((((((((((((((((((((((((((((((((((((((((((((((((((((((((",
"((((((((((((((((((((((((((((((((((((((((((((((((((((((((((((((((((((((((((((((((((((((((((((((((((((((((((((((((((((((((((((((((((((((3wqwqwqH^^^^^^^^^^^^^^~/Q(((((((((((((((((((((((((5Q^^^^^^/!/!/R((((((((((((((((((((((((((((((((((((((((((((((((((((((((((((((((((((((((((((((((((((((((((((((((((((((((((((((!^^^^^^^^^^^I((((((((((((((((((((((((((!^^^^!/!////!!//!!!/!!/!R(((((((((((((((((((((((((((((((((((((((((((((((((((((((((((((((((((((((((((((((((((((((((((((((((((((((((((((((((((((((((",
"((((((((((((((((((((((((((((((((((((((((((((((((((((((((((((((((((((((((((((((((((((((((((((((((((((((((((((((((((((((((((((((((((((((3wwwwwqH/^^^^^^^^^~^^^~/Q((((((((((((((((((((((((g!/^^^^^^!/!!J((((((((((((((((((((((((((((((((((((((((((((((((((((((((((((((((((((((((((((((((((((((((((((((((((((((((((((((((Y^^^^^^^^^^^!5((((((((((((((((((((((((!^^^^/!/!!/!///!/!!!!!!!A(((((((((((((((((((((((((((((((((((((((((((((((((((((((((((((((((((((((((((((((((((((((((((((((((((((((((((((((((((((((((",
"((((((((((((((((((((((((((((((((((((((((((((((((((((((((((((((((((((((((((((((((((((((((((((((((((((((((((((((((((((((((((((((((((((((>wwqqwqH^^^^^^^^^^^^^^^^!(((((((((((((((((((((((z^^^^^^^^^^^^T((((((((((((((((((((((((((((((((((((((((((((((((((((((((((((((((((((((((((((((((((((((((((((((((((((((((((((((((((W/^^^^^^^^^^^f(((((((((((((((((((((((!!/!/!//!/!/!!//!!!!//!/c(((((((((((((((((((((((((((((((((((((((((((((((((((((((((((((((((((((((((((((((((((((((((((((((((((((((((((((((((((((((((",
"((((((((((((((((((((((((((((((((((((((((((((((((((((((((((((((((((((((((((((((((((((((((((((((((((((((((((((((((((((((((((((((((((((((>wqwwwwH^^^^^^^^^^^^^^^^^((((((((((((((((((((((D^^^^^^^^^!^/F((((((((((((((((((((((((((((((((((((((((((((((((((((((((((((((((((((((((((((((((((((((((((((((((((((((((((((((((((((I^^^^^^^^^^^^A(((((((((((((((((((((r^/!/!/!/!!/!//!!!!!!/!//g(((((((((((((((((((((((((((((((((((((((((((((((((((((((((((((((((((((((((((((((((((((((((((((((((((((((((((((((((((((((((",
"((((((((((((((((((((((((((((((((((((((((((((((((((((((((((((((((((((((((((((((((((((((((((((((((((((((((((((((((((((((((((((((((((((((#wwqwwwF~^^^~^^^^^^^^^^^/(((((((((((((((((((((E/^^^^^^^^^^^A((((((((((((((((((((((((((((((((((((((((((((((((((((((((((((((((((((((((((((((((((((((((((((((((((((((((((((((((((((((L/^^^^^^^^^^^J((((((((((((((((((((z/!/!/!/!//!/!!/!!!!!!/!/((((((((((((((((((((((((((((((((((((((((((((((((((((((((((((((((((((((((((((((((((((((((((((((((((((((((((((((((((((((((((",
"((((((((((((((((((((((((((((((((((((((((((((((((((((((((((((((((((((((((((((((((((((((((((((((((((((((((((((((((((((((((((((((((((((((@qwwwwws!^^^^^^^^~^^^^^^/p((((((((((((((((((uQ^^^^^^^^^^^^B((((((((((((((((((((((((((((((((((((((((((((((((((((((((((((((((((((((((((((((((((((((((((((((((((((((((((((((((((((((((J^^^^^^^^^^^/W(((((((((((((((((((x//!///!/!!/!//!/!!!!!!/!((((((((((((((((((((((((((((((((((((((((((((((((((((((((((((((((((((((((((((((((((((((((((((((((((((((((((((((((((((((((((",
"(((((((((((((((((((((((((((((((((((((((((((((((((((((((((((((((((((((((((((((((((((((((((((((((((((((((((((((((((((((((((((((((((((((((qwwwqqpQ/^^^^^^^^^^^^^^^V(((((((((((((((((v^^^^^^^^/!/!!g((((((((((((((((((((((((((((((((((((((((((((((((((((((((((((((((((((((((((((((((((((((((((((((((((((((((((((((((((((((((((Z^^^^^^^^^^^^^j(((((((((((((((((J//!/!!/!/!//!^^^WR~~^^^L((((((((((((((((((((((((((((((((((((((((((((((((((((((((((((((((((((((((((((((((((((((((((((((((((((((((((((((((((((((((((",
"(((((((((((((((((((((((((((((((((((((((((((((((((((((((((((((((((((((((((((((((((((((((((((((((((((((((((((((((((((((((((((((((((((((((3wwwwwiQ!^^^^^^^^^^^^^^/E((((((((((((((((L^^^^^^^^^!//!t((((((((((((((((((((((((((((((((((((((((((((((((((((((((((((((((((((((((((((((((((((((((((((((((((((((((((((((((((((((((((((x^^^^^^^^^^^^^D((((((((((((((((!!!/!//!/!//!/^^^!W~~~!^A((((((((((((((((((((((((((((((((((((((((((((((((((((((((((((((((((((((((((((((((((((((((((((((((((((((((((((((((((((((((((",
"((((((((((((((((((((((((((((((((((((((((((((((((((((((((((((((((((((((((((((((((((((((((((((((((((((((((((((((((((((((((((((((((((((((($qwwwwiR/^^^^^^^^^^^^^^^^((((((((((((((u!/^^^^^^^!^^!W(((((((((((((((((((((((((((((((((((((((((((((((((((((((((((((((((((((((((((((((((((((((((((((((((((((((((((((((((((((((((((((((t!^^^^^^^^^^^/!r(((((((((((((g!//!/!!/!/!//!^^^!!^^~^^r((((((((((((((((((((((((((((((((((((((((((((((((((((((((((((((((((((((((((((((((((((((((((((((((((((((((((((((((((((((((((",
"((((((((((((((((((((((((((((((((((((((((((((((((((((((((((((((((((((((((((((((((((((((((((((((((((((((((((((((((((((((((((((((((((((((((qwwwwwZ^^^^^^!^^^^^^^!^/A((((((((((((D^^^^^^^^^^/^/I(((((((((((((((((((((((((((((((((((((((((((((((((((((((((((((((((((((((((((((((((((((((((((((((((((((((((((((((((((((((((((((((((5!/^^^^^^^^^^^^A((((((((((((E/!!/!//!/!/!!/^^!R!~~~^!(((((((((((((((((((((((((((((((((((((((((((((((((((((((((((((((((((((((((((((((((((((((((((((((((((((((((((((((((((((((((((",
"((((((((((((((((((((((((((((((((((((((((((((((((((((((((((((((((((((((((((((((((((((((((((((((((((((((((((((((((((((((((((((((((((((((((3wwwwqn~^/!/^^^^^^^^^^^^!((((((((((uQ^^^^^^^^^^^^^J((((((((((((((((((((((((((((((((((((((((((((((((((((((((((((((((((((((((((((((((((((((((((((((((((((((((((((((((((((((((((((((((((((L/^^^^^^^^^^^^Yr(((((((((t!!//!/!!!/!/!/!^^!W!~^~^D(((((((((((((((((((((((((((((((((((((((((((((((((((((((((((((((((((((((((((((((((((((((((((((((((((((((((((((((((((((((((((",
"((((((((((((((((((((((((((((((((((((((((((((((((((((((((((((((((((((((((((((((((((((((((((((((((((((((((((((((((((((((((((((((((((((((((#wqwwwpE/!/!^^^^^^^^^^^^^E((((((((J^^^^^^^^^^^!/~j((((((((((((((((((((((((((((((((((((((((((((((((((((((((((((((((((((((((((((((((((((((((((((((((((((((((((((((((((((((((((((((((((((((A^^^^^^^^^^^^//J((((((((!/!!!/!///!/!/!/^^W!~~~^^((((((((((((((((((((((((((((((((((((((((((((((((((((((((((((((((((((((((((((((((((((((((((((((((((((((((((((((((((((((((((((",
"(((((((((((((((((((((((((((((((((((((((((((((((((((((((((((((((((((((((((((((((((((((((((((((((((((((((((((((((((((((((((((((((((((((((((qwwwwqF/^!/^^^^!^^^^^^^^/E(((((x!^^^^^^^^^^!^/Qr((((((((((((((((((((((((((((((((((((((((((((((((((((((((((((((((((((((((((((((((((((((((((((((((((((((((((((((((((((((((((((((((((((((((g~^^^^^^^^^^^!/!V((((tQ///!/!/!/!/!/!/!!!EQ~~~^L((((((((((((((((((((((((((((((((((((((((((((((((((((((((((((((((((((((((((((((((((((((((((((((((((((((((((((((((((((((((((((",
"((((((((((((((((((((((((((((((((((((((((((((((((((((((((((((((((((((((((((((((((((((((((((((((((((((((((((((((((((((((((((((((((((((((((($wwwwwn!^^^^^^^^^^^^^^!^^^^EJR^/^^^^^^^^^^^^^J((((((((((((((((((((((((((((((((((((((((((((((((((((((((((((((((((((((((((((((((((((((((((((((((((((((((((((((((((((((((((((((((((((((((((((E^^^^^^^^^^^^^/^IKQ^^!/!/!/!/!/!/!/!//QQ!^!^^t((((((((((((((((((((((((((((((((((((((((((((((((((((((((((((((((((((((((((((((((((((((((((((((((((((((((((((((((((((((((((((",
"((((((((((((((((((((((((((((((((((((((((((((((((((((((((((((((((((((((((((((((((((((((((((((((((((((((((((((((((((((((((((((((((((((((((((8wwwwwJ^!/!/!/^^^~^^^^^^^^^/^^^^^^^^^^^^^^~A((((((((((((((((((((((((((((((((((((((((((((((((((((((((((((((((((((((((((((((((((((((((((((((((((((((((((((((((((((((((((((((((((((((((((((((J^^^^^^!^^^^^^^///!/!/!/!/!//!!/!/!/^YQ^~~^J(((((((((((((((((((((((((((((((((((((((((((((((((((((((((((((((((((((((((((((((((((((((((((((((((((((((((((((((((((((((((((((",
"((((((((((((((((((((((((((((((((((((((((((((((((((((((((((((((((((((((((((((((((((((((((((((((((((((((((((((((((((((((((((((((((((((((((((@qwwwwd!/!/!/!^^^^^^^^^^^^^^^^^^^^^^^^^^^Wr((((((((((((((((((((((((((((((((((((((((((((((((((((((((((((((((((((((((((((((((((((((((((((((((((((((((((((((((((((((((((((((((((((((((((((((((f!^^^^^^!^^^^/!!//!/!/!/!/!!//!/!/!QI!!!^!((((((((((((((((((((((((((((((((((((((((((((((((((((((((((((((((((((((((((((((((((((((((((((((((((((((((((((((((((((((((((((((",
"(((((((((((((((((((((((((((((((((((((((((((((((((((((((((((((((((((((((((((((((((((((((((((((((((((((((((((((((((((((((((((((((((((((((((((,wwwwwA!//!/!^^^^^^^^^^^^^!^^^^^^^^^^/!S((((((((((((((((((((((((((((((((((((((((((((((((((((((((((((((((((((((((((((((((((((((((((((((((((((((((((((((((((((((((((((((((((((((((((((((((((((J/^^^^^^^!^^^/!////!/!/!//!//!/!!I!^!^~a((((((((((((((((((((((((((((((((((((((((((((((((((((((((((((((((((((((((((((((((((((((((((((((((((((((((((((((((((((((((((((((",
"((((((((((((((((((((((((((((((((((((((((((((((((((((((((((((((((((((((((((((((((((((((((((((((((((((((((((((((((((((((((((((((((((((((((((((1wwww0T!!/!/^^^^^^^^!^^^^^^^^^^^^^^^Wt((((((((((((((((((((((((((((((((((((((((((((((((((((((((((((((((((((((((((((((((((((((((((((((((((((((((((((((((((((((((((((((((((((((((((((((((((((((f!/^^^^^/^/!!/!!!!/!/!/!!/!//!!!Y~!~^z(((((((((((((((((((((((((((((((((((((((((((((((((((((((((((((((((((((((((((((((((((((((((((((((((((((((((((((((((((((((((((((((",
"(((((((((((((((((((((((((((((((((((((((((((((((((((((((((((((((((((((((((((((((((((((((((((((((((((((((((((((((((((((((((((((((((((((((((((((3swiwiT/!/!^^^^^^^^^^^^^^^^^^^^^^~D((((((((((((((((((((((((((((((((((((((((((((((((((((((((((((((((((((((((((((((((((((((((((((((((((((((((((((((((((((((((((((((((((((((((((((((((((((((((((D^^^^^^^!/!/!//!/!/!!/!/!!!!!!!~~^A((((((((((((((((((((((((((((((((((((((((((((((((((((((((((((((((((((((((((((((((((((((((((((((((((((((((((((((((((((((((((((((((",
"((((((((((((((((((((((((((((((((((((((((((((((((((((((((((((((((((((((((((((((((((((((((((((((((((((((((((((((((((((((((((((((((((((((((((((((3wwiwpR!!/^^^^^^^^^^^^^^^^^^^^^L(((((((((((((((((((((((((((((((((((((((((((((((((((((((((((((((((((((((((((((((((((((((((((((((((((((((((((((((((((((((((((((((((((((((((((((((((((((((((((((rL^/^!^/!/!/!!/!/!//!/!/!!!Q!!^^N(((((((((((((((((((((((((((((((((((((((((((((((((((((((((((((((((((((((((((((((((((((((((((((((((((((((((((((((((((((((((((((((((",
"(((((((((((((((((((((((((((((((((((((((((((((((((((((((((((((((((((((((((((((((((((((((((((((((((((((((((((((((((((((((((((((((((((((((((((((((>wiwwiA!/^^^^^^^^^^^^^^^^^^^Et((((((((((((((((((((((((((((((((((((((((((((((((((((((((((((((((((((((((((((((((((((((((((((((((((((((((((((((((((((((((((((((((((((((((((((((((((((((((((((((((uW^/!//!/!//!/!//!/!/!!I!!!^Ql((((((((((((((((((((((((((((((((((((((((((((((((((((((((((((((((((((((((((((((((((((((((((((((((((((((((((((((((((((((((((((((((((",
"(((((((((((((((((((((((((((((((((((((((((((((((((((((((((((((((((((((((((((((((((((((((((((((((((((((((((((((((((((((((((((((((((((((((((((((((((8iswplE^^^^^^^^^^^^^^^^^Ej((((((((((((((((((((((((((((((((((((((((((((((((((((((((((((((((((((((((((((((((((((((((((((((((((((((((((((((((((((((((((((((((((((((((((((((((((((((((((((((((((((jQ//!/!/!!/!/!//!!!QIQ!!!L((((((((((((((((((((((((((((((((((((((((((((((((((((((((((((((((((((((((((((((((((((((((((((((((((((((((((((((((((((((((((((((((((((",
"((((((((((((((((((((((((((((((((((((((((((((((((((((((((((((((((((((((((((((((((((((((((((((((((((((((((((((((((((((((((((((((((((((((((((((((((((o8ise0BT!^^^^^^^^^^^!Jt((((((((((((((((((((((((((((((((((((((((((((((((((((((((((((((((((((((((((((((((((((((((((((((((((((((((((((((((((((((((((((((((((((((((((((((((((((((((((((((((((((((((rJ^/^^^^^^^^^^~!QE!~~If(((((((((((((((((((((((((((((((((((((((((((((((((((((((((((((((((((((((((((((((((((((((((((((((((((((((((((((((((((((((((((((((((((((",
"((((((((((((((((((((((((((((((((((((((((((((((((((((((((((((((((((((((((((((((((((((((((((((((((((((((((((((((((((((((((((((((((((((((((((((((((((((@8eseilJW^/^^/^!YV((((((((((((((((((((((((((((((((((((((((((((((((((((((((((((((((((((((((((((((((((((((((((((((((((((((((((((((((((((((((((((((((((((((((((((((((((((((((((((((((((((((((((((((vW!^//^^!!WL!!!!Ju(((((((((((((((((((((((((((((((((((((((((((((((((((((((((((((((((((((((((((((((((((((((((((((((((((((((((((((((((((((((((((((((((((((((",
"(((((((((((((((((((((((((((((((((((((((((((((((((((((((((((((((((((((((((((((((((((((((((((((((((((((((((((((((((((((((((((((((((((((((((((((((((((((((>3eiesVDREAf((((((((((((((((((((((((((((((((((((((((((((((((((((((((((((((((((((((((((((((((((((((((((((((((((((((((((((((((((((((((((((((((((((((((((((((((((((((((((((((((((((((((((((((((((((uVLIWYLWYIAf((((((((((((((((((((((((((((((((((((((((((((((((((((((((((((((((((((((((((((((((((((((((((((((((((((((((((((((((((((((((((((((((((((((((((",
"(((((((((((((((((((((((((((((((((((((((((((((((((((((((((((((((((((((((((((((((((((((((((((((((((((((((((((((((((((((((((((((((((((((((((((((((((((((((((((((((((((((((((((((((((((((((((((((((((((((((((((((((((((((((((((((((((((((((((((((((((((((((((((((((((((((((((((((((((((((((((((((((((((((((((((((((((((((((((((((((((((((((((((((((((((((((((((((((((((((((((((((((((((((((((((((((((((((((((((((((((((((((((((((((((((((((((((((((((((((((((((((((((((((((((((((((((((((((((((((((((((((((((((((",
"(((((((((((((((((((((((((((((((((((((((((((((((((((((((((((((((((((((((((((((((((((((((((((((((((((((((((((((((((((((((((((((((((((((((((((((((((((((((((((((((((((((((((((((((((((((((((((((((((((((((((((((((((((((((((((((((((((((((((((((((((((((((((((((((((((((((((((((((((((((((((((((((((((((((((((((((((((((((((((((((((((((((((((((((((((((((((((((((((((((((((((((((((((((((((((((((((((((((((((((((((((((((((((((((((((((((((((((((((((((((((((((((((((((((((((((((((((((((((((((((((((((((((((((",
"(((((((((((((((((((((((((((((((((((((((((((((((((((((((((((((((((((((((((((((((((((((((((((((((((((((((((((((((((((((((((((((((((((((((((((((((((((((((((((((((((((((((((((((((((((((((((((((((((((((((((((((((((((((((((((((((((((((((((((((((((((((((((((((((((((((((((((((((((((((((((((((((((((((((((((((((((((((((((((((((((((((((((((((((((((((((((((((((((((((((((((((((((((((((((((((((((((((((((((((((((((((((((((((((((((((((((((((((((((((((((((((((((((((((((((((((((((((((((((((((((((((((((((((",
"(((((((((((((((((((((((((((((((((((((((((((((((((((((((((((((((((((((((((((((((((((((((((((((((((((((((((((((((((((((((((((((((((((((((((((((((((((((((((((((((((((((((((((((((((((((((((((((((((((((((((((((((((((((((((((((((((((((((((((((((((((((((((((((((((((((((((((((((((((((((((((((((((((((((((((((((((((((((((((((((((((((((((((((((((((((((((((((((((((((((((((((((((((((((((((((((((((((((((((((((((((((((((((((((((((((((((((((((((((((((((((((((((((((((((((((((((((((((((((((((((((((((((((((",
"(((((((((((((((((((((((((((((((((((((((((((((((((((((((((((((((((((((((((((((((((((((((((((((((((((((((((((((((((((((((((((((((((((((((((((((((((((((((((((((((((((((((((((((((((((((((((((((((((((((((((((((((((((((((((((((((((((((((((((((((((((((((((((((((((((((((((((((((((((((((((((((((((((((((((((((((((((((((((((((((((((((((((((((((((((((((((((((((((((((((((((((((((((((((((((((((((((((((((((((((((((((((((((((((((((((((((((((((((((((((((((((((((((((((((((((((((((((((((((((((((((((((((((((",
"(((((((((((((((((((((((((((((((((((((((((((((((((((((((((((((((((((((((((((((((((((((((((((((((((((((((((((((((((((((((((((((((((((((((((((((((((((((((((((((((((((((((((((((((((((((((((((((((((((((((((((((((((((((((((((((((((((((((((((((((((((((((((((((((((((((((((((((((((((((((((((((((((((((((((((((((((((((((((((((((((((((((((((((((((((((((((((((((((((((((((((((((((((((((((((((((((((((((((((((((((((((((((((((((((((((((((((((((((((((((((((((((((((((((((((((((((((((((((((((((((((((((((((((",
"(((((((((((((((((((((((((((((((((((((((((((((((((((((((((((((((((((((((((((((((((((((((((((((((((((((((((((((((((((((((((((((((((((((((((((((((((((((((((((((((((((((((((((((((((((((((((((((((((((((((((((((((((((((((((((((((((((((((((((((((((((((((((((((((((((((((((((((((((((((((((((((((((((((((((((((((((((((((((((((((((((((((((((((((((((((((((((((((((((((((((((((((((((((((((((((((((((((((((((((((((((((((((((((((((((((((((((((((((((((((((((((((((((((((((((((((((((((((((((((((((((((((((((((",
"(((((((((((((((((((((((((((((((((((((((((((((((((((((((((((((((((((((((((((((((((((((((((((((((((((((((((((((((((((((((((((((((((((((((((((((((((((((((((((((((((((((((((((((((((((((((((((((((((((((((((((((((((((((((((((((((((((((((((((((((((((((((((((((((((((((((((((((((((((((((((((((((((((((((((((((((((((((((((((((((((((((((((((((((((((((((((((((((((((((((((((((((((((((((((((((((((((((((((((((((((((((((((((((((((((((((((((((((((((((((((((((((((((((((((((((((((((((((((((((((((((((((((((((",
"(((((((((((((((((((((((((((((((((((((((((((((((((((((((((((((((((((((((((((((((((((((((((((((((((((((((((((((((((((((((((((((((((((((((((((((((((((((((((((((((((((((((((((((((((((((((((((((((((((((((((((((((((((((((((((((((((((((((((((((((((((((((((((((((((((((((((((((((((((((((((((((((((((((((((((((((((((((((((((((((((((((((((((((((((((((((((((((((((((((((((((((((((((((((((((((((((((((((((((((((((((((((((((((((((((((((((((((((((((((((((((((((((((((((((((((((((((((((((((((((((((((((((((((",
"(((((((((((((((((((((((((((((((((((((((((((((((((((((((((((((((((((((((((((((((((((((((((((((((((((((((((((((((((((((((((((((((((((((((((((((((((((((((((((((((((((((((((((((((((((((((((((((((((((((((((((((((((((((((((((((((((((((((((((((((((((((((((((((((((((((((((((((((((((((((((((((((((((((((((((((((((((((((((((((((((((((((((((((((((((((((((((((((((((((((((((((((((((((((((((((((((((((((((((((((((((((((((((((((((((((((((((((((((((((((((((((((((((((((((((((((((((((((((((((((((((((((((((((",
"(((((((((((((((((((((((((((((((((((((((((((((((((((((((((((((((((((((((((((((((((((((((((((((((((((((((((((((((((((((((((((((((((((((((((((((((((((((((((((((((((((((((((((((((((((((((((((((((((((((((((((((((((((((((((((((((((((((((((((((((((((((((((((((((((((((((((((((((((((((((((((((((((((((((((((((((((((((((((((((((((((((((((((((((((((((((((((((((((((((((((((((((((((((((((((((((((((((((((((((((((((((((((((((((((((((((((((((((((((((((((((((((((((((((((((((((((((((((((((((((((((((((((((((",
"(((((((((((((((((((((((((((((((((((((((((((((((((((((((((((((((((((((((((((((((((((((((((((((((((((((((((((((((((((((((((((((((((((((((((((((((((((((((((((((((((((((((((((((((((((((((((((((((((((((((((((((((((((((((((((((((((((((((((((((((((((((((((((((((((((((((((((((((((((((((((((((((((((((((((((((((((((((((((((((((((((((((((((((((((((((((((((((((((((((((((((((((((((((((((((((((((((((((((((((((((((((((((((((((((((((((((((((((((((((((((((((((((((((((((((((((((((((((((((((((((((((((((((((",
"(((((((((((((((((((((((((((((((((((((((((((((((((((((((((((((((((((((((((((((((((((((((((((((((((((((((((((((((((((((((((((((((((((((((((((((((((((((((((((((((((((((((((((((((((((((((((((((((((((((((((((((((((((((((((((((((((((((((((((((((((((((((((((((((((((((((((((((((((((((((((((((((((((((((((((((((((((((((((((((((((((((((((((((((((((((((((((((((((((((((((((((((((((((((((((((((((((((((((((((((((((((((((((((((((((((((((((((((((((((((((((((((((((((((((((((((((((((((((((((((((((((((((((((",
"(((((((((((((((((((((((((((((((((((((((((((((((((((((((((((((((((((((((((((((((((((((((((((((((((((((((((((((((((((((((((((((((((((((((((((((((((((((((((((((((((((((((((((((((((((((((((((((((((((((((((((((((((((((((((((((((((((((((((((((((((((((((((((((((((((((((((((((((((((((((((((((((((((((((((((((((((((((((((((((((((((((((((((((((((((((((((((((((((((((((((((((((((((((((((((((((((((((((((((((((((((((((((((((((((((((((((((((((((((((((((((((((((((((((((((((((((((((((((((((((((((((((((((((",
"(((((((((((((((((((((((((((((((((((((((((((((((((((((((((((((((((((((((((((((((((((((((((((((((((((((((((((((((((((((((((((((((((((((((((((((((((((((((((((((((((((((((((((((((((((((((((((((((((((((((((((((((((((((((((((((((((((((((((((((((((((((((((((((((((((((((((((((((((((((((((((((((((((((((((((((((((((((((((((((((((((((((((((((((((((((((((((((((((((((((((((((((((((((((((((((((((((((((((((((((((((((((((((((((((((((((((((((((((((((((((((((((((((((((((((((((((((((((((((((((((((((((((((((",
"(((((((((((((((((((((((((((((((((((((((((((((((((((((((((((((((((((((((((((((((((((((((((((((((((((((((((((((((((((((((((((((((((((((((((((((((((((((((((((((((((((((((((((((((((((((((((((((((((((((((((((((((((((((((((((((((((((((((((((((((((((((((((((((((((((((((((((((((((((((((((((((((((((((((((((((((((((((((((((((((((((((((((((((((((((((((((((((((((((((((((((((((((((((((((((((((((((((((((((((((((((((((((((((((((((((((((((((((((((((((((((((((((((((((((((((((((((((((((((((((((((((((((((((",
"(((((((((((((((((((((((((((((((((((((((((((((((((((((((((((((((((((((((((((((((((((((((((((((((((((((((((((((((((((((((((((((((((((((((((((((((((((((((((((((((((((((((((((((((((((((((((((((((((((((((((((((((((((((((((((((((((((((((((((((((((((((((((((((((((((((((((((((((((((((((((((((((((((((((((((((((((((((((((((((((((((((((((((((((((((((((((((((((((((((((((((((((((((((((((((((((((((((((((((((((((((((((((((((((((((((((((((((((((((((((((((((((((((((((((((((((((((((((((((((((((((((((((((((",
"(((((((((((((((((((((((((((((((((((((((((((((((((((((((((((((((((((((((((((((((((((((((((((((((((((((((((((((((((((((((((((((((((((((((((((((((((((((((((((((((((((((((((((((((((((((((((((((((((((((((((((((((((((((((((((((((((((((((((((((((((((((((((((((((((((((((((((((((((((((((((((((((((((((((((((((((((((((((((((((((((((((((((((((((((((((((((((((((((((((((((((((((((((((((((((((((((((((((((((((((((((((((((((((((((((((((((((((((((((((((((((((((((((((((((((((((((((((((((((((((((((((((((((((",
"(((((((((((((((((((((((((((((((((((((((((((((((((((((((((((((((((((((((((((((((((((((((((((((((((((((((((((((((((((((((((((((((((((((((((((((((((((((((((((((((((((((((((((((((((((((((((((((((((((((((((((((((((((((((((((((((((((((((((((((((((((((((((((((((((((((((((((((((((((((((((((((((((((((((((((((((((((((((((((((((((((((((((((((((((((((((((((((((((((((((((((((((((((((((((((((((((((((((((((((((((((((((((((((((((((((((((((((((((((((((((((((((((((((((((((((((((((((((((((((((((((((((((((((",
"(((((((((((((((((((((((((((((((((((((((((((((((((((((((((((((((((((((((((((((((((((((((((((((((((((((((((((((((((((((((((((((((((((((((((((((((((((((((((((((((((((((((((((((((((((((((((((((((((((((((((((((((((((((((((((((((((((((((((((((((((((((((((((((((((((((((((((((((((((((((((((((((((((((((((((((((((((((((((((((((((((((((((((((((((((((((((((((((((((((((((((((((((((((((((((((((((((((((((((((((((((((((((((((((((((((((((((((((((((((((((((((((((((((((((((((((((((((((((((((((((((((((((((((",
"(((((((((((((((((((((((((((((((((((((((((((((((((((((((((((((((((((((((((((((((((((((((((((((((((((((((((((((((((((((((((((((((((((((((((((((((((((((((((((((((((((((((((((((((((((((((((((((((((((((((((((((((((((((((((((((((((((((((((((((((((((((((((((((((((((((((((((((((((((((((((((((((((((((((((((((((((((((((((((((((((((((((((((((((((((((((((((((((((((((((((((((((((((((((((((((((((((((((((((((((((((((((((((((((((((((((((((((((((((((((((((((((((((((((((((((((((((((((((((((((((((((((((((((",
"(((((((((((((((((((((((((((((((((((((((((((((((((((((((((((((((((((((((((((((((((((((((((((((((((((((((((((((((((((((((((((((((((((((((((((((((((((((((((((((((((((((((((((((((((((((((((((((((((((((((((((((((((((((((((((((((((((((((((((((((((((((((((((((((((((((((((((((((((((((((((((((((((((((((((((((((((((((((((((((((((((((((((((((((((((((((((((((((((((((((((((((((((((((((((((((((((((((((((((((((((((((((((((((((((((((((((((((((((((((((((((((((((((((((((((((((((((((((((((((((((((((((((((((",
"(((((((((((((((((((((((((((((((((((((((((((((((((((((((((((((((((((((((((((((((((((((((((((((((((((((((((((((((((((((((((((((((((((((((((((((((((((((((((((((((((((((((((((((((((((((((((((((((((((((((((((((((((((((((((((((((((((((((((((((((((((((((((((((((((((((((((((((((((((((((((((((((((((((((((((((((((((((((((((((((((((((((((((((((((((((((((((((((((((((((((((((((((((((((((((((((((((((((((((((((((((((((((((((((((((((((((((((((((((((((((((((((((((((((((((((((((((((((((((((((((((((((((((((",
"(((((((((((((((((((((((((((((((((((((((((((((((((((((((((((((((((((((((((((((((((((((((((((((((((((((((((((((((((((((((((((((((((((((((((((((((((((((((((((((((((((((((((((((((((((((((((((((((((((((((((((((((((((((((((((((((((((((((((((((((((((((((((((((((((((((((((((((((((((((((((((((((((((((((((((((((((((((((((((((((((((((((((((((((((((((((((((((((((((((((((((((((((((((((((((((((((((((((((((((((((((((((((((((((((((((((((((((((((((((((((((((((((((((((((((((((((((((((((((((((((((((((((((((",
"(((((((((((((((((((((((((((((((((((((((((((((((((((((((((((((((((((((((((((((((((((((((((((((((((((((((((((((((((((((((((((((((((((((((((((((((((((((((((((((((((((((((((((((((((((((((((((((((((((((((((((((((((((((((((((((((((((((((((((((((((((((((((((((((((((((((((((((((((((((((((((((((((((((((((((((((((((((((((((((((((((((((((((((((((((((((((((((((((((((((((((((((((((((((((((((((((((((((((((((((((((((((((((((((((((((((((((((((((((((((((((((((((((((((((((((((((((((((((((((((((((((((((((((",
"(((((((((((((((((((((((((((((((((((((((((((((((((((((((((((((((((((((((((((((((((((((((((((((((((((((((((((((((((((((((((((((((((((((((((((((((((((((((((((((((((((((((((((((((((((((((((((((((((((((((((((((((((((((((((((((((((((((((((((((((((((((((((((((((((((((((((((((((((((((((((((((((((((((((((((((((((((((((((((((((((((((((((((((((((((((((((((((((((((((((((((((((((((((((((((((((((((((((((((((((((((((((((((((((((((((((((((((((((((((((((((((((((((((((((((((((((((((((((((((((((((((((((((((",
"(((((((((((((((((((((((((((((((((((((((((((((((((((((((((((((((((((((((((((((((((((((((((((((((((((((((((((((((((((((((((((((((((((((((((((((((((((((((((((((((((((((((((((((((((((((((((((((((((((((((((((((((((((((((((((((((((((((((((((((((((((((((((((((((((((((((((((((((((((((((((((((((((((((((((((((((((((((((((((((((((((((((((((((((((((((((((((((((((((((((((((((((((((((((((((((((((((((((((((((((((((((((((((((((((((((((((((((((((((((((((((((((((((((((((((((((((((((((((((((((((((((((((((((",
"(((((((((((((((((((((((((((((((((((((((((((((((((((((((((((((((((((((((((((((((((((((((((((((((((((((((((((((((((((((((((((((((((((((((((((((((((((((((((((((((((((((((((((((((((((((((((((((((((((((((((((((((((((((((((((((((((((((((((((((((((((((((((((((((((((((((((((((((((((((((((((((((((((((((((((((((((((((((((((((((((((((((((((((((((((((((((((((((((((((((((((((((((((((((((((((((((((((((((((((((((((((((((((((((((((((((((((((((((((((((((((((((((((((((((((((((((((((((((((((((((((((((((((((",
"(((((((((((((((((((((((((((((((((((((((((((((((((((((((((((((((((((((((((((((((((((((((((((((((((((((((((((((((((((((((((((((((((((((((((((((((((((((((((((((((((((((((((((((((((((((((((((((((((((((((((((((((((((((((((((((((((((((((((((((((((((((((((((((((((((((((((((((((((((((((((((((((((((((((((((((((((((((((((((((((((((((((((((((((((((((((((((((((((((((((((((((((((((((((((((((((((((((((((((((((((((((((((((((((((((((((((((((((((((((((((((((((((((((((((((((((((((((((((((((((((((((((((((((",
"(((((((((((((((((((((((((((((((((((((((((((((((((((((((((((((((((((((((((((((((((((((((((((((((((((((((((((((((((((((((((((((((((((((((((((((((((((((((((((((((((((((((((((((((((((((((((((((((((((((((((((((((((((((((((((((((((((((((((((((((((((((((((((((((((((((((((((((((((((((((((((((((((((((((((((((((((((((((((((((((((((((((((((((((((((((((((((((((((((((((((((((((((((((((((((((((((((((((((((((((((((((((((((((((((((((((((((((((((((((((((((((((((((((((((((((((((((((((((((((((((((((((((((((",
"(((((((((((((((((((((((((((((((((((((((((((((((((((((((((((((((((((((((((((((((((((((((((((((((((((((((((((((((((((((((((((((((((((((((((((((((((((((((((((((((((((((((((((((((((((((((((((((((((((((((((((((((((((((((((((((((((((((((((((((((((((((((((((((((((((((((((((((((((((((((((((((((((((((((((((((((((((((((((((((((((((((((((((((((((((((((((((((((((((((((((((((((((((((((((((((((((((((((((((((((((((((((((((((((((((((((((((((((((((((((((((((((((((((((((((((((((((((((((((((((((((((((((((((",
"(((((((((((((((((((((((((((((((((((((((((((((((((((((((((((((((((((((((((((((((((((((((((((((((((((((((((((((((((((((((((((((((((((((((((((((((((((((((((((((((((((((((((((((((((((((((((((((((((((((((((((((((((((((((((((((((((((((((((((((((((((((((((((((((((((((((((((((((((((((((((((((((((((((((((((((((((((((((((((((((((((((((((((((((((((((((((((((((((((((((((((((((((((((((((((((((((((((((((((((((((((((((((((((((((((((((((((((((((((((((((((((((((((((((((((((((((((((((((((((((((((((((((((((",
"(((((((((((((((((((((((((((((((((((((((((((((((((((((((((((((((((((((((((((((((((((((((((((((((((((((((((((((((((((((((((((((((((((((((((((((((((((((((((((((((((((((((((((((((((((((((((((((((((((((((((((((((((((((((((((((((((((((((((((((((((((((((((((((((((((((((((((((((((((((((((((((((((((((((((((((((((((((((((((((((((((((((((((((((((((((((((((((((((((((((((((((((((((((((((((((((((((((((((((((((((((((((((((((((((((((((((((((((((((((((((((((((((((((((((((((((((((((((((((((((((((((((((((((",
"(((((((((((((((((((((((((((((((((((((((((((((((((((((((((((((((((((((((((((((((((((((((((((((((((((((((((((((((((((((((((((((((((((((((((((((((((((((((((((((((((((((((((((((((((((((((((((((((((((((((((((((((((((((((((((((((((((((((((((((((((((((((((((((((((((((((((((((((((((((((((((((((((((((((((((((((((((((((((((((((((((((((((((((((((((((((((((((((((((((((((((((((((((((((((((((((((((((((((((((((((((((((((((((((((((((((((((((((((((((((((((((((((((((((((((((((((((((((((((((((((((((((((((((",
"(((((((((((((((((((((((((((((((((((((((((((((((((((((((((((((((((((((((((((((((((((((((((((((((((((((((((((((((((((((((((((((((((((((((((((((((((((((((((((((((((((((((((((((((((((((((((((((((((((((((((((((((((((((((((((((((((((((((((((((((((((((((((((((((((((((((((((((((((((((((((((((((((((((((((((((((((((((((((((((((((((((((((((((((((((((((((((((((((((((((((((((((((((((((((((((((((((((((((((((((((((((((((((((((((((((((((((((((((((((((((((((((((((((((((((((((((((((((((((((((((((((((((((((",
"(((((((((((((((((((((((((((((((((((((((((((((((((((((((((((((((((((((((((((((((((((((((((((((((((((((((((((((((((((((((((((((((((((((((((((((((((((((((((((((((((((((((((((((((((((((((((((((((((((((((((((((((((((((((((((((((((((((((((((((((((((((((((((((((((((((((((((((((((((((((((((((((((((((((((((((((((((((((((((((((((((((((((((((((((((((((((((((((((((((((((((((((((((((((((((((((((((((((((((((((((((((((((((((((((((((((((((((((((((((((((((((((((((((((((((((((((((((((((((((((((((((((((((((",
"(((((((((((((((((((((((((((((((((((((((((((((((((((((((((((((((((((((((((((((((((((((((((((((((((((((((((((((((((((((((((((((((((((((((((((((((((((((((((((((((((((((((((((((((((((((((((((((((((((((((((((((((((((((((((((((((((((((((((((((((((((((((((((((((((((((((((((((((((((((((((((((((((((((((((((((((((((((((((((((((((((((((((((((((((((((((((((((((((((((((((((((((((((((((((((((((((((((((((((((((((((((((((((((((((((((((((((((((((((((((((((((((((((((((((((((((((((((((((((((((((((((((((((((",
"(((((((((((((((((((((((((((((((((((((((((((((((((((((((((((((((((((((((((((((((((((((((((((((((((((((((((((((((((((((((((((((((((((((((((((((((((((((((((((((((((((((((((((((((((((((((((((((((((((((((((((((((((((((((((((((((((((((((((((((((((((((((((((((((((((((((((((((((((((((((((((((((((((((((((((((((((((((((((((((((((((((((((((((((((((((((((((((((((((((((((((((((((((((((((((((((((((((((((((((((((((((((((((((((((((((((((((((((((((((((((((((((((((((((((((((((((((((((((((((((((((((((((((((",
"(((((((((((((((((((((((((((((((((((((((((((((((((((((((((((((((((((((((((((((((((((((((((((((((((((((((((((((((((((((((((((((((((((((((((((((((((((((((((((((((((((((((((((((((((((((((((((((((((((((((((((((((((((((((((((((((((((((((((((((((((((((((((((((((((((((((((((((((((((((((((((((((((((((((((((((((((((((((((((((((((((((((((((((((((((((((((((((((((((((((((((((((((((((((((((((((((((((((((((((((((((((((((((((((((((((((((((((((((((((((((((((((((((((((((((((((((((((((((((((((((((((((((((((",
"(((((((((((((((((((((((((((((((((((((((((((((((((((((((((((((((((((((((((((((((((((((((((((((((((((((((((((((((((((((((((((((((((((((((((((((((((((((((((((((((((((((((((((((((((((((((((((((((((((((((((((((((((((((((((((((((((((((((((((((((((((((((((((((((((((((((((((((((((((((((((((((((((((((((((((((((((((((((((((((((((((((((((((((((((((((((((((((((((((((((((((((((((((((((((((((((((((((((((((((((((((((((((((((((((((((((((((((((((((((((((((((((((((((((((((((((((((((((((((((((((((((((((((((",
"(((((((((((((((((((((((((((((((((((((((((((((((((((((((((((((((((((((((((((((((((((((((((((((((((((((((((((((((((((((((((((((((((((((((((((((((((((((((((((((((((((((((((((((((((((((((((((((((((((((((((((((((((((((((((((((((((((((((((((((((((((((((((((((((((((((((((((((((((((((((((((((((((((((((((((((((((((((((((((((((((((((((((((((((((((((((((((((((((((((((((((((((((((((((((((((((((((((((((((((((((((((((((((((((((((((((((((((((((((((((((((((((((((((((((((((((((((((((((((((((((((((((((((((",
"(((((((((((((((((((((((((((((((((((((((((((((((((((((((((((((((((((((((((((((((((((((((((((((((((((((((((((((((((((((((((((((((((((((((((((((((((((((((((((((((((((((((((((((((((((((((((((((((((((((((((((((((((((((((((((((((((((((((((((((((((((((((((((((((((((((((((((((((((((((((((((((((((((((((((((((((((((((((((((((((((((((((((((((((((((((((((((((((((((((((((((((((((((((((((((((((((((((((((((((((((((((((((((((((((((((((((((((((((((((((((((((((((((((((((((((((((((((((((((((((((((((((((((((",
"(((((((((((((((((((((((((((((((((((((((((((((((((((((((((((((((((((((((((((((((((((((((((((((((((((((((((((((((((((((((((((((((((((((((((((((((((((((((((((((((((((((((((((((((((((((((((((((((((((((((((((((((((((((((((((((((((((((((((((((((((((((((((((((((((((((((((((((((((((((((((((((((((((((((((((((((((((((((((((((((((((((((((((((((((((((((((((((((((((((((((((((((((((((((((((((((((((((((((((((((((((((((((((((((((((((((((((((((((((((((((((((((((((((((((((((((((((((((((((((((((((((((((((((",
"(((((((((((((((((((((((((((((((((((((((((((((((((((((((((((((((((((((((((((((((((((((((((((((((((((((((((((((((((((((((((((((((((((((((((((((((((((((((((((((((((((((((((((((((((((((((((((((((((((((((((((((((((((((((((((((((((((((((((((((((((((((((((((((((((((((((((((((((((((((((((((((((((((((((((((((((((((((((((((((((((((((((((((((((((((((((((((((((((((((((((((((((((((((((((((((((((((((((((((((((((((((((((((((((((((((((((((((((((((((((((((((((((((((((((((((((((((((((((((((((((((((((((((((",
"(((((((((((((((((((((((((((((((((((((((((((((((((((((((((((((((((((((((((((((((((((((((((((((((((((((((((((((((((((((((((((((((((((((((((((((((((((((((((((((((((((((((((((((((((((((((((((((((((((((((((((((((((((((((((((((((((((((((((((((((((((((((((((((((((((((((((((((((((((((((((((((((((((((((((((((((((((((((((((((((((((((((((((((((((((((((((((((((((((((((((((((((((((((((((((((((((((((((((((((((((((((((((((((((((((((((((((((((((((((((((((((((((((((((((((((((((((((((((((((((((((((((((((((",
"(((((((((((((((((((((((((((((((((((((((((((((((((((((((((((((((((((((((((((((((((((((((((((((((((((((((((((((((((((((((((((((((((((((((((((((((((((((((((((((((((((((((((((((((((((((((((((((((((((((((((((((((((((((((((((((((((((((((((((((((((((((((((((((((((((((((((((((((((((((((((((((((((((((((((((((((((((((((((((((((((((((((((((((((((((((((((((((((((((((((((((((((((((((((((((((((((((((((((((((((((((((((((((((((((((((((((((((((((((((((((((((((((((((((((((((((((((((((((((((((((((((((((((((",
"(((((((((((((((((((((((((((((((((((((((((((((((((((((((((((((((((((((((((((((((((((((((((((((((((((((((((((((((((((((((((((((((((((((((((((((((((((((((((((((((((((((((((((((((((((((((((((((((((((((((((((((((((((((((((((((((((((((((((((((((((((((((((((((((((((((((((((((((((((((((((((((((((((((((((((((((((((((((((((((((((((((((((((((((((((((((((((((((((((((((((((((((((((((((((((((((((((((((((((((((((((((((((((((((((((((((((((((((((((((((((((((((((((((((((((((((((((((((((((((((((((((((((((((",
"(((((((((((((((((((((((((((((((((((((((((((((((((((((((((((((((((((((((((((((((((((((((((((((((((((((((((((((((((((((((((((((((((((((((((((((((((((((((((((((((((((((((((((((((((((((((((((((((((((((((((((((((((((((((((((((((((((((((((((((((((((((((((((((((((((((((((((((((((((((((((((((((((((((((((((((((((((((((((((((((((((((((((((((((((((((((((((((((((((((((((((((((((((((((((((((((((((((((((((((((((((((((((((((((((((((((((((((((((((((((((((((((((((((((((((((((((((((((((((((((((((((((((((((",
"(((((((((((((((((((((((((((((((((((((((((((((((((((((((((((((((((((((((((((((((((((((((((((((((((((((((((((((((((((((((((((((((((((((((((((((((((((((((((((((((((((((((((((((((((((((((((((((((((((((((((((((((((((((((((((((((((((((((((((((((((((((((((((((((((((((((((((((((((((((((((((((((((((((((((((((((((((((((((((((((((((((((((((((((((((((((((((((((((((((((((((((((((((((((((((((((((((((((((((((((((((((((((((((((((((((((((((((((((((((((((((((((((((((((((((((((((((((((((((((((((((((((((((((",
"(((((((((((((((((((((((((((((((((((((((((((((((((((((((((((((((((((((((((((((((((((((((((((((((((((((((((((((((((((((((((((((((((((((((((((((((((((((((((((((((((((((((((((((((((((((((((((((((((((((((((((((((((((((((((((((((((((((((((((((((((((((((((((((((((((((((((((((((((((((((((((((((((((((((((((((((((((((((((((((((((((((((((((((((((((((((((((((((((((((((((((((((((((((((((((((((((((((((((((((((((((((((((((((((((((((((((((((((((((((((((((((((((((((((((((((((((((((((((((((((((((((((((((((",
"(((((((((((((((((((((((((((((((((((((((((((((((((((((((((((((((((((((((((((((((((((((((((((((((((((((((((((((((((((((((((((((((((((((((((((((((((((((((((((((((((((((((((((((((((((((((((((((((((((((((((((((((((((((((((((((((((((((((((((((((((((((((((((((((((((((((((((((((((((((((((((((((((((((((((((((((((((((((((((((((((((((((((((((((((((((((((((((((((((((((((((((((((((((((((((((((((((((((((((((((((((((((((((((((((((((((((((((((((((((((((((((((((((((((((((((((((((((((((((((((((((((((((((((",
"(((((((((((((((((((((((((((((((((((((((((((((((((((((((((((((((((((((((((((((((((((((((((((((((((((((((((((((((((((((((((((((((((((((((((((((((((((((((((((((((((((((((((((((((((((((((((((((((((((((((((((((((((((((((((((((((((((((((((((((((((((((((((((((((((((((((((((((((((((((((((((((((((((((((((((((((((((((((((((((((((((((((((((((((((((((((((((((((((((((((((((((((((((((((((((((((((((((((((((((((((((((((((((((((((((((((((((((((((((((((((((((((((((((((((((((((((((((((((((((((((((((((((((((",
"(((((((((((((((((((((((((((((((((((((((((((((((((((((((((((((((((((((((((((((((((((((((((((((((((((((((((((((((((((((((((((((((((((((((((((((((((((((((((((((((((((((((((((((((((((((((((((((((((((((((((((((((((((((((((((((((((((((((((((((((((((((((((((((((((((((((((((((((((((((((((((((((((((((((((((((((((((((((((((((((((((((((((((((((((((((((((((((((((((((((((((((((((((((((((((((((((((((((((((((((((((((((((((((((((((((((((((((((((((((((((((((((((((((((((((((((((((((((((((((((((((((((((((((",
"(((((((((((((((((((((((((((((((((((((((((((((((((((((((((((((((((((((((((((((((((((((((((((((((((((((((((((((((((((((((((((((((((((((((((((((((((((((((((((((((((((((((((((((((((((((((((((((((((((((((((((((((((((((((((((((((((((((((((((((((((((((((((((((((((((((((((((((((((((((((((((((((((((((((((((((((((((((((((((((((((((((((((((((((((((((((((((((((((((((((((((((((((((((((((((((((((((((((((((((((((((((((((((((((((((((((((((((((((((((((((((((((((((((((((((((((((((((((((((((((((((((((((((((",
"(((((((((((((((((((((((((((((((((((((((((((((((((((((((((((((((((((((((((((((((((((((((((((((((((((((((((((((((((((((((((((((((((((((((((((((((((((((((((((((((((((((((((((((((((((((((((((((((((((((((((((((((((((((((((((((((((((((((((((((((((((((((((((((((((((((((((((((((((((((((((((((((((((((((((((((((((((((((((((((((((((((((((((((((((((((((((((((((((((((((((((((((((((((((((((((((((((((((((((((((((((((((((((((((((((((((((((((((((((((((((((((((((((((((((((((((((((((((((((((((((((((((((((((",
"(((((((((((((((((((((((((((((((((((((((((((((((((((((((((((((((((((((((((((((((((((((((((((((((((((((((((((((((((((((((((((((((((((((((((((((((((((((((((((((((((((((((((((((((((((((((((((((((((((((((((((((((((((((((((((((((((((((((((((((((((((((((((((((((((((((((((((((((((((((((((((((((((((((((((((((((((((((((((((((((((((((((((((((((((((((((((((((((((((((((((((((((((((((((((((((((((((((((((((((((((((((((((((((((((((((((((((((((((((((((((((((((((((((((((((((((((((((((((((((((((((((((((((((",
"(((((((((((((((((((((((((((((((((((((((((((((((((((((((((((((((((((((((((((((((((((((((((((((((((((((((((((((((((((((((((((((((((((((((((((((((((((((((((((((((((((((((((((((((((((((((((((((((((((((((((((((((((((((((((((((((((((((((((((((((((((((((((((((((((((((((((((((((((((((((((((((((((((((((((((((((((((((((((((((((((((((((((((((((((((((((((((((((((((((((((((((((((((((((((((((((((((((((((((((((((((((((((((((((((((((((((((((((((((((((((((((((((((((((((((((((((((((((((((((((((((((((((((((",
"(((((((((((((((((((((((((((((((((((((((((((((((((((((((((((((((((((((((((((((((((((((((((((((((((((((((((((((((((((((((((((((((((((((((((((((((((((((((((((((((((((((((((((((((((((((((((((((((((((((((((((((((((((((((((((((((((((((((((((((((((((((((((((((((((((((((((((((((((((((((((((((((((((((((((((((((((((((((((((((((((((((((((((((((((((((((((((((((((((((((((((((((((((((((((((((((((((((((((((((((((((((((((((((((((((((((((((((((((((((((((((((((((((((((((((((((((((((((((((((((((((((((((((((",
"(((((((((((((((((((((((((((((((((((((((((((((((((((((((((((((((((((((((((((((((((((((((((((((((((((((((((((((((((((((((((((((((((((((((((((((((((((((((((((((((((((((((((((((((((((((((((((((((((((((((((((((((((((((((((((((((((((((((((((((((((((((((((((((((((((((((((((((((((((((((((((((((((((((((((((((((((((((((((((((((((((((((((((((((((((((((((((((((((((((((((((((((((((((((((((((((((((((((((((((((((((((((((((((((((((((((((((((((((((((((((((((((((((((((((((((((((((((((((((((((((((((((((((((",
"(((((((((((((((((((((((((((((((((((((((((((((((((((((((((((((((((((((((((((((((((((((((((((((((((((((((((((((((((((((((((((((((((((((((((((((((((((((((((((((((((((((((((((((((((((((((((((((((((((((((((((((((((((((((((((((((((((((((((((((((((((((((((((((((((((((((((((((((((((((((((((((((((((((((((((((((((((((((((((((((((((((((((((((((((((((((((((((((((((((((((((((((((((((((((((((((((((((((((((((((((((((((((((((((((((((((((((((((((((((((((((((((((((((((((((((((((((((((((((((((((((((((((((((",
"(((((((((((((((((((((((((((((((((((((((((((((((((((((((((((((((((((((((((((((((((((((((((((((((((((((((((((((((((((((((((((((((((((((((((((((((((((((((((((((((((((((((((((((((((((((((((((((((((((((((((((((((((((((((((((((((((((((((((((((((((((((((((((((((((((((((((((((((((((((((((((((((((((((((((((((((((((((((((((((((((((((((((((((((((((((((((((((((((((((((((((((((((((((((((((((((((((((((((((((((((((((((((((((((((((((((((((((((((((((((((((((((((((((((((((((((((((((((((((((((((((((((((((((",
"(((((((((((((((((((((((((((((((((((((((((((((((((((((((((((((((((((((((((((((((((((((((((((((((((((((((((((((((((((((((((((((((((((((((((((((((((((((((((((((((((((((((((((((((((((((((((((((((((((((((((((((((((((((((((((((((((((((((((((((((((((((((((((((((((((((((((((((((((((((((((((((((((((((((((((((((((((((((((((((((((((((((((((((((((((((((((((((((((((((((((((((((((((((((((((((((((((((((((((((((((((((((((((((((((((((((((((((((((((((((((((((((((((((((((((((((((((((((((((((((((((((((((((((",
"(((((((((((((((((((((((((((((((((((((((((((((((((((((((((((((((((((((((((((((((((((((((((((((((((((((((((((((((((((((((((((((((((((((((((((((((((((((((((((((((((((((((((((((((((((((((((((((((((((((((((((((((((((((((((((((((((((((((((((((((((((((((((((((((((((((((((((((((((((((((((((((((((((((((((((((((((((((((((((((((((((((((((((((((((((((((((((((((((((((((((((((((((((((((((((((((((((((((((((((((((((((((((((((((((((((((((((((((((((((((((((((((((((((((((((((((((((((((((((((((((((((((((((((",
"(((((((((((((((((((((((((((((((((((((((((((((((((((((((((((((((((((((((((((((((((((((((((((((((((((((((((((((((((((((((((((((((((((((((((((((((((((((((((((((((((((((((((((((((((((((((((((((((((((((((((((((((((((((((((((((((((((((((((((((((((((((((((((((((((((((((((((((((((((((((((((((((((((((((((((((((((((((((((((((((((((((((((((((((((((((((((((((((((((((((((((((((((((((((((((((((((((((((((((((((((((((((((((((((((((((((((((((((((((((((((((((((((((((((((((((((((((((((((((((((((((((((((((((",
"(((((((((((((((((((((((((((((((((((((((((((((((((((((((((((((((((((((((((((((((((((((((((((((((((((((((((((((((((((((((((((((((((((((((((((((((((((((((((((((((((((((((((((((((((((((((((((((((((((((((((((((((((((((((((((((((((((((((((((((((((((((((((((((((((((((((((((((((((((((((((((((((((((((((((((((((((((((((((((((((((((((((((((((((((((((((((((((((((((((((((((((((((((((((((((((((((((((((((((((((((((((((((((((((((((((((((((((((((((((((((((((((((((((((((((((((((((((((((((((((((((((((((((((",
"(((((((((((((((((((((((((((((((((((((((((((((((((((((((((((((((((((((((((((((((((((((((((((((((((((((((((((((((((((((((((((((((((((((((((((((((((((((((((((((((((((((((((((((((((((((((((((((((((((((((((((((((((((((((((((((((((((((((((((((((((((((((((((((((((((((((((((((((((((((((((((((((((((((((((((((((((((((((((((((((((((((((((((((((((((((((((((((((((((((((((((((((((((((((((((((((((((((((((((((((((((((((((((((((((((((((((((((((((((((((((((((((((((((((((((((((((((((((((((((((((((((((((((((",
"(((((((((((((((((((((((((((((((((((((((((((((((((((((((((((((((((((((((((((((((((((((((((((((((((((((((((((((((((((((((((((((((((((((((((((((((((((((((((((((((((((((((((((((((((((((((((((((((((((((((((((((((((((((((((((((((((((((((((((((((((((((((((((((((((((((((((((((((((((((((((((((((((((((((((((((((((((((((((((((((((((((((((((((((((((((((((((((((((((((((((((((((((((((((((((((((((((((((((((((((((((((((((((((((((((((((((((((((((((((((((((((((((((((((((((((((((((((((((((((((((((((((((((((",
"(((((((((((((((((((((((((((((((((((((((((((((((((((((((((((((((((((((((((((((((((((((((((((((((((((((((((((((((((((((((((((((((((((((((((((((((((((((((((((((((((((((((((((((((((((((((((((((((((((((((((((((((((((((((((((((((((((((((((((((((((((((((((((((((((((((((((((((((((((((((((((((((((((((((((((((((((((((((((((((((((((((((((((((((((((((((((((((((((((((((((((((((((((((((((((((((((((((((((((((((((((((((((((((((((((((((((((((((((((((((((((((((((((((((((((((((((((((((((((((((((((((((((((((",
"(((((((((((((((((((((((((((((((((((((((((((((((((((((((((((((((((((((((((((((((((((((((((((((((((((((((((((((((((((((((((((((((((((((((((((((((((((((((((((((((((((((((((((((((((((((((((((((((((((((((((((((((((((((((((((((((((((((((((((((((((((((((((((((((((((((((((((((((((((((((((((((((((((((((((((((((((((((((((((((((((((((((((((((((((((((((((((((((((((((((((((((((((((((((((((((((((((((((((((((((((((((((((((((((((((((((((((((((((((((((((((((((((((((((((((((((((((((((((((((((((((((((((((((",
"(((((((((((((((((((((((((((((((((((((((((((((((((((((((((((((((((((((((((((((((((((((((((((((((((((((((((((((((((((((((((((((((((((((((((((((((((((((((((((((((((((((((((((((((((((((((((((((((((((((((((((((((((((((((((((((((((((((((((((((((((((((((((((((((((((((((((((((((((((((((((((((((((((((((((((((((((((((((((((((((((((((((((((((((((((((((((((((((((((((((((((((((((((((((((((((((((((((((((((((((((((((((((((((((((((((((((((((((((((((((((((((((((((((((((((((((((((((((((((((((((((((((((((((",
"(((((((((((((((((((((((((((((((((((((((((((((((((((((((((((((((((((((((((((((((((((((((((((((((((((((((((((((((((((((((((((((((((((((((((((((((((((((((((((((((((((((((((((((((((((((((((((((((((((((((((((((((((((((((((((((((((((((((((((((((((((((((((((((((((((((((((((((((((((((((((((((((((((((((((((((((((((((((((((((((((((((((((((((((((((((((((((((((((((((((((((((((((((((((((((((((((((((((((((((((((((((((((((((((((((((((((((((((((((((((((((((((((((((((((((((((((((((((((((((((((((((((((((((",
"((((((((((((((((((((((((((((((((((((((((((((((((((((((((((((((((((((((((((((((((((((((((((((((((((((((((((((((((((((((((((((((((((((((((((((((((((((((((((((((((((((((((((((((((((((((((((((((((((((((((((((((((((((((((((((((((((((((((((((((((((((((((((((((((((((((((((((((((((((((((((((((((((((((((((((((((((((((((((((((((((((((((((((((((((((((((((((((((((((((((((((((((((((((((((((((((((((((((((((((((((((((((((((((((((((((((((((((((((((((((((((((((((((((((((((((((((((((((((((((((((((((((((((("
};
